/* XPM */
static char *_0c61c3c3a5e413dfb5a45b2ac2779acepDtBcqRR1dlxOW2[] = {
/* columns rows colors chars-per-pixel */
"225 225 42 1 ",
"  c white",
". c black",
"X c #EAEAEA",
"o c gray59",
"O c gray61",
"+ c gray98",
"@ c gray89",
"# c gray95",
"$ c #B7B7B7",
"% c gray97",
"& c gray64",
"* c #7C7C7C",
"= c #E6E6E6",
"- c gray84",
"; c #B4B4B4",
": c #F1F1F1",
"> c #C0C0C0",
", c #ACACAC",
"< c #868686",
"1 c #A2A2A2",
"2 c gray74",
"3 c #DDDDDD",
"4 c #565656",
"5 c gray30",
"6 c gray79",
"7 c gray19",
"8 c gray40",
"9 c gray81",
"0 c gray36",
"q c #353535",
"w c gray38",
"e c gray46",
"r c #8E8E8E",
"t c gray25",
"y c #272727",
"u c #111111",
"i c #494949",
"p c #1E1E1E",
"a c #232323",
"s c gray23",
"d c #6F6F6F",
"f c #161616",
/* pixels */
"                                                                                                                                                                                                                                 ",
"                                                                                                                                                                                                                                 ",
"                                                                                                                                                                                                                                 ",
"                                                                                                                                                                                                                                 ",
"                                                                                                                                                                                                                                 ",
"                                                                                                                                                                                                                                 ",
"                                                                                                                                                                                                                                 ",
"                                                                                                                                                                                                                                 ",
"                                                                                                                                                                                                                                 ",
"                                                                                                                                                                                                                                 ",
"                                                                                                                                                                                                                                 ",
"                                                                                                                                                                                                                                 ",
"                                                                                                                                                                                                                                 ",
"                                                                                                                                                                                                                                 ",
"                                                                                                                                                                                                                                 ",
"                                                                                                                                                                                                                                 ",
"                                                                                                                                                                                                                                 ",
"                                                                                                                                                                                                                                 ",
"                                                                                                                                                                                                                                 ",
"                                                                                                                                                                                                                                 ",
"                                                                                                                                                                                                                                 ",
"                                                                                                                                                                                                                                 ",
"                                                                                                                                                                                                                                 ",
"                                                                                                                                                                                                                                 ",
"                                                                                                                                                                                                                                 ",
"                                                                                                                                                                                                                                 ",
"                                                                                                                                                                                                                                 ",
"                                                                                                                                                                                                                                 ",
"                                                                                                                                                                                                                                 ",
"                                                                                                                                                                                                                                 ",
"                                                                                                                                                                                                                                 ",
"                                                                                                                                                                                                                                 ",
"                                                                                                                                                                                                                                 ",
"                                                                                                                                                                                                                                 ",
"                                                                                                                                                                                                                                 ",
"                                                                                                                                                                                                                                 ",
"                                                                                                                                                                                                                                 ",
"                                                                                                                                                                                                                                 ",
"                                                                                                                                                                                                                                 ",
"                                                                                                                                                                                                                                 ",
"                                                                                                                                                                                                                                 ",
"                                                                                                                                                                                                                                 ",
"                                                                                                                                                                                                                                 ",
"                                                                                                                                                                                                                                 ",
"                                                                                                                                                                                                                                 ",
"                                                                                                                                                                                                                                 ",
"                                                                                                                                                                                                                                 ",
"                                                                                                                                                                                                                                 ",
"                                                                                                                                                                                                                                 ",
"                                                                                                                                                                                                                                 ",
"                                                                                                                                                                                                                                 ",
"                                                                                                                                                                                                                                 ",
"                                                                                                                                                                                                                                 ",
"                                                                                                                                                                                                                                 ",
"                                                                                                                                                                                                                                 ",
"                                                                                                                                                                                                                                 ",
"                                                                                                                                                                                                                                 ",
"                                                                                                                                                                                                                                 ",
"                                                                                                                                                                                                                                 ",
"                                                                                                                                                                                                                                 ",
"                                                                                                                                                                                                                                 ",
"                                                                                                                                                                                                                                 ",
"                                                                                                                                                                                                                                 ",
"                                                                                                                                                                                                                                 ",
"                                                                                                                                                                                                                                 ",
"                                                                                                                                                                                                                                 ",
"                                                                                                                                                                                                                                 ",
"                                                                                                                                                                                                                                 ",
"                                                                                                                                                                                                                                 ",
"                                                                 +@3@@@@=XXX:##:####%+%%                                                            +%##:########%+%%%+                                                          ",
"                                                               +5.......................i                                         =>,Or*ew45syp.........................,                                                        ",
"                                                               ,.........................r                                       >.......................................                                                        ",
"                                                               X..........................6                                      <......................................7                                                        ",
"                                                                 -,<u......................:                                     :4.................................y8r;                                                         ",
"                                                                     9t....................a                                        +%X-,8......................ur9                                                              ",
"                                                                       ;....................0                                              ,..................s6                                                                 ",
"                                                                        =....................o                                               *...............,                                                                   ",
"                                                                         :....................>                                               $.............9                                                                    ",
"                                                                          =....................@                                               6...........,                                                                     ",
"                                                                           >....................%                                               ,.........i                                                                      ",
"                                                                            *...................7                                                4........-                                                                      ",
"                                                                             p...................0                                               X.......y                                                                       ",
"                                                                             3....................<                                               8......o                                                                       ",
"                                                                              <....................,                                              6......9                                                                       ",
"                                                                               .....................9                                             +......#                                                                       ",
"                                                                               ,.....................=                                             y.....                                                                        ",
"                                                                                ......................%                                            w....u                                                                        ",
"                                                                                &.....................7                                            *....q                                                                        ",
"                                                                                %......................4                                           r....5                                                                        ",
"                                                                                 i......................*                                          1....0                                                                        ",
"                                                                                 <.......................1                                         ,....w                                                                        ",
"                                                                                 ,........................>                                        2....d                                                                        ",
"                                                                                 >.....%a..................3                                       >....*                                                                        ",
"                                                                                 -..... 3...................#                                      6....*                                                                        ",
"                                                                                 @....u  <..................a                                      9....<                                                                        ",
"                                                                                 :.....   7..................5                                     -....<                                                                        ",
"                                                                                 +.....   :...................e                                    -....r                                                                        ",
"                                                                                  .....    9...................O                                   3....o                                                                        ",
"                                                                                  .....     ,...................2                                  3....O                                                                        ",
"                                                                                  .....      r...................-                                 @....O                                                                        ",
"                                                                                  .....       8...................:                                @....O                                                                        ",
"                                                                                  y....        i..................u                                X....1                                                                        ",
"                                                                                  q....         7..................t                               X....1                                                                        ",
"                                                                                  s....         +u..................8                              X....1                                                                        ",
"                                                                                  t....          :...................r                             X....,                                                                        ",
"                                                                                  5....           =...................;                            X....,                                                                        ",
"                                                                                  5....            3...................9                           X....,                                                                        ",
"                                                                                  0....             9...................X                          X....,                                                                        ",
"                                                                                  0....              >...................+                         X....;                                                                        ",
"                                                                                  0....               &..................q                         X....;                                                                        ",
"                                                                                  w....                <..................0                        X....;                                                                        ",
"                                                                                  w....                 0..................<                       X....;                                                                        ",
"                                                                                  w....%                 7..................,                      X....;                                                                        ",
"                                                                                  w....%                 %...................6                     X....$                                                                        ",
"                                                                                  w....#                  @...................@                    @....$                                                                        ",
"                                                                                  8....:                   >...................%                   @....$                                                                        ",
"                                                                                  d....X                    o..................y                   @....$                                                                        ",
"                                                                                  e....X                     8..................5                  3....$                                                                        ",
"                                                                                  *....X                      q..................e                 3....$                                                                        ",
"                                                                                  <....@                      %...................O                3....$                                                                        ",
"                                                                                  <....3                       3...................2               -....$                                                                        ",
"                                                                                  r....-                        2...................-              -....$                                                                        ",
"                                                                                  o....-                         r...................:             -....$                                                                        ",
"                                                                                  O....9                          0..................u             9....2                                                                        ",
"                                                                                  1....>                           a..................t            6....2                                                                        ",
"                                                                                  &....2                           :...................8           >....>                                                                        ",
"                                                                                  ,....;                            -...................r          >....6                                                                        ",
"                                                                                  ,....,                             ,...................;         2....9                                                                        ",
"                                                                                  $....1                              <...................9        $....9                                                                        ",
"                                                                                  $....o                               4...................=       ,....9                                                                        ",
"                                                                                  2....<                                y...................%      &....-                                                                        ",
"                                                                                  >....e                                #...................7      &....3                                                                        ",
"                                                                                  6....8                                 @...................4     o....@                                                                        ",
"                                                                                  9....5                                  6...................*    r....@                                                                        ",
"                                                                                  9....q                                   &...................1   <....=                                                                        ",
"                                                                                  -.....                                    *...................>  e....X                                                                        ",
"                                                                                  3.....                                     0...................3 d....X                                                                        ",
"                                                                                  @.....+                                     q...................+8....:                                                                        ",
"                                                                                  =.....X                                     +...................si....%                                                                        ",
"                                                                                  X.....-                                      X........................+                                                                        ",
"                                                                                  X.....>                                       -.......................+                                                                        ",
"                                                                                  X.....,                                        >......................                                                                         ",
"                                                                                  =.....o                                         1.....................                                                                         ",
"                                                                                  @.....e                                          *....................                                                                         ",
"                                                                                  -.....5                                           0...................                                                                         ",
"                                                                                  6.....u                                            q..................                                                                         ",
"                                                                                  $......                                            +..................                                                                         ",
"                                                                                  &......=                                            X.................                                                                         ",
"                                                                                  <......6                                             9................                                                                         ",
"                                                                                  0......&                                              ;..............f                                                                         ",
"                                                                                  .......d                                               r.............7                                                                         ",
"                                                                                 #........                                                w............7                                                                         ",
"                                                                                 >........@                                                s...........q                                                                         ",
"                                                                                 e........d                                                +...........t                                                                         ",
"                                                                                 ..........;                                                =..........i                                                                         ",
"                                                                                o...........>                                                6.........5                                                                         ",
"                                                                               -.............&                                                &........0                                                                         ",
"                                                                              2...............w+                                               e.......0                                                                         ",
"                                                                            65..................&+                                              5......w                                                                         ",
"                                                                    XX@->O8.......................0o,;29                                         a.....8                                                                         ",
"                                                                  O......................................o                                       #.....d                                                                         ",
"                                                                 +........................................X                                       @....<                                                                         ",
"                                                                  p.......................................                                         -...6                                                                         ",
"                                                                   2&&&&&&&&1OOOOOOOOOOOOOoooooooooooooo;%                                          @<,                                                                          ",
"                                                                                                                                                                                                                                 ",
"                                                                                                                                                                                                                                 ",
"                                                                                                                                                                                                                                 ",
"                                                                                                                                                                                                                                 ",
"                                                                                                                                                                                                                                 ",
"                                                                                                                                                                                                                                 ",
"                                                                                                                                                                                                                                 ",
"                                                                                                                                                                                                                                 ",
"                                                                                                                                                                                                                                 ",
"                                                                                                                                                                                                                                 ",
"                                                                                                                                                                                                                                 ",
"                                                                                                                                                                                                                                 ",
"                                                                                                                                                                                                                                 ",
"                                                                                                                                                                                                                                 ",
"                                                                                                                                                                                                                                 ",
"                                                                                                                                                                                                                                 ",
"                                                                                                                                                                                                                                 ",
"                                                                                                                                                                                                                                 ",
"                                                                                                                                                                                                                                 ",
"                                                                                                                                                                                                                                 ",
"                                                                                                                                                                                                                                 ",
"                                                                                                                                                                                                                                 ",
"                                                                                                                                                                                                                                 ",
"                                                                                                                                                                                                                                 ",
"                                                                                                                                                                                                                                 ",
"                                                                                                                                                                                                                                 ",
"                                                                                                                                                                                                                                 ",
"                                                                                                                                                                                                                                 ",
"                                                                                                                                                                                                                                 ",
"                                                                                                                                                                                                                                 ",
"                                                                                                                                                                                                                                 ",
"                                                                                                                                                                                                                                 ",
"                                                                                                                                                                                                                                 ",
"                                                                                                                                                                                                                                 ",
"                                                                                                                                                                                                                                 ",
"                                                                                                                                                                                                                                 ",
"                                                                                                                                                                                                                                 ",
"                                                                                                                                                                                                                                 ",
"                                                                                                                                                                                                                                 ",
"                                                                                                                                                                                                                                 ",
"                                                                                                                                                                                                                                 ",
"                                                                                                                                                                                                                                 ",
"                                                                                                                                                                                                                                 ",
"                                                                                                                                                                                                                                 ",
"                                                                                                                                                                                                                                 ",
"                                                                                                                                                                                                                                 ",
"                                                                                                                                                                                                                                 ",
"                                                                                                                                                                                                                                 ",
"                                                                                                                                                                                                                                 ",
"                                                                                                                                                                                                                                 ",
"                                                                                                                                                                                                                                 ",
"                                                                                                                                                                                                                                 ",
"                                                                                                                                                                                                                                 ",
"                                                                                                                                                                                                                                 ",
"                                                                                                                                                                                                                                 ",
"                                                                                                                                                                                                                                 ",
"                                                                                                                                                                                                                                 ",
"                                                                                                                                                                                                                                 ",
"                                                                                                                                                                                                                                 ",
"                                                                                                                                                                                                                                 ",
"                                                                                                                                                                                                                                 "
};
