/* XPM */
static char *cbbda3d78b8d442afafa69cd432450bbvoJpqi1dJedOZFMx[] = {
/* columns rows colors chars-per-pixel */
"335 333 256 2 ",
"   c #0B0401",
".  c #090804",
"X  c #160804",
"o  c #19150C",
"O  c #1C1813",
"+  c #100E10",
"@  c #260803",
"#  c #26150B",
"$  c #381608",
"%  c #261B17",
"&  c #36140E",
"*  c #2A2419",
"=  c #35291C",
"-  c #332B17",
";  c #2B2624",
":  c #362B26",
">  c #3B3428",
",  c #3A3636",
"<  c #352D32",
"1  c #231F1E",
"2  c #4A150C",
"3  c #482717",
"4  c #522C17",
"5  c #65301C",
"6  c #443C2D",
"7  c #47362A",
"8  c #573828",
"9  c #483A37",
"0  c #523D3B",
"q  c #563A36",
"w  c #492C2E",
"e  c #692A2C",
"r  c #6C2932",
"t  c #752A37",
"y  c #693939",
"u  c #75353B",
"i  c #6B3729",
"p  c #691D26",
"a  c #4C4434",
"s  c #4B4438",
"d  c #53433C",
"f  c #544B3B",
"g  c #574739",
"h  c #59523D",
"j  c #4C412D",
"k  c #674638",
"l  c #774938",
"z  c #704E34",
"x  c #68411D",
"c  c #3A3949",
"v  c #462E43",
"b  c #4B3945",
"n  c #523C43",
"m  c #573A46",
"M  c #4E3C52",
"N  c #653D43",
"B  c #773B42",
"V  c #325872",
"C  c #325061",
"Z  c #4B4547",
"A  c #544443",
"S  c #554B44",
"D  c #5B4C44",
"F  c #544B4B",
"G  c #5C4C4B",
"H  c #574548",
"J  c #5C5344",
"K  c #5D534B",
"L  c #5A5548",
"P  c #4E4856",
"I  c #564A56",
"U  c #5B5454",
"Y  c #59555A",
"T  c #4A5550",
"R  c #634D4C",
"E  c #684747",
"W  c #754447",
"Q  c #62544C",
"!  c #635A4C",
"~  c #675749",
"^  c #775847",
"/  c #674D55",
"(  c #645453",
")  c #695554",
"_  c #655B52",
"`  c #6A5D54",
"'  c #655B5C",
"]  c #6B5B5B",
"[  c #67555A",
"{  c #745C57",
"}  c #724B54",
"|  c #69624D",
" . c #6B6255",
".. c #6D635A",
"X. c #68645A",
"o. c #736455",
"O. c #72655B",
"+. c #746A5C",
"@. c #7B6B5C",
"#. c #786757",
"$. c #7A725C",
"%. c #77634C",
"&. c #5A5863",
"*. c #4E5774",
"=. c #635C63",
"-. c #6B5D63",
";. c #665A68",
":. c #6C5C72",
">. c #59636F",
",. c #656263",
"<. c #6B6364",
"1. c #64636C",
"2. c #6B646C",
"3. c #6B6A69",
"4. c #756B62",
"5. c #7B6D63",
"6. c #766768",
"7. c #7C7264",
"8. c #7D736A",
"9. c #787568",
"0. c #6B6572",
"q. c #6C6B74",
"w. c #696976",
"e. c #736B75",
"r. c #736D7A",
"t. c #776A77",
"y. c #6E747B",
"u. c #6C7679",
"i. c #73737B",
"p. c #7B737C",
"a. c #7A7678",
"s. c #6B7269",
"d. c #5B635A",
"f. c #3D422E",
"g. c #8F3230",
"h. c #AF3436",
"j. c #86241D",
"k. c #874F3B",
"l. c #A7563C",
"z. c #A23C44",
"x. c #865A46",
"c. c #91544D",
"v. c #B14F4E",
"b. c #89644A",
"n. c #94664C",
"m. c #876958",
"M. c #976B55",
"N. c #88725C",
"B. c #997359",
"V. c #94754C",
"C. c #A5755C",
"Z. c #A96C56",
"A. c #846C65",
"S. c #827364",
"D. c #83746B",
"F. c #847A6C",
"G. c #8A7C6C",
"H. c #887867",
"J. c #987766",
"K. c #8B7C73",
"L. c #857976",
"P. c #947D75",
"I. c #8C6D6C",
"U. c #A87A65",
"Y. c #B57B67",
"T. c #B1726E",
"R. c #AE5963",
"E. c #CE5052",
"W. c #E85252",
"Q. c #CD736F",
"!. c #DB6C60",
"~. c #CE3A45",
"^. c #798279",
"/. c #8C8274",
"(. c #8A847A",
"). c #958779",
"_. c #928770",
"`. c #AA836B",
"'. c #B5846C",
"]. c #A88776",
"[. c #BC8C75",
"{. c #B78A76",
"}. c #BB937A",
"|. c #A79478",
" X c #AE9A6B",
".X c #C48C77",
"XX c #C4937C",
"oX c #C9947C",
"OX c #D28E71",
"+X c #DDA179",
"@X c #D2C17F",
"#X c #2C5C89",
"$X c #205E8A",
"%X c #6C7587",
"&X c #747582",
"*X c #7B7583",
"=X c #747984",
"-X c #7D7B84",
";X c #747B8C",
":X c #7C7C8B",
">X c #75768B",
",X c #757C93",
"<X c #7B7D93",
"1X c #797E99",
"2X c #757B97",
"3X c #6F7088",
"4X c #4D6185",
"5X c #837C84",
"6X c #847A87",
"7X c #837D90",
"8X c #A67F80",
"9X c #CA7880",
"0X c #7C828C",
"qX c #7A848A",
"wX c #7C8392",
"eX c #7B8497",
"rX c #768D8F",
"tX c #7886AA",
"yX c #86848A",
"uX c #988A84",
"iX c #9B9385",
"pX c #828592",
"aX c #828B93",
"sX c #8B8993",
"dX c #928B95",
"fX c #8A939A",
"gX c #94959C",
"hX c #8C9387",
"jX c #A69687",
"kX c #BA9786",
"lX c #AC958E",
"zX c #B8A797",
"xX c #B1A992",
"cX c #9499A1",
"vX c #8E95A8",
"bX c #B6B2A8",
"nX c #9BA4A4",
"mX c #CB9B84",
"MX c #C79885",
"NX c #D29C87",
"BX c #CC958C",
"VX c #CAA38A",
"CX c #D3A38A",
"ZX c #C7A797",
"AX c #D8B897",
"SX c #D1B391",
"DX c #E9B48D",
"FX c #C7B8A7",
"GX c #D1B6AA",
"HX c #E8B8A9",
"JX c #EB9689",
"KX c #D2C492",
"LX c #D1C7AE",
"PX c #E6C5A7",
"IX c #D3CDC5",
"UX c #B6BDBB",
/* pixels */
"&.&.&.&.&.&.P P P P Y Y Y &.&.Y I Y Y Y Y Y Y Y Y Y Y Y Y Y Y Y Y &.&.&.&.&.&.&.&.&.&.1.1.1.1.1.1.1.1.1.1.1.1.1.1.1.w.w.w.w.w.w.w.w.w.w.w.w.q.q.0.w.w.w.w.q.q.w.w.w.w.w.w.w.0.0.0.0.0.0.1.1.1.;.1.1.1.;.&.&.&.&.;.;.&.&.&.Y Y Y I I P P P P P P F F F Z F Z Z Z Z Z Z Z Z Z Z Z Z c , , , , , < < < < < ; ; ; ; ; ; ; < < < < < , , , , , , 9 9 9 9 9 b 9 9 9 b b b 9 9 b Z b Z A A n A A A n n n 0 0 0 0 0 0 0 0 0 0 n 0 0 A d d d d d d d q q q q q q q 8 8 8 y y q 8 8 8 e e e e e e e e e e e e e e r e e e r r r r r r t r t t t t t t t t u u u u u u u u u u u u u u u u u u u u B B B B B B B W W W } } } } } } } } } } } } } } } } [ [ [ [ [ [ } } } } -.-.-.-.-.-.-.;.-.;.;.;.=.;.< ",
"&.&.&.&.&.&.P P P P Y Y Y &.&.Y I Y Y Y Y Y Y Y Y Y Y Y Y Y Y Y Y &.&.&.&.&.&.&.&.1.1.1.1.1.1.1.1.1.1.1.1.1.1.1.1.1.w.w.w.w.w.w.w.w.w.w.w.w.q.q.w.w.w.w.w.w.q.w.q.q.w.w.w.w.q.w.w.w.w.0.0.1.2.1.1.1.1.;.;.&.&.&.&.&.&.&.&.Y Y Y I I I I P P P P P P F F F Z Z Z Z Z Z Z Z Z Z Z Z Z , , , , , , < < < < ; ; ; ; < < < < < < , , , , , , , , , , 9 9 b b 9 9 9 9 b b b b b b b b b b n n n n n n n 0 n 0 0 0 0 0 0 0 0 0 0 0 0 0 0 d d d d d q q q q q q q q 8 8 y y q 8 8 8 e e e e e e e e e e e e e e r r e r r r r r r r t r t t t t t t t t r r t r t y t y r r r r y y y y u u u u u B B B B B B W W W W W W } } } } } } } } } } } } } [ [ [ [ [ [ } } } } -.-.-.-.-.-.-.;.-.-.;.;.=.;.< ",
"&.&.&.&.&.&.Y Y P P P Y I I I P I I I Y Y Y Y Y Y Y Y Y Y Y Y Y &.&.&.&.&.&.=.=.1.1.1.1.1.1.1.1.1.1.1.1.1.1.1.1.1.1.w.w.w.w.1.1.w.w.w.w.w.w.q.q.w.w.w.w.w.q.q.q.q.q.q.q.q.q.q.q.q.q.q.q.w.0.0.2.1.1.1.;.;.&.&.&.&.&.&.&.Y Y Y Y Y Y I I Y Y Y Y F F F F F F Z Z Z Z Z Z Z Z Z Z Z Z b , , , , , , , < < < < < < < < < , , , , , , , , , , , , 9 , , , , 9 9 9 9 b b b b b b b b b b n b n n n b b b n n 0 0 0 0 9 9 0 0 0 0 0 9 0 q 0 0 d 0 0 q q q q q q q 8 8 y y y y y e e e e e e e e e e e e e e e r r r r r r r r t t t t t t t t t t t t t r t t t t t t r r r r r r r r t t t u u B B B B B B B W W W W W } } } } } } } } } } } } } [ [ } } [ [ [ [ [ [ -.-.-.-.-.-.] [ -.-.[ ;.' =.< ",
"&.&.&.&.&.&.Y Y P P I Y P P P P Y I Y I Y Y Y Y Y Y Y Y Y Y &.&.&.&.&.&.&.=.1.1.1.1.1.1.1.1.1.1.1.1.1.1.1.1.1.1.1.1.w.w.w.1.1.1.w.w.w.w.w.w.q.q.w.q.q.q.q.q.q.q.i.y.q.q.q.q.q.q.q.q.q.q.q.0.0.0.1.1.1.1.;.;.;.&.&.&.&.&.Y Y Y Y Y Y Y Y Y Y U Y U U F F F F F Z Z Z Z Z Z Z Z Z Z Z Z , , , , , , , , < < < < < < < , , , , , , , , , , , , 9 9 , , , , 9 9 9 9 b b b b b b b b 0 0 b b b b b b b b n n 0 0 0 0 0 0 0 0 0 0 0 9 9 q 0 0 d d 0 0 q q q q q q q q y y y y y e e e e e e e e e e e e r r r r r r r r r r r t t t t t t t t t t t t t t t t t t t t t t t t t t t t t t u u u B B B B B B W W W W W W W } } } } } } } } } } } } [ [ } } [ [ ) [ [ [ -.-.-.-.] -.] [ [ -.' -.' =.< ",
"&.&.Y Y Y I Y Y Y Y Y Y P P P P Y I Y Y Y I Y Y Y Y Y Y &.Y &.&.&.&.&.&.&.=.1.1.1.1.1.1.1.1.1.0.1.1.1.1.1.1.1.1.1.1.w.w.1.1.1.1.w.w.w.w.w.w.w.w.q.q.q.q.q.q.q.q.q.y.q.q.q.q.q.q.q.q.q.q.q.0.0.0.w.w.1.1.;.;.;.&.&.&.&.&.Y Y Y Y Y Y Y Y Y Y Y Y Y Y U F F F F F F F F F Z Z Z Z Z Z Z 9 , , , , , , , , , < < < < < < < , , , , , , , , , , , , , , 9 9 9 9 b b b 0 b b 9 b b b b b b b n n n n b b 0 0 0 0 0 0 0 0 0 0 0 0 0 0 0 0 0 d d g g g q q q y y y q q y y y y y y e e e e e e r r r e r r r r r r r r r r r r t t t t t t t t t t t t t t t t t g.t t t t t t t u u u t u B u B B g.B B B W W W W W W W W } } } } } } } / / } } } } } ) ) [ [ [ [ [ [ [ -.-.-.] ] ] [ ' =.' -.' =.< ",
"&.&.Y Y Y I I I Y Y Y Y P P P P I Y Y Y Y Y Y Y &.Y &.Y &.&.&.&.&.&.&.&.=.=.1.1.1.1.1.1.1.1.1.1.1.1.1.1.1.1.1.1.1.1.w.w.1.1.1.1.w.w.w.w.w.w.w.w.q.q.q.q.q.r.q.q.y.q.q.q.q.q.q.q.q.q.q.q.q.0.0.0.w.w.1.1.;.;.;.;.&.&.&.&.Y Y Y Y Y Y Y Y Y Y Y Y Y Y U U F F T T F F F F Z Z Z Z Z Z Z Z 9 , , , , , , , , , , , < < < < , , , , , , , , , , 9 9 b b b b 9 9 b b b b b b b b b b b b b b n n n n n b 0 0 0 0 0 0 0 0 0 0 0 0 0 0 0 0 d d g g k g q q y y y y q y y y y y y e y e e e e e r r e e r r r r r r r r r r t r t t t t t t t t t t t t t t t t t t t t t t t t t t u t u B B B B g.g.k.B B W W W W W W W W } } } } } } } / } } } } } ) } } [ [ [ [ ) [ [ -.-.-.] ] -.[ ' =.' =.' ' < ",
"&.&.Y Y Y I I I I I Y Y P P P P P I &.I I &.Y Y &.&.&.&.&.&.&.&.&.&.&.&.&.=.=.1.1.1.1.1.1.1.1.1.1.1.1.1.1.1.1.1.1.1.w.w.w.1.1.1.w.w.w.w.w.w.w.w.q.q.q.q.q.i.i.q.y.y.y.q.q.q.q.q.r.r.r.r.e.q.q.0.w.w.w.1.1.;.;.;.=.=.&.&.&.&.Y Y Y Y Y Y Y Y Y Y Y Y U U U Y Y F F F F F F Z Z Z Z Z Z Z b 9 , , , , , , , , , , , , < , , , , , , , , , , , 9 9 b Z Z Z b b b b b b 0 0 b b b b b b n n n n n n n 0 0 0 0 0 0 0 0 0 0 0 0 0 0 0 0 0 0 0 g g g q q q y y y y q y y y y y y y e e e e e r r r r r r r r r r r r r p p r r t t t t t t t t t t t t t t t t t t t t t t t t t u u u B B B B g.g.k.k.B B W W W W W W W W } } } } } } } / } } } } ) ) } ) [ [ [ [ ) ) [ [ ] ] ] ] ] [ [ ' [ ] [ ' < ",
"&.&.Y Y Y I I I P P Y Y P P P P P P P &.&.&.Y I &.&.&.&.&.&.&.&.&.&.&.&.&.=.=.=.1.1.1.1.1.1.1.1.1.1.1.1.1.1.1.1.1.1.w.w.w.1.1.1.w.w.w.w.w.w.w.q.q.q.q.q.i.i.i.r.y.y.i.i.i.i.r.r.i.i.i.r.r.q.e.q.w.w.w.1.1.1.1.;.=.=.&.&.&.&.Y Y Y Y Y Y Y Y Y Y Y Y U U U U Y Y U Y I F F F F Z F Z Z Z Z 9 , , , , , , , , , , , , , , , , , , , , , , , , , Z Z Z Z Z b b Z Z b b 0 b b b 0 0 b b n n n n n n n 0 0 0 0 0 0 0 0 0 0 0 9 9 9 9 q 0 0 0 d d q q q y y y y y y y y y y y y y e e e e e e r r r r r r r r r r r r p p r r t t t t t t t t t t t t t t t t t t g.t t t t t t u u u B B B B g.g.k.k.B B B B W B B B B W W } } } } } } } / } } } ) ) ) ) [ [ [ [ [ ) [ [ ] ] ] ] ] [ [ ' [ =.[ ' < ",
"&.&.&.&.&.Y Y Y P P Y Y Y I I P P I Y &.&.&.&.&.P Y &.&.&.&.&.&.&.&.&.&.&.&.=.1.1.1.1.1.1.1.1.1.1.1.1.1.1.1.1.1.1.1.1.1.1.w.w.w.w.w.w.w.q.q.q.q.q.q.q.q.q.y.y.y.y.y.q.q.q.q.q.q.r.r.r.r.q.q.q.q.q.w.0.2.1.1.1.1.,.=.&.&.&.&.&.Y &.&.Y &.Y Y Y Y Y Y Y Y Y Y Y U I I P P P P F F F Z Z Z Z b 9 , , , , , , , , , , , , , , , , , , , , , , 9 Z Z 9 9 Z Z Z Z Z b 9 0 0 b b b b 0 b b b b b n n n 0 0 0 0 0 0 0 n 0 0 0 0 0 0 0 9 0 0 0 0 0 0 0 q g k q y y y y y y y y y y e e e e e e e r e e r r r r r r r r r p r r r r r t t r r r r r t t t t t t t t t t t t t t t t g.u B B B B B B k.k.B B B B B B B B B B W W } } } } } } } } / / / / / ) ) ) ) ) ) ) [ [ [ ] ] ] ] ] [ [ ] [ =.[ ' < ",
"&.&.&.Y Y Y Y Y P P Y Y Y Y P P I Y I P &.&.&.&.P Y &.&.&.&.&.&.&.&.&.&.&.&.=.1.1.1.1.1.1.1.1.1.1.1.1.1.1.1.1.1.1.1.1.1.w.w.1.w.w.w.w.q.q.q.q.q.q.q.q.q.y.y.y.y.y.i.i.i.i.r.r.r.r.r.r.r.q.q.q.q.q.w.0.0.1.1.1.,.=.=.&.&.&.&.Y Y Y Y &.&.Y Y Y Y Y Y Y U Y U U U I I I P P F F F F F Z Z Z Z 9 , 9 , , , , , , , , , , , , , , , Z Z Z b b 9 b b 9 9 b Z Z Z b b b b 0 9 b b b 0 0 0 0 b b b b 0 0 0 0 0 0 0 n n 0 0 0 0 0 0 0 9 0 0 0 0 d 0 0 q g g q q y y y y q y y e y y e e e e e e e r e e r r r r r r r r r r r r r r t r t r r r r r t t t t t t t t t t t t t t t g.u B B B B B B B B B B B B W B B B B B W } } } } } } } / } / / / / ) ) ) ) ) ) ) ( ( ) [ ] ] ] ] ] [ [ ] [ =.[ ' < ",
"&.&.&.Y Y P Y Y P P P Y P P P P P Y Y &.&.&.&.&.P Y &.&.&.&.&.&.&.&.&.&.&.&.1.1.1.1.1.1.1.1.1.1.1.1.1.1.1.1.1.1.1.1.w.w.1.w.0.0.w.w.w.q.q.q.q.u.y.y.y.y.y.i.i.i.i.i.i.i.i.i.i.i.i.r.r.r.q.q.q.q.q.w.0.2.1.1.1.,.,.,.=.&.Y Y Y &.Y Y Y Y Y Y Y Y Y Y U U U U U U U I I I F F F F F F Z Z Z Z b 9 , , , , , , , , , , , , , , , , , , , , , , , , , , 9 9 b 9 9 9 b 9 9 9 9 0 b b b b b n b b b 0 0 0 0 0 0 0 0 n 0 0 0 0 0 0 0 0 0 d d 0 d d d q g q q q q q y y q y y y y y y y e e e e e e e r e e e e r r r r t r t t t t t r r r r r r t t t t t t t t t t t t t t u t g.u B u B B B B B B B B B W W B W B B W W W } } } } } } / / / / ) ) ) ) ) ) ) ( ( ( ( ) ] ] ] ] ] ] [ ' ] [ ' ( ' < ",
"&.&.I I P P Y Y P P P P P P P P I Y Y &.&.&.&.&.P Y &.&.&.&.&.&.&.&.&.&.&.=.1.1.1.1.1.1.1.1.1.1.1.1.1.1.1.1.1.1.1.1.w.w.w.w.w.w.w.w.q.q.q.u.y.y.i.i.i.i.i.i.i.i.i.i.i.i.i.i.i.i.i.i.r.r.q.q.q.e.w.w.0.2.1.1.1.1.,.,.,.=.Y Y Y Y Y Y Y Y Y Y Y Y Y Y U U U U U U U U I I F F F F F F Z Z Z Z b 9 , , , , , , , , , , , , , , , , , , , , b Z 9 , b 9 Z Z b b b b b 9 9 9 9 9 b n 0 b b A A A n b b b n n n n n n 0 0 0 0 0 0 0 9 0 d d d d d d d g g q q q q q y q q q y y y y y y y e e r r r e e e r r r r r r t t t t t t t r r t r r r t t t t t t t t y t t t t t u t u u B u B B B B B B B B B W W W W W W W W } } } } } } / / / / ) ) ) ) ( ( ) ) ( ( ( ( ) ] ] ] ] ] ] [ ' ' [ ' [ ' < ",
"&.I I P I P I Y Y Y Y Y P P P P Y P P Y P Y P Y P Y &.&.&.&.&.&.&.&.&.&.&.1.1.1.1.1.1.1.1.1.1.1.1.1.1.1.1.1.1.1.0.0.0.w.w.w.w.w.w.q.q.q.u.u.y.y.i.i.i.i.i.i.&X=Xi.i.i.i.i.i.i.i.i.i.r.r.q.q.e.q.w.w.0.2.1.1.1.1.1.,.,.&.=.=.=.=.&.&.&.Y Y Y Y Y Y Y U U U U U U U U U U U F F F F F Z Z Z Z b b 9 9 9 9 , , , , , , , , , , Z Z Z Z Z F F I I I P P P F F F F F F F Z Z 9 9 b b 9 b A A A A n n n n n n A A A A n 0 0 0 0 0 0 0 s s s d d d d d d 0 0 q q y q y q y y y y y y y y y e e e e e r r r r r e r r r t t t t t t t t t t t t t t t t t t t t t t t t t t u u u u u B u B B B B B B B B l W W W W W W W W W E } } } } } / / ) ) ) ) ) ) ) ( ( ) ) [ ( ) [ ] ] ] ] ] ) ' ] ( ' [ ' < ",
"I I I P P P P P Y Y Y P P P P P P P P Y P P P P P P &.&.&.&.&.&.&.&.&.&.=.1.1.1.1.1.1.1.1.1.1.1.1.1.1.1.1.1.1.1.0.w.w.w.w.w.q.q.w.w.q.u.u.y.y.y.i.i.&X&Xi.i.&X=Xi.i.i.i.i.i.i.i.i.i.r.r.q.q.e.e.w.w.2.2.2.2.1.1.1.1.,.=.=.=.,.,.&.&.&.&.&.Y Y Y Y Y Y Y U U U U U U U U U F F F F F F Z Z Z Z b Z s 9 , , , , , , s Z F F U Y ,.,.<.<.,.,.,.,.<.,.,.,.=.' ' ' ' Y Y Y U F Z A Z b b Z Z Z Z n n n n n n A A A A 0 0 n 0 0 0 0 0 s s s s d d d d d d 0 q q q q q q q y y y y y y y y y y y e r r e r r r e e t t t t t t t t t t t t t t t t t t t t t t t t t t t t u u u u u B u B B B B B B B W l W W W W W W W W W E } } } } } / ) ) ) ) ) ) ) ) ) ) ) ) ) ) ) [ ] ] ] ] ] ) [ ' ( ' [ ' < ",
"Y Y I P P P P P Y P P P P P P P P P I P P Y P P Y Y &.&.Y &.&.&.&.&.&.&.=.1.1.1.1.1.1.1.1.1.1.1.1.1.1.1.3.0.3.3.q.q.q.q.q.q.q.q.w.w.q.w.y.y.y.i.i.i.&X&Xi.i.&X&X&X&X&X&Xi.i.i.i.i.i.i.r.r.q.e.e.w.w.2.2.2.2.1.1.1.1.,.,.,.=.,.,.,.=.=.=.&.&.&.&.Y Y Y Y Y U U Y U U U U U I F F F F F Z Z Z Z Z Z Z s , , Z Z Z F U Y ,.,.3.3.s.s.e.s.,.' Y ' <.3.<.,.,.' ' ' ' Y Y ,.=.Y U I U F F H A Z b Z n n n n n n n n n 0 0 n 0 0 0 0 0 s s s s d d d d q q q q q q q q q q q y y y y y y y y y y y y y e e r r r t t t t t t t t t t t t t t t t t t t t t t t t t t t t t u u u u u B u B B B B B B B W l l l W W W W W W W E } } } } } ) ) ) ) ) ) ) ) ) ) ) ) ) ) ) ) ) ) ) ] ) ) ) ' ' ( ' ( ' : ",
"Y I I P P P P P P P P P P P P P P P P P P Y Y Y Y Y &.&.Y &.&.&.&.&.&.=.=.1.1.1.1.1.1.1.1.1.1.1.1.1.1.1.3.3.3.3.0.q.q.q.q.q.q.q.w.w.q.w.y.y.i.i.i.i.i.&Xi.&X&X&X=X=X=X=X&X&X&X&Xi.i.i.r.q.q.q.q.w.w.2.0.2.2.1.1.1.1.,.,.,.,.,.,.,.=.=.=.=.=.&.&.Y Y Y Y Y U Y Y U U U U U U I F F F F F H Z Z Z Z Z Z Z F F U Y ,.,.3.3.3.,.,.,.Y ,.,.Y F F F Y ,.,.' Y U I I I F U =.,.=.' ' ' [ U F F A A A A b n b b 0 0 0 0 n 0 n n n 0 0 0 s s d d d d d d g q q q q q q q q q y y y y y y y y y y y y y y r r r r r r t t t t t t t t t t t t t t t t t t t t t t t t t t t t u u u u u u u B B B B B B B B W W W W W W W W W W E } } } } } ) ) ) ) ) ) ) ) ) ) ) ) ) ) ) ) ) ] ) ] ] ] [ [ ' ( ' [ ' < ",
"&.I I P P P P P P P P P P P P P P P I I I I I I P Y Y &.&.&.&.&.&.&.&.>.>.1.1.1.1.1.1.1.0.0.1.0.w.w.w.w.w.w.w.0.q.q.q.q.q.q.q.q.w.r.y.y.y.&X&X&X&X&X&X&X>X=X=X=X=X=X=X=X&X&X&X&Xy.y.y.y.y.y.w.w.w.w.w.w.0.0.0.0.1.1.1.1.1.1.1.1.&.&.=.&.&.&.&.&.=.=.Y Y Y U Y Y U U U U U U I F F I F F Z Z Z Z F F F Y ' ,.<.<.1.,.,.' ' ,.' ' Y Y Y U F F F F F F I U F Z F F Z F F U ' X.<.<.<.' ' ( U K F Z A A A A A n b 0 n n n 0 0 0 n A 0 d d d d d d d q q q q g g q q q q q q k y y y y y y y y y y y y y y r y y y r t t t t t t t t t t t t t t t t t t t t t t t t t t t u u u u u B B B B B B B B B B W W W W W W E W W W } } } } } ) ) ) ) ) ) ) ) ) ) ) ] ] ] ] ] ] ] ] ] ] ] ] ' ' [ ] ' ' < ",
"&.I I P P P P P P P P P P P P P P P I I I I I I P I Y &.&.&.&.&.&.&.&.>.>.>.1.1.1.1.1.1.0.0.1.0.w.w.w.w.w.w.0.w.w.q.q.q.q.q.q.q.q.r.y.y.y.&X&X&X&X&X&X&X>X=X=X=X>X=X=X=X&X&X&X%Xy.&X&X%X%Xw.w.w.w.w.w.w.w.w.w.w.1.1.1.1.1.1.1.1.;.;.&.&.&.&.=.=.=.' Y Y ' U U U Y Y Y U U U U U F F F F F F F I Y Y Y =.,.,.,.<.' Y Y Y Y Y Y Y F F Z Z Z Z Z Z Z Z F F Z 9 Z F 9 s s Z S F U U ( ( ( ' X.X.' U H H H A A A n n A A n n n n n n 0 0 0 0 0 0 0 0 q q q q q g q g q q q y y y y y y y y y y y y y y y y y y y y y t t t t t t t t t t t t t t t t t t t t t t t t t t t u u u u u B B B B B B B B B B B W W W W W W W W W } } } } } ) ) ) ) ] ) ) [ [ ) ] ] ] ] ] ] ] ] -.] ] ] ] ' ' [ -.' ' < ",
"I I P P I P P P P P P P P P P P P I I I I I I I P I Y Y &.&.&.&.&.&.>.>.>.>.1.1.1.1.1.1.0.0.0.0.0.0.w.w.w.w.w.w.w.w.q.q.q.q.q.q.r.r.r.y.&X&X&X&X&X&X&X&X=X=X=X=X=X=X=X&X&X&X%X%X&X&X%X%X%Xy.w.w.w.w.w.w.w.w.w.w.1.1.1.1.1.1.1.1.;.;.1.&.,.,.=.=.=.' ' Y ' ' U ' ' ' [ Y U U U U F F F F F U Y ' ,.,.,.,.,.' ' ,.Y Y U U U U I I F Z 9 , , , , 9 9 9 s s , , , , 9 9 9 s s Z F F F F F U ' X.X.' U U G G H A A n H H H A n n n 0 0 0 0 0 0 0 0 0 q 0 q q g g g g q q g y k k y y y y y y y y y y y y y y y y u u u t t t t t t t t t t t t t t t t t t t t t t t t t t u u u u B B B B B B B B B B B B W B B W W E W W W } } } } } ) ) ) ) ] ) ] [ ) ] ] ] ] ] ] ] ] -.-.-.-.-.-.' ' ' -.' ' < ",
"I I I P P P P P P P P P P P P P P P I I P I I I P I Y Y &.&.&.&.&.&.>.>.>.>.1.1.1.1.1.1.0.0.0.0.0.0.w.w.w.w.w.w.q.q.q.q.q.q.q.q.r.r.y.i.&X&X&X&X&X&X&X=X=X=X=X=X>X&X&X&X%X%X%X%X&X&X%X%X%Xy.w.w.w.w.w.w.w.w.w.w.1.1.1.1.1.1.1.1.1.1.1.1.,.,.,.,.=.=.' ' ' ' ' ' ' ' [ Y U U U U I U U U U U Y Y =.,.<.,.Y Y U Y ' Y U I F F Z Z Z s , , , , , , 9 , , , , < < , , 9 9 s s s s s s s Z F F U U U ' ] [ ( G H A A A A H H H n n n 0 0 0 0 0 0 q q 0 0 0 q g g g g q g k k k k y y y y y y y y y y y y y y y y u u u u u u u t u t t t t t t t t t t t t t t t t t t t t u u u u B B B B B B B B B B B B W B W W W E W W } } } } } ) ) ) ) ) ] ) ] ' ' ] ] ] ] ] ] -.] -.-.-.-.-.-.' ' ' <.' ' < ",
"I I I I I P P P P P P P P P P P P P P P P Y Y P Y I Y Y Y Y Y Y &.&.>.>.>.1.1.1.1.1.1.1.0.0.1.1.0.0.w.w.w.w.q.q.q.q.q.q.q.q.q.q.y.y.y.i.i.&X&X&X&X=X=X=X-X-X=X=X&X&X&X&X%X%X%X%X&X&X&X&X&Xw.w.w.q.q.w.w.w.w.w.w.w.1.1.1.1.1.1.1.1.1.1.1.,.,.,.,.=.=.=.' ' ' ' ' ' ' Y U U U U U U Y ' =.' ' Y ' Y ' =.Y I F F F I F Z Z Z 9 , , < < : < , , 9 9 , , < < < : : < , , < < < < , , 9 s s s Z S F U Y [ [ ' [ U G H n A A H H H A A 0 0 0 0 0 0 q q 0 0 0 0 q q q g g k k k y y y y y y y y y y y y y y y y y y u u u u u u u u u u t t t t u t t t t t t t t t t t t t t u u u u B B B B B B B B B B W B B B W W W E W W } } } } } } ) ) ) ) ] ) ] ] ] ] ] ] ] { { -.-.-.-.-.-.-.-.' =.' -.' =.< ",
"I I I I P P P P P P P P P P P P P P P P P P Y Y Y I Y Y Y Y Y Y &.&.>.>.1.1.1.1.1.1.1.1.0.0.1.1.0.0.w.w.q.q.q.q.q.q.q.q.q.q.r.r.y.y.i.i.&X&X&X&X=X=X=X-X-X-X-X=X=X=X=X&X%X%X%X%X&X&X&X&X%X%Xw.w.q.q.w.w.w.w.w.w.w.w.w.1.1.1.1.1.1.1.1.1.1.,.,.,.,.,.,.' ' ' ' ' Y Y Y U U U U Y U ' ,.2.<.,.=.' I U U I F Z Z F Z b 9 , , , , , : ; ; : < < < ; ; ; ; ; ; ; ; : , ; ; O O * : , , , , , , s Z S Z F I ( ( ( ( G A A H H H H H A A d 0 0 0 0 q q q 0 0 0 q q q g g k k k k k k y y y y y y y y y u u y y y y y u u u u u u u u u B t t t u u t t t t t t t t t t t t t u u u u u B B B B B B B B W W B W W W W W W W W E } } } ) } ) ) ) ) ] ] ] ] ] ] ] ] ] { { -.-.-.-.-.-.-.-.' =.' ,.' =.< ",
"I I I I P P P P P P P P P P P P P P P P I Y P Y I Y Y Y Y Y Y Y &.&.>.>.1.1.1.1.1.1.1.1.1.1.1.1.w.w.w.w.q.q.q.q.q.q.q.q.q.r.r.r.y.y.i.i.&X&X&X&X=X=X=X=X-X-X-X=X>X=X=X=X&X%X%X%X%X%X%X&X&Xy.w.w.q.q.w.w.w.w.w.w.w.w.w.w.w.1.1.1.1.1.1.1.1.1.1.1.,.,.,.X.X.' ' ' ' Y U U U U Y ' ' ' <.<.,.' Y U F F F Z Z Z 9 9 9 , < < < < < < : : ; : < : ; ; ; * % * * * * ; ; ; O O O 1 ; < ; ; < < < , , , 9 9 Z A F G G G G G G H H H H A A A A n 0 0 0 0 0 0 q 0 0 g d g k k k k k E E E k k k y y y y y u u u u y u u u u u u u u u u u B B B u u u t t t t t t t t t t t t t u u u u u B B B B B B B B W W B W W W W W W W W } } } ) ) ) ) ) ) ) ] ] ' ] ] ] ] ] { -.{ -.-.-.-.-.-.-.-.' =.' ,.' ,.< ",
"I I I I P P P P P P P P P P P P P P P P I Y Y P I Y Y Y Y Y Y Y &.&.>.>.1.1.1.1.1.1.1.1.1.1.1.1.w.w.w.q.q.q.q.q.q.q.q.q.q.r.r.r.y.y.i.i.&X&X&X&X=X=X=X-X-X-X-X=X>X>X=X=X=X%X%X%X%X%X%X&X&Xy.y.w.q.q.w.w.w.w.w.w.w.w.w.w.w.1.1.1.1.1.1.1.1.1.1.1.,.,.,.X.X.X.' ' ' Y U U U Y ' ' ,.,.,.,.Y U F F Z Z s 9 9 9 , , , < ; ; ; ; ; ; ; ; ; : , , , , ; ; % % % O O O * 1 1 O 1 * ; ; ; ; < < < < < < , 9 9 9 9 A H G [ ( G G H H H H A A A A n 0 0 0 0 0 0 0 0 g 0 g A k k k E E E E k k k k y y y y u u u y y y y u u u u u u u u u B B B u u t t t t t t t t t t t t t u u u u u u B B B B B B B B W W W W W W W W W W E } } } } ) ) ) [ ) ) ] ] ] ] ] ] ] ] { -.-.-.-.-.-.-.-.-.-.=.=.' ,.' ,.< ",
"I I P P P P P P P P P P P P P F F F F P P F F P Y Y Y Y Y Y Y &.&.&.=.=.1.1.1.1.1.1.1.1.w.w.q.q.q.q.q.q.q.q.q.q.q.q.q.r.i.i.i.i.i.i.i.&X&X&X&X&X&X&X=X-X:X:X-X-X>X>X;X;X=X=X=X&X&X%X%X%X&Xy.y.y.y.y.q.q.q.q.q.q.w.w.w.w.w.1.1.1.1.1.1.1.1.1.,.,.,.,.,.,.X.X.' ' ,.' Y U ' X.,.<.3.,.,.X.U F F Z 9 9 9 Z 9 , : ; ; ; ; ; ; ; ; * * * ; : , 9 9 9 : ; ; % o o o O * O O O 1 ; ; ; ; ; ; ; ; ; ; ; ; < , 9 9 9 9 9 G I ( ( U G H A A A 0 n A A n 0 n 0 0 0 0 0 0 0 A A E k k E E E E E N y y y N y k k k y y y u u u u u u u u u u u t t u t t t t t r t t t t t t u u u u u u u u B B B B B B B B B W W W W W W W E E E E } } } ) / ) [ ) ] ] ] ] ' ] ] ] ] ] { -.-.-.-.-.<.-.-.-.-.<.' <.' ,.< ",
"I I P P P P P P P P P P P P P F F F F P P F P P Y Y Y Y Y Y Y Y &.&.=.=.1.1.1.1.1.1.1.1.1.w.q.q.q.q.q.q.q.q.q.q.q.q.q.r.i.i.i.i.i.i.&X&X&X&X&X&X&X&X=X-X:X:X-X-X>X>X;X;X=X=X=X&X&X%X%X%X&X&Xy.y.y.y.q.q.q.q.q.q.q.w.w.w.w.1.1.1.1.1.1.1.1.1.,.,.,.,.,.,.X.X.' ' X.' ' ' X.X.X.X.X.U U U F Z Z 9 , < < < : ; % % * ; ; * * ; ; : ; ; ; ; : < < < ; ; % O o o O % ; * O 1 * ; ; ; ; ; ; ; ; ; ; ; ; < , , , , 9 9 Z A F I G G F H H A A A A A A n n n n 0 0 0 0 0 A A D E E E E E E E E y y y N y y k y y y y u u y u u u u u u u u u u u u u t t t r r r r r r y u u u u u u u u B u B B B B B B W W W W W W W E E E E R } } } ) / ) [ ) ] ] ] ' ] ] ] ] ] { { -.-.-.-.-.<.<.<.-.<.,.=.<.' ,.< ",
"I P P P P P P P F F Z Z P P P P F F F P P F P P Y Y Y Y Y Y Y Y &.&.&.=.1.1.1.1.1.1.1.1.1.w.w.q.q.q.q.q.q.q.q.q.q.q.q.r.r.i.i.i.&X&X&X&X&X&X>X&X&X=X=X-X:X:X-X-X>X>X;X;X>X=X=X=X&X&X%X%X%X&Xy.y.y.q.q.q.q.q.q.q.w.w.w.w.w.1.1.1.1.1.1.1.1.1.1.1.,.,.,.X.X.' ' ' ' ' ' X.X.X.Y U F F F F s 9 9 , : ; ; ; % % % % % % % % % % ; : : : ; ; % % * ; % % % O o O % % ; ; ; * * * * ; ; ; : < : ; ; ; ; < < < < , , 9 9 9 Z A H F F F G H H A A A A A n n n A m A A d D D D D D E E E E E E E N N y y y y y y y y y u y y y u u u u u u u u u u u t r r r r y r y y y u u u u u u u u u u B B B B B B B E W E W W W W E E E R } } } ) / ) [ ) ] ] ] ' ] ' ] ] ] ] { { -.-.-.-.<.<.<.-.<.,.=.<.=.,.< ",
"I P P P P P P P Z Z Z Z Z P P P F F F P P P P P Y Y Y Y Y Y Y Y Y &.&.=.1.1.1.1.1.1.1.1.w.w.w.q.q.q.q.q.q.q.q.q.q.q.q.r.r.r.i.i.&Xi.&X&X&X&X&X&X&X=X=X>X:X:X-X-X>X>X;X;X>X=X=X&X&X%X%X%X%X&X&Xy.y.i.q.q.q.q.q.q.w.w.w.w.w.1.1.1.1.1.1.1.1.1.1.1.,.,.,.X.' ' ' X.' ' X.X.,.' U F Z 9 s s , , , < ; ; ; ; ; % % ; % % % % O O % * : : ; ; % % % % % % % O O O % % % * ; * O O O O ; ; : : ; ; ; ; ; ; < , < < , , 9 9 9 9 b A H F G H A n n n n n n A H A A H H A D D D D D E E E E E E E E N N E y y y y y y y y y y y y u u u u u u u u u u u u y y y u y y y y u u u u u u u u y y B B B B B B B E E E W W W E E E E R R / / ) ) ) ) ) ] ] ' ' ' ] ] ] ] <.{ <.-.-.-.<.<.<.<.<.,.,.=.<.=.,.< ",
"P P F F F Z P Z Z Z Z Z P Z P P F F F P P I P F P F Y U Y Y Y &.&.&.&.&.=.1.1.1.1.1.1.1.1.w.q.q.q.q.w.q.q.q.q.q.q.q.q.q.r.r.i.i.i.i.&X&X&X&X>X>X&X=X-X-X:X:X:X-X>X;X;X;X>X;X=X=X&X&X&X%X%X%X&Xy.y.i.r.q.q.q.q.q.q.w.q.w.w.w.1.1.1.1.1.1.1.1.1.1.,.,.,.X.' X.X.X.X.X.,.,.X.Y F Z , < , , < < < ; % % % ; ; ; ; ; % % % % % % % % ; : : : : ; ; ; % % % O o o % % O % % % O O O % * ; ; : ; ; % % % ; < < < < : < , < : : , 9 A F F F H M n n A A H H H H H H H D D D D D D E E E E E E E E E E E k k y y y y y y N y y y B B B u u u u u u u u u y y y y y y y y u y u u u y y y B B B B B B B B B E E E E W W E } E E R R / / / ) ) ) ) ] ] ] ] ] ' ] -.-.<.<.<.-.<.<.<.<.<.<.,.,.,.,.<.,.,.< ",
"P P F F Z Z Z Z Z Z M Z Z Z P Z F F F P I I P P P P Y U Y Y Y &.&.&.&.&.=.1.1.1.1.1.1.1.w.q.q.q.q.w.w.q.q.q.q.q.q.q.q.q.r.r.i.i.i.i.&X&X&X&X&X>X>X=X-X-X:X:X:X-X>X;X;X;X;X;X=X=X=X&X&X%X%X%X%Xy.i.i.r.q.q.q.q.q.q.q.q.w.w.w.1.1.0.0.1.1.1.1.1.1.1.<.,.,.X.X.<.<.3.3.3.<.X.U F Z < ; ; ; ; ; ; ; O O % * ; % % % % % % ; ; : : : : : < , 9 , > : % % % O o o O % % % % * * * * ; % ; ; ; * % % O O % ; ; ; ; ; ; ; ; ; ; : , b H F F F F H H H G H H H H H H H H D D D D D E E E E E E E E E E E E k k k k y y y N N N B B B B B B B B B B u u u y y y y y y y y y u u u y y y y B B B B B B B B B E E E W W W E E R R R R R / / ) [ ) ) ] ] ] ] ] ] ] X.<.<.<.<.<.<.<.2.<.<.<.<.,.,.,.<.=.,.< ",
"P F F F Z Z Z Z Z Z Z Z Z Z Z Z F F F P I F P P P F Y U Y Y Y &.&.&.&.&.=.1.1.1.1.1.1.1.w.w.q.q.q.w.w.q.q.q.q.q.q.q.q.q.r.r.i.i.i.i.i.i.&X&X>X>X&X=X-X-X:X:X:X:X:X:X;X;X;X;X=X=X=X=X&X&X%X%X%X%Xi.i.i.i.q.q.q.q.q.q.q.w.w.w.1.1.0.0.0.1.1.1.1.1.2.<.,.,.X.<.<.<.3.3.X.d.U F s , < ; ; ; * ; ; * % % % ; ; % % % % % ; ; : < , 9 > > : > > > : * % % % O o o O % % % % * ; ; ; ; ; ; ; ; % % % O O * ; ; ; * ; ; ; ; 1 ; : < 9 0 H F I I G H G G H H H H H H H H D D D D E E E E E E E W E E W W W W W E E k y y B B N N B B B B B B B B B N u u y y y y y y y y y y u y y y B B B B B B B B B B B E E E W W W E } R R R R / / ( ) ) ) ] ] ] ] ' ] X.<.X.-.<.<.<.<.<.<.2.<.<.<.<.<.<.,.<.,.,., ",
"P F F Z Z M M M Z Z M M Z Z Z Z F F F P I I F F P F I U Y Y Y &.&.&.&.&.1.1.1.1.1.1.w.w.w.w.w.q.q.q.q.q.q.q.q.q.q.q.q.q.r.r.i.i.i.i.i.i.&X&X&X&X&X=X-X-X:X:X:X:X:X:X;X;X;X;X;X=X=X=X&X&X&X%X%X%Xy.i.y.y.y.q.q.w.q.q.q.w.w.w.1.1.0.0.0.0.1.1.1.1.0.3.<.,.X.<.<.<.<.X.Y U F Z , < < ; ; ; ; ; ; ; ; ; ; : : ; ; ; % % ; ; ; : 9 s 6 > ; ; : ; * % % % % O o o O % ; * % % ; ; ; ; ; ; ; ; % % # O ; ; ; ; % % ; ; ; ; ; < < , , , b H F I G H H H H H H H H H H H D D D D H D E E E E E E E E E W W W W W E E y y B B N N B B B B y y B y N y u y y y y y y y y y y y y y y N N N B B B B B B B B E E E E E W W E R R R R R R ( ( ) ) ] ] ] ] ] ] X.X.X.<.-.<.<.<.<.<.2.2.<.<.<.<.,.<.,.<.,.,.< ",
"P P P Z Z Z Z Z Z Z M M M Z Z Z F F F F F F F F F I I U Y Y ' ' =.=.=.=.;.1.1.1.1.1.w.w.w.w.w.w.w.w.w.w.q.q.q.q.r.r.y.r.i.i.i.i.i.i.i.i.i.i.i.i.*X-X-X:X:X:X:X:X;X;X<X<X;X;X;X;X;X;X;X;X=X=X%X%Xu.u.u.u.u.u.r.u.q.q.q.q.q.q.w.w.w.0.0.0.3.3.1.,.,.,.,.X.<.3.3.X.,.U F F Z < ; ; ; O O ; ; < < < ; * * * % % * : * * % # % * : > 7 > : * % # % % % % % % o X o % * : : % ; : : : : ; ; % ; : ; % ; ; ; O O ; ; ; ; ; ; ; < , , < < 9 Z F F F H H G H G G R R G H H D R R R R R R R E E E E E E E E E E E E E E E E E W B B B B B B B B y u y y y y y y y y y y y N N y N N N N N y y N N E E B N E E W W W W E E E E R R R Q Q Q Q ) ) ) ` ` ` ` ] ` ] ] ..<.<.<.<.<.<.<.<.<.<.<.<.<.,.<.X.,.< ",
"P P P Z Z Z Z M Z Z Z M n b Z Z F F F F F F F F F I U U Y Y ' =.=.=.=.=.;.;.1.1.1.1.w.w.w.w.w.w.w.w.q.w.q.q.q.q.r.r.i.i.i.i.i.i.i.i.i.i.i.i.i.i.*X*X-X:X:X:X:X:X;X<X<X<X<X;X;X;X;X;X;X;X=X=X%X%Xu.u.u.u.u.u.u.u.q.q.q.q.q.w.w.w.1.1.1.1.3.,.,.,.3.3.3.<.X.<.X.U U F Z Z b < 1 ; O O ; < , , < ; % % % % # # % = % % % % % % = = : : : = * # % % % % % O o X o O % * % % % : : : : : ; * : : : % ; ; ; % % ; ; ; ; ; ; ; ; < , , < , b Z Z H H F H H H G G R R R G G R R R R R R R R E E E E E R E E E E E E E E W E E W B B B B B B y y y y y y y y y y y y y y y y y y N N N N y y N N E E E E W E E W W E E E E R R R Q Q Q Q Q ! ` ) ` ` ` ` ` ` ] ] ] O.<.<.<.<.<.<.<.<.<.<.<.<.,.<.X.,.< ",
"P P Z Z Z Z Z M Z Z M M n b Z Z F F F F F F F F F F I U Y Y ' Y =.=.=.=.;.;.1.1.1.1.1.1.w.w.w.w.w.w.q.q.q.q.q.q.r.r.i.i.i.i.i.i.i.i.i.i.i.i.i.i.&X&X-X-X-X-X>X>X<X<X<X<X<X;X;X;X>X;X;X;X=X=X=X%Xu.u.u.u.u.u.u.r.r.q.q.q.q.w.q.w.1.1.1.1.3.1.,.,.3.s.3.3.X.X.d.U F Z 9 9 , ; % % O O % ; < < ; ; O O % % % % * : % % * * ; : > > = : > : * % % * * % O O O o o O # % % % : > : > : : : : : w : ; ; ; ; ; ; ; ; ; ; ; ; ; ; < , , , , , b Z Z F I G G G G R R R Q R R R R R R R R R R R R E E E E E E E E E E E E W E W E E E B B B N N N N y y y y y y y y y y y y y y y y y N N y y y y E E E E W W W W W E E R R R R Q Q Q Q Q Q ! ` ) ` ` ` ` ) ` ] ] ] O.<.<.-.<.<.<.<.<.<.<.<.<.,.<.X.,.< ",
"P P Z Z Z Z Z Z Z Z b b n b Z Z H F F F F F F F F F I U Y Y Y ' =.=.=.=.=.;.;.1.1.1.1.1.w.w.w.w.w.w.w.q.q.q.q.q.r.r.i.i.i.i.i.i.i.i.i.i.i.i.i.i.i.&X-X-X-X-X-X>X<X<X<X<X<X;X;X;X;X;X;X;X=X=X=X&Xu.u.u.u.u.r.y.y.r.r.q.q.q.q.q.0.0.0.0.3.3.3.3.3.3.3.3.<.X.X.U T Z 9 , , < ; * * O O O * ; ; ; ; % % % ; ; * ; : * : > 9 6 9 9 9 : : : : * % % % ; % % % % % % % % % % * w 9 7 9 : : : : : w > ; % ; ; ; ; ; ; 1 1 ; ; ; ; < < , , , , , 9 A F U G G G R R R R ( R R R R R R R R R R E R E E E E R E E E E E E W E E E W E E N N N N N N N N y N N N N y y y y y y y y y y N N N y y y N E E E E W W W E E E E R R R Q Q Q Q Q Q Q ! ` ) ` ` ] ] ` ` ] ] ] ] -.<.-.-.<.<.<.<.<.<.<.<.,.<.X.,.< ",
"P Z Z Z Z M M b b b n n A A A Z H H F F F F F F F F I U U Y Y Y =.&.=.=.=.;.;.;.1.1.1.1.w.w.w.w.w.w.q.q.q.q.q.q.q.q.q.q.i.i.i.i.i.i.i.i.i.i.i.i.i.&X&X=X=X=X=X>X<X<X<X<X<X;X;X;X;X;X>X;X;X;X;X&Xu.u.y.y.u.u.u.y.y.r.r.q.q.q.q.q.q.0.q.q.q.3.3.3.3.3.3.X.U U T s s , , < ; ; * * O O O * * * * ; % % % % % % % * : , 9 9 9 , < ; ; * * * * * * % % % % % % % % ; ; : ; : 9 9 > w : : ; ; : > : ; % % ; ; : < : ; O ; ; ; ; ; < < < < < < , 9 H I U ( ( ( R G R ( R R R R R R R R / / R R E E E E R R E E E E E E W W E E E E E E W N N N N N N N y y y y y y y y y y y y y E k k N N N E E E E E W W W E E E R R R R Q Q Q Q Q Q ! ! ` ) ` ` ` ] ` ` ] ] ] ] ] ] -.-.<.<.<.<.<.<.<.<.,.<.X.,.< ",
"P Z Z M Z M b b b b n n A A A A H H H F F F F F F F I U U Y Y Y =.&.=.=.=.=.;.;.1.1.1.1.1.w.w.w.w.w.q.q.q.q.q.q.q.q.q.q.i.i.i.i.i.i.i.i.i.i.&Xi.i.&X&X=X-X-X-X>X<X<X<X,X<X;X;X;X;X;X;X;X;X;X;X=Xu.u.u.y.u.u.u.u.i.i.i.i.e.e.e.e.e.q.s.s.q.s.3.3.3.3.X.U T S s , , , < ; ; ; * * * ; ; < ; * * * O % O % % O % % ; < 9 9 9 , : ; * # o # * ; * % % % % % % % % ; : : ; : > : ; : w > : ; ; : : ; % 1 ; ; : < : ; O 1 ; ; ; ; ; ; ; ; ; ; < , 9 Z G ( [ ( G G R ( R ( ( R R R R R / / / R E E E R R R R E E E E E E E W W E E E E E E N N N N N N N N N y y y N N y y y N E E E E N N E E E E E E W E E E E R R R R R Q Q Q Q Q Q Q ! ` ) ` ` ` ` ` ` ] ] ` ] ] ] ] -.-.-.<.<.<.<.<.<.,.<.X.,.< ",
"Z Z Z b Z M b b n n n n n A A A Z Z H H F F F F F F F I U U Y Y Y =.=.=.=.=.;.;.1.1.1.1.1.0.w.w.w.w.w.q.q.q.q.q.q.q.q.q.i.i.i.i.i.i.i.i.i.i.i.i.&X&X=X=X-X-X-X>X<X,X,X,X<X,X;X;X;X;X;X;X;X;X;X=X=X=X=Xu.u.u.u.i.i.i.i.i.e.e.r.e.e.e.s.s.3.3.3.3.,.X.U S Z s s , , , < ; ; ; ; * ; ; ; ; ; O O % % % % % % % * ; ; < 9 9 , , : ; % % % % * * * % % % % % % % % % % * % ; : : ; > 9 9 > : ; : : : : : : : < , < : % % 1 % 1 ; ; ; ; ; ; ; : < 9 9 H G ( ( ( G ( ( ( ( ( ( ( ( R R ( / / R E E R R R R R R E E E E E E E E E E W E E E E E N N N N N N N N N N N N E E E E E E E E E E E E E E E E E E E R E E R R R R Q Q Q Q Q Q Q _ ` ) ` ` ` ` ] ] ` ` ` ` ] ] ] ] ] -.-.-.<.<.<.<.=.<.X.,., ",
"Z Z Z b Z b b b n n n b n n A A Z Z H H F F F F F F F I U U U Y Y =.&.=.=.=.;.;.1.1.1.1.1.0.w.w.w.w.w.q.q.q.q.q.r.r.q.q.i.i.i.i.i.i.i.i.i.i.i.i.&X&X=X-X-X-X>X>X<X,X,X<X<X,X,X;X;X;X;X;X;X;X;X=X=X=X=X&Xi.i.i.i.i.i.i.i.i.i.r.r.e.e.s.3.3.3.,.,.Y U S s s s s s , , < ; ; ; ; ; ; ; ; 1 O + o O % % % % * * ; < , 9 9 9 < ; % o * ; ; ; ; * % % * % % % ; * % o # % % * > : > 9 0 0 7 : : : : w w > : : < 9 < : % % % O % ; ; % ; ; ; ; : < , 9 Z F U [ ( ( ( [ ( ( ( ( ( ( ( Q ) ) / / R E R R R R R R E E E R E E E E E E E E W E E E E E N N N N N N N N N N E E E E E E E E E E E E E E E E E R R R E R R R R R R Q Q Q Q Q Q _ ` ) ` ` ` ` ` ] ] ` ` ` ] ] ] ] ] ] -.<.=.-.<.<.,.<.X.,., ",
"H H Z b b b b n n n n n n n n n Z Z A A A S F F F F F U U U U Y Y Y Y =.=.=.=.=.1.1.1.1.1.1.1.0.w.w.q.q.q.q.q.q.q.q.r.r.i.i.i.i.i.y.u.u.u.u.i.i.i.&X&X=X=X=X:X:X,X,X,X,X<X<X,X,X<X<X<X<X;X;X;X>X=X=X=X=X&Xi.i.i.i.i.i.i.i.i.e.e.e.e.e.9.3.<.X.X.L L S s , s s s 9 > * * : < > ; O O O O O % O O o o % * : > > > 9 s s 9 : * % % : : : ; % % * ; % % % = : : ; % # % = = : 7 7 w 7 7 w w : : > 7 9 7 w : : : > w * % % % % O O 1 ; : : < < < , , 9 A U ' ( U U ' ( ( U ( ( ( ( ( ( ( ( R R R R R R R R R R E E E E E E E E E E E E E E E E E E E E E E E N N N N E E E E E E E E E E E E E E E E E E R R E R E R / / / R ) ) Q Q ` ` ` ` ` ` ) ) ) ) ] ) ) ` ] ] ' ' ' ' ] ] ' ' ,.<.,.<.,.,.< ",
"H H M b b b n n n n n n n n n n Z Z A A A S F F F F F U U U U Y Y Y Y =.=.=.=.=.1.1.1.1.1.1.1.0.w.w.q.q.q.q.q.q.q.q.r.r.r.i.r.r.i.y.u.u.u.u.i.i.i.&X&X=X=X=X:X;X,X,X,X,X<X<X,X,X<X<X<X<X;X;X;X;X=X=X=X=X&Xi.i.i.i.i.i.i.a.i.a.a.e.e.e.9.3.X.U U S F S a , a a a > : * * ; ; * # o o O % * * * * * * * * ; : > > 9 s s 6 ; % % * ; : : : * * = : : : : : 7 7 : * = 7 7 7 w 7 7 w w 7 w 7 7 7 7 7 w w w : : : : : ; % % ; ; * ; : : < < , , , , , , Z G ( [ U [ [ [ ( ( ( ( ( ( ( ( ( ( ( R R R R R R R R R R R R E E R E R R R E E E E E E E E E E E E E E E E E E E E E E E E E E E E E E E E E E R R R R R R R / / / / ~ ~ Q Q ` ` ` ` ` ` ) ) ) ) ) ) ` ` ] ] ' ' ' ' ] ] ' ' ,.<.,.<.,.,.< ",
"H H H M b n n n n n n n n n n n A Z Z A A S F F F F F L U U U U Y Y ' ' =.=.,.,.,.1.1.1.0.0.1.1.w.w.q.q.q.q.q.q.q.q.i.r.q.r.r.r.i.y.i.i.i.i.i.i.i.&X&X=X=X=X:X;X,X2X,X1X<X<X,X<X,X<X<X<X<X;X;X;X=X=X=X&X&Xi.i.i.i.i.i.i.a.a.a.a.e.e.e.3.X.U F F S S s s , , > > : = * * % % # o o o % * * ; ; * * * * * * * : > 9 s s > * # % * % * * = * * = = > > > > 7 > : = 7 7 7 7 7 7 7 = = = 3 7 7 7 7 7 w w w w : : = * * % % ; ; ; : , < , , 9 9 , , < < 9 Z U ' ' ' Y ' ' ' [ ( ( ( ( ( ( ( ( Q Q Q R R R R R R R R R R R R R R R R R E E E E E E E E E E E E E E E E E E E E E E E E E E E E E E E E R R R R R R R R / / / Q ~ ~ ) ) ` ` ` ` ` ` ) ) ) ) ) ] ` ) ] ] ' ' ' ' ] ] ' ' ,.<.,.<.<.,.< ",
"H H H M n n n n n n n n n n n n A Z A A A S F F F F F L U U U U Y Y Y ' =.=.,.,.,.1.1.1.0.0.1.1.w.w.q.q.q.q.q.q.q.q.i.i.q.r.r.r.i.i.i.i.i.i.i.i.i.=X&X=X=X=X:X;X,X2X,X1X<X<X,X,X,X<X<X<X<X;X;X;X=X=X=X&X&X&Xi.i.i.i.i.i.a.a.a.a.e.i.e.,.U F F S F S S f s a > : : ; * % # # # * * * * * * * * * * * * * * = > 6 6 9 q 7 = * * = % * = : : : : = : = = = = = = * = 3 7 8 8 8 8 7 7 7 7 8 8 7 7 3 q q q w w : = % % % % ; : < , 9 , , 9 9 9 9 , < : , 9 F ' <.=.Y ' ' ' ' ( ( ( ( ( ( ( ( ( ( Q Q ) ) R R / R R R R R R R R R R R R E E E E E E E E E E E E E E E E E E E E E E E E E E E E E E E R R R R R R R R / / / Q ~ ~ ) ) ` _ ` ` ` ` ) ) ) ) ) ] ` ` ] ] ' ' ' ' ' ' ' ' ,.<.,.<.,.,.< ",
"H H H M n n n n n n n n n n m A A Z Z A A S S S F F F F U U U U Y Y ' ' =.=.=.=.,.1.1.1.2.2.0.0.w.w.q.q.q.q.q.q.q.q.r.r.q.r.r.r.u.u.u.u.u.u.y.y.y.=X=X=X=X=X;X;X,X2X,X1X1X1X,X,X,X<X<X<X;X;X;X;X;X=X=X&X&X&Xi.i.p.p.p.a.a.8.8.e.a.a.3.' U U U Y U L L S S s > > = = = * # % * = = = * % % % * * > 7 7 7 > > 7 6 7 7 q 9 7 > = = = = : 7 7 7 7 7 = = = = = * & $ = 3 8 q k k k k k k k k 8 8 8 8 q q 0 q q w : = * % % ; : < , 9 , 6 9 9 9 9 , < < < , F =.1.,.' ' ' ' ' ' ' ( [ [ [ [ ( ( ( ( ( ) ) ( ( ( Q Q R R R R R R R R R R R R E E E E E E E E E E E E E E E E E E E E E E E E E E E E E E E E R R R / / Q Q Q Q ) ) ) Q _ _ _ ` ` ` ) ) ` ` ` ` ) ) ] ] ' ' ' ' ' ' ' ' ,.<.X.<.,.<., ",
"H H M M n n n n n n n n n n n A A Z Z A A S S S F F F F U U U U Y Y ' ' =.=.=.=.,.1.1.1.0.2.0.0.w.w.q.q.q.q.q.q.q.q.r.r.q.r.r.r.u.u.u.u.u.u.y.y.y.=X=X=X=X=X;X;X,X2X,X<X1X1X,X,X,X<X<X<X;X;X;X;X>X=X=X&X&X&Xi.i.*Xp.a.a.a.e.8.t.a.3.' F F ' 3.3.U L S s s > : ; = : > > : = = = = = * * * * = = q g g 6 7 = 7 7 7 7 6 a a 6 7 = = = = = 7 3 7 7 7 6 8 6 7 3 3 3 7 8 k k ^ ^ ^ ^ ^ ^ ^ z k 8 k k E E k q q q w w : = ; : 9 9 9 9 9 9 9 s s 9 9 , < < , Z Y ,.,.=.' ' ' ' ' ' ( ( [ [ ) [ ) ( ) ) ) ) ) ) ( ( ( ( R Q R R R R R R R R E R E E E E E E E E E E E E E E E E E E E E E E E E E E E E E E R R R R / / Q Q Q Q ) ) ) Q ) _ _ _ ` ` ) ) ` ` ` ` ) ) ] ] ' ' ' ' ' ' ' ' ,.<.X.<.,.<., ",
"H H H M n n n n n n n n n m m A A Z Z A A S S S F F F F L U U U U Y Y ' =.=.=.=.,.,.1.1.0.2.2.0.w.w.q.q.q.q.q.q.q.q.r.r.r.y.r.r.u.u.u.u.u.y.y.y.i.=X=X=X=X=X;X;X,X2X,X1X1X1X,X,X,X,X<X<X;X;X;X;X>X=X>X&X&X&Xi.i.p.p.p.a.a.a.8.8.e.<.F Z F 3.a.a.X.U S s a > : : 7 7 9 9 7 7 : : = : > 7 7 7 7 7 g g g g 7 7 7 7 a j g h ~ h a 7 3 = & & = 3 3 3 q g k h k k k k k z ^ m.m.m.m.m.m.m.m.b.^ l l ^ ^ E E q q w w w w : : 7 9 9 9 9 9 9 9 9 9 9 9 , , < , b P Y =.=.' ' ' ' ' ' ( ( [ [ [ [ ( ( ) ) ) ) ) ) ( ( ( ( R R ( ( ( ( R R R R R R R R R R R R R R E E E E E E E E R R E R R R R E E E E R E R E Q Q Q / R Q Q Q Q ) ) ) Q ) Q _ _ _ _ ) ) ) ) ) ) ) ) ] ] ' ' ' ' ' ' ' ' ,.<.X.<.,.,., ",
"H H A A n n n n n n n n n n n A A Z A A A S F S F F F F L L L U U Y Y ' =.=.=.,.,.,.1.1.2.2.0.0.w.w.q.q.q.q.q.q.q.q.r.r.r.y.r.r.u.u.u.u.y.y.y.y.y.=X=X=X=X;X;X;X,X2X,X1X1X1X,X,X1X,X,X<X,X;X;X;X>X=X>X&X&X&Xi.i.i.i.i.a.a.a.a.a.6.<.U F ' L.uXuXL.4.K L S s 9 9 g D g d q 7 7 7 : 7 q q q q q q g g k g g j g h ~ ~ ~ ^ #.o.h g 7 3 = = 3 3 7 7 8 k ^ %.%.%.m.N.m.m.B.U.].U.U.U.].`.U.J.B.m.x.^ ^ ^ k q w 3 3 3 7 > > 7 9 9 6 6 6 , , , , , , , , , , 9 F U =.=.' ' ' ' ' ' ( ( [ [ [ [ ) [ [ ) ) ) ) ) ( ( ( ( ( ( ( ( ( ( R R R R R R R R R R R R R R R R E R E R E R R E E E R R R R E R E R E R R Q Q Q R R Q Q Q Q ) ) ) Q Q Q ( _ _ ( ` ) ) ) ) ) ) ) ] ' ' ' ' ' ' ' ' ' ,.<.X.<.,.,., ",
"n A A A n n n n H H H H H H H H H H H H H F F F F F F F L L L U Y Y Y Y &.&.=.&.1.1.1.1.1.1.1.1.w.w.w.w.q.q.q.q.q.q.r.r.e.i.i.i.u.u.u.u.u.u.y.y.=X=X=X=X=X=X=X;X;X<X,X1X<XeX1XeX1X1X,X<X,X;X;X;X>X>X>X&X&X&Xi.i.i.i.i.p.a.a.a.8.-.U F U L.xXbXxXuXuXuX(.).).).).).P.A.@.{ ^ E k ~ { @.m.A.m.m.#.m.m.m.m.N.H.J.J._.J.J.J._.]._.J.m.^ ^ ^ ^ ^ ^ ^ m.N.J.`.].`.`.U.U.U.].'.{.{.{.{.{.{.{.{.].`.U.U.m.m.m.^ k q 8 7 7 7 7 9 9 7 : : : > > 6 9 6 , , , , , , 9 U -.' ' ' ' ' ' ' ' [ [ [ [ [ [ [ [ [ ) ) ) ( ( ( ( ( Q Q R R R R R R R R R R R R R R R R R R R R R R E R R R E E E R E R E E E E E E R R E R R R Q Q Q Q Q Q Q Q Q Q Q Q ( _ _ ` ) ( ( ` ) ) [ ) ] ' ' ' ' ' ' ] -.-.,.<.,.<.,.,.< ",
"A A A A A n A A H H H H Z Z Z Z H H H H H H F F F F F F L L L U Y Y Y Y &.&.&.&.1.1.1.1.1.1.2.1.w.w.w.w.q.q.q.q.q.q.e.e.e.i.i.r.u.u.u.u.u.u.u.u.=X=X=X=X=X=X=X=X;X<X,X<X<X1X1X1X1X1X1X,X,X;X;X;X>X>X*X>X&X&Xi.i.i.i.i.i.p.a.t.e.[ U ' L.lXbXFXFXGXFXFXFXFXFXFXFXZXZXzXkXkXkXjXjXjXjXkXkXkXkXkXkX].|.].|.|.kXkXkXkXkX|.kXkXkXkX}.kX|.].|.|.}.}.{.|.{.}.}.}.}.}.{.'.{.{.{.[.[.[.{.}.}.}.}.}.{.{.{.].].].J.m.^ k q 8 7 q g D d 7 7 > 6 9 9 9 9 6 , < 9 9 , s U ' ' ' ' ' ' ' ' ' [ [ [ [ [ [ [ [ [ ) ) ( ( ( ( ( ( Q Q Q Q R R R R R R R R R R R R R R R R R R R R R R R R R E E R R R E E E E R E R R E R R R Q R Q Q Q Q Q Q Q Q Q Q ( _ _ _ ) ` ( ` ) ) [ ) ] ' ' ' ' ' ' ' -.-.,.<.,.<.,.,.< ",
"H A A A H H H H H H F H H H H H H H H H F H F F F F F L L U U U Y Y Y Y &.,.,.,.1.1.1.1.1.2.0.w.w.w.w.w.q.q.q.q.q.q.r.r.e.i.r.r.u.u.u.u.u.u.u.u.&X=X=X=X=X=X=X=X;X;X,X<X<X<X1X1X1X1X1X,X,X;X;X;X>X:X>X-X=X&X&Xi.i.i.i.a.p.p.e.<.G ( 8.lXbXFXFXLXGXGXLXLXLXLXFXFXZXZXzXzXZXZXZXZXzXzXVXzXkXkXkXkXVXVXVXkXVXVXVXVXkXkXkXzXVXZXVXVXVXkXkXkXkXMXkXkXVXMXMXMXMXMXXXXX}.}.}.}.}.}.}.}.}.}.kXMXMXkXkXkXkXkX|.].J.m.~ g g q g g R g d s 9 9 9 9 9 9 9 > < 9 9 9 s F ' ' ] ' ' ' ' ' ' ' [ [ [ [ [ [ [ [ ) ) ) ( ( ( ( ( Q Q Q Q ( ( Q Q K K R R Q Q R R R R R R R R R R R R R R R R D R R R D D D D R R R R R R R R R Q Q Q Q Q Q Q Q Q Q Q Q Q _ _ ( ( _ _ ) ) [ ) ] ] ' ' ' ' ' ' -.-.,.<.X.<.,.,.< ",
"H H H H H H H H H H F F F F F F F H H F F F F F F F F U U U U U Y Y &.&.,.,.,.,.1.1.1.1.1.2.w.w.q.q.q.q.q.q.q.q.q.q.r.r.e.i.i.r.u.u.u.u.u.u.u.u.&X=X=X=X=X;X;X;X;X;X<X<X<X<X1X1X1X1X1X,X<X;X;X;X>X:X>X>X=X=X=X&Xi.i.i.p.p.p.0.=.( 6.dXbXFXFXFXGXFXFXFXGXFXFXzXzXzXkXkXzXzXZXZXZXZXZXZXMXMXMXkXkXkXkXkXkXkXkXkXkXkXkXkXkXkXkXMXMXMXMXMXMXMXMXkX}.MXMXMXMXXXXXXXMXXXXX}.}.[.[.}.}.}.}.kXMXMXkXkXkXkXkX|.].].J.#.~ E g g g D D D D 9 9 s A s 9 9 9 9 s Z 9 s F U ' -.-.] ' ' ' ' ' ' ' [ [ [ [ [ [ ) ) ) ) ( ( ( ( ( ( ( ( ( ( ( ( K K R R Q Q R R R R R R R R R R R R R R R R D D R D D D D D R R R R R E R R R Q Q Q Q Q Q Q Q Q Q Q Q Q Q _ ( ( _ _ ) ) [ ) ] ] ' ' ' ' ' ' -.-.,.,.X.<.,.,.< ",
"G G G G G G F F H H H H F F F F F F F F F F F F F F U U U U U Y d.,.,.,.,.,.,.,.1.1.1.1.2.w.0.w.q.q.q.q.q.q.q.q.q.q.r.r.q.r.r.r.u.u.u.u.u.u.y.y.&X&X&X&X=X=X=X=X;X;X<X<X,X,X1X1X1X1X1X,X,X<X<X;X>X>X:X>X-X=X=X&X&Xi.p.p.p.t.<.' t.iXbXbXbXFXGXGXLXLXGXFXFXFXzXZXZXZXZXZXZXZXZXZXVXVXVXZXMXMXkXkXkXkXkXkXMXkXkXMXkXMXVXVXMXMXMXMXZXVXBXBXBXMXMXMXMXMXXXXXXXXXXXXXXXXX.X[.[.}.XXXXXXXX}.}.}.}.}.}.MXkXkXkXkX|.P.A.#.~ g g g D R Q S d S D S s 9 9 s Z Z s 9 Z U X.<.<.-.-.] ' ' ' ' ' ' [ [ [ [ [ ) ) ) ) ) ) ( ( ( ( ( ( ( ( ( ( Q Q Q Q Q Q Q Q R R R R R R R R R R R R R R R D D D D D H D R R R R R R R R Q Q R Q Q Q Q Q Q Q Q Q Q Q Q Q ( ( _ _ ) ) ) ) ] ] ' ' ' ' ' ' X.X.,.<.X.<.,.,.< ",
"G G G G G G G F F F F F F F F F F F F F F F F F I I U U U U Y Y ,.,.,.,.,.,.,.1.1.1.1.2.2.w.w.w.q.q.q.q.q.q.q.q.q.q.r.r.q.r.r.r.u.u.u.u.u.u.y.y.%X&X&X&X=X=X=X=X;X;X,X<X,X<X1X1X1X1X1X<X,X<X<X;X:X>X:X>X=X=X=X&X&X*X*Xp.a.r.0.-.uXbXFXbXbXGXLXGXLXGXFXFXbXzXzXzXZXZXZXBXkXkXkXkXMXMXMXMXMXMXkXkXkXMXMXMXMXMXMXMXMXMXmXBXmXMXMXmXMXMXMXMXMXMXMXXXMXMXMXMXoXXXoXoXMXXXXXXXXXXXMXMXMXMXXX}.}.}.XXkXMXMXMXkXkXkX].).H.o.E g g R ~ _ G S S G D s 9 s S S Z s 9 Z U X.<.<.<.<.-.] ] ] ' ' ' ' [ [ [ [ ] ) ) ) ) ) ) ) ( ( ( ( ( ( ( ( Q Q Q Q Q Q Q Q ( ( R R R R R R R R R R R R R R D D D D D D D R D R R R R R R R Q Q Q Q Q Q Q Q Q Q Q Q Q Q ( ( _ _ ) ) ) ) ] ] ' ' ' ' ' ' <.<.,.<.X.<.,.,.< ",
"G G G G F F F F F F F F F F F F F F F F I I F F I I U U U U Y Y &.=.,.,.,.,.1.1.1.2.2.2.0.0.0.0.q.q.q.q.e.e.e.q.q.q.r.r.r.y.r.r.u.u.u.u.u.u.y.y.%X%X%X&X=X=X=X=X;X;X,X<X,X,X1X1X1X1X1X,X,X<X,X<X>X:X>X>X=X=X=X=X&X&X*X*Xp.r.e.e.lXbXbXbXbXFXGXGXGXGXGXFXFXzXZXZXZXZXVXMXMXMXMXMXBXMXBXBXMXMXMXMXMXMXMXMXmXmXmXmXMXMXMXMXMXMXMXMXmXmXmXmXMXMXMXMXMXMXMXXXXXXXoXoXMXMXXXXXXXXXMXMXMXXXXX}.}.}.XXkXMXkXkXkXkXkX|.|.].A.^ ~ ~ ~ ~ ` Q D D Q G d s S F S S s s Z F ' <.<.<.<.-.-.-.-.' ' ' ' ' [ [ [ ] ) ) ) ) ) ) ) ) ) ( ) ( ( ( ( Q Q ( ( Q ( Q Q Q ( ( R R R R R R R G G R G R R D D D D D D D D D D R R R R R R R R Q Q Q Q Q Q Q Q Q Q Q Q ( ( _ _ ) ) ) ] ] ] ' ' ' ' ' ' <.<.<.<.,.3.,.,.< ",
"G G G G F F F F F F F F F F F F F F F F I I F I I I Y U Y Y Y Y &.=.,.,.,.1.1.1.1.2.2.2.0.0.0.q.q.q.q.q.e.e.e.e.q.q.r.r.r.r.r.r.u.u.u.u.u.u.y.y.%X%X%X%X=X=X=X=X;X;X<X<X,X,X1X1X1X1X1X,X,X<X<X<X>X;X>X;X=X=X=X=X&X&X*Xp.p.t.t.L.bXbXbXbXFXFXFXFXFXFXFXFXZXzXzXZXkXMXMXMXkXkXMXMXBXMXMXMXMXkXMXMXMXMXmXVXCXVXNXVXNXBXMXmXNXMXMXMXMXMXmXMXMXMXMXmXmXmXmXoXoXmXmXNXXXMXXXXXXXXXXX[.XX.X[.[.}.XXMXMXMXMXMXkXkXkXkXzXlXP.m.#.#.#.#.#.{ Q Q ` _ G D Q G S S Z Z Z F U <.<.<.<.<.<.-.-.' ' ' ' ' ' [ ' ] ) ) ) ) ) ) ) ) ) ) ( ( ( ( ( ( ( ( ( ( ( Q Q ( ( Q Q R R R R R R G G R G R R D D D D D D D D D D R G R R R R R G Q Q Q Q Q Q Q Q Q Q Q Q ( ( _ _ ) ) ) ] ] ] ' ' ' ' ' ' -.-.<.<.,.<.,.,.< ",
"G G F F G G F F I I F F F P P F I F F I F I I I Y U Y Y Y =.=.=.=.,.,.1.1.2.2.2.2.0.0.0.q.r.q.q.e.e.e.e.q.q.q.q.q.q.r.r.r.y.y.r.u.u.u.u.u.u.u.u.y.y.%X%X%X=X=X=X;X;X;X,X,X2X2X2X2X2X2XeXqXqX,X;X;X;X;X=X;X;X;X;X>X&Xi.*Xp.r.L.uXbXzXzXbXFXFXFXFXFXFXFXzXzXzXkXkXBXMXBXMXMXMXMXBXkXMXMXMXMXMXMXMXMXMXmXmXNXCXCXCXNXNXmXMXmXMXmXmXMXMXMXMXMXMXMXMXmXmXoXoXoXoXoXoXXXXX.X.X.X.X[.[.}.[.[.}.}.XXXXXX}.}.kXkXkXkXkXkXkX).N.#.#.#.{ ~ { ` ) Q Q Q Q K S s S S S s F ' ' <.<.,.,.<.,.' -.] ] ] ' ' ' ' ] ) ) ) ) ) ) ) ) ) ) ) ) ) ) [ ( ( ( ( ( ( Q Q ( ( Q Q R R R R R R R G G G D D G D D D H D D D D D D D D G R R Q Q Q Q Q Q Q Q K Q Q Q Q Q Q Q _ _ _ _ [ [ [ [ ' ' ' ' ' ' ' =.<.<.,.<.,.,.< ",
"G G G G I I I I I I I I I P P P I I I I I I U Y Y Y Y &.=.=.=.=.1.1.1.1.1.1.2.2.0.0.0.0.q.e.r.e.e.e.e.e.e.q.q.q.q.q.q.r.r.r.y.r.u.u.u.u.u.u.u.u.y.y.%X%X%X=X=X=X;X;X;X,X,X2X2X2X2X2X2XeXeXqX,XqXqXqX;X;X;X;X;X;X;X>X&X*Xp.a.5XdXnXxXzXbXFXFXFXFXFXZXZXzXzXkXkXkXkXMXMXMXMXMXMXMX}.}.XXXXXXXXXXXXMXMXMXmXNXNXNXNXNXNXmXmXmXMXmXmXMXMXMXMXMXMXmXmXMXoXoXoXoXoX.XoXXXXX.X.X.X.X[.[.[.[.[.[.}.XXXXXXXX}.}.kXkXkXkXkXkX].N.#.#.#.{ ^ ) ` ~ ) ) Q Q D S S S F F s F ' ' <.<.<.=.<.-.' <.-.] ] ' ' ' ' ] ) ) ) ) ) ) ) ) ) ) ) ) ) ) [ ( ( ( ( ( ( ( ( ( ( ( Q Q R R R R R R G G G G D D D D D D D D D D D D D G G G K Q Q K K K K K K Q Q Q Q Q Q ( ( ( _ _ _ [ [ [ [ ' ' ' ' ' ] ' -.<.<.,.<.,.,.< ",
"G G I I I I I I I I I I I I I I I I I I I U Y Y Y Y =.=.;.;.;.2.1.1.2.2.2.0.0.0.0.0.q.q.q.r.r.e.r.e.e.e.e.e.e.q.q.q.q.r.r.u.u.u.u.u.u.u.u.u.u.u.y.y.%X%X%X=X=X=X;X;X;X,X,X2X2X2X2X2X2X2XeXqXqXqXqXqXqX;X;X;X;X;X<X;X*X*Xp.p.6XiXlXlXzXbXFXFXFXFXZXzXzXzXkXlXkXkXkXkXkXkXMXMXMXMXXXXXXXXX.X.X.X.XXXMXMXmXNXNXNXNXNXNXmXmXmXmXMXMXMXMXmXmXmXmXMXMXoXoXoXoX.X.X.XoXoX.X.X.X.X.X.X.X.X.X[.[..XXXXXXXXXXX}.}.kXkXkXkXkX].N.m.#.#.o.{ ~ ~ { ` ` ) G D S S S L S S F Y ' <.<.<.,.<.<.' <.-.-.' ' ' ' ' ] ) ) ) ) ) ) ) ) ) ) ) ) ) ) [ ( _ _ _ ( ( ( ( ( ( ( ( Q Q R R R R R R R G G G G G D D D H G D D D D D D G G G G K K K K K K K Q Q Q Q Q Q Q Q ( ( _ _ [ [ ) [ ' ' ' ' ' ] ' ' ,.<.,.<.,.,., ",
"G G I I I I I I I I I I I I I I I I I I I Y Y Y Y &.=.;.;.:.0.0.2.2.2.2.2.0.0.q.q.q.q.r.r.r.r.r.r.r.r.r.e.e.e.e.q.q.r.r.u.u.u.u.u.u.u.u.u.u.u.u.y.y.%X%X%X=X=X=X%X;X;X,X,X2X2X2X2X2X2X2XeXwXwXqXqXqXqXqX,X;X,X,X<X>X*X*Xp.L.yXlXlXlXzXbXbXbXZXFXzXzXkXlXlXkXkXkXkXMXkXkXMXXXMXMX[.[.[.[..X.X.X.XXXXXMXmXNXNXNXNXmXmXmXMXMXMXMXMXMXMXmXmXmXmXMXoXMXoXoXoX.X.X.XoXoX.X.X.X.X.X.X.X.X.X[.[.[..XXXXXXXXX}.}.}.}.kXkXkX].J.m.m.#.#.o.) ) { { { ) Q D K L L L L S F U ' <.<.<.,.<.<.' <.<.-.] ' ' ' ' ] ) ) ) ) ) ) ) ) ) ) ) ) ) ) [ [ ( ( ( ( ( ( ( [ ( ( ( ( ( ( R Q Q R R R G G G G G H D H H H D D D D D D G G G G G J J L L L L Q Q Q Q Q Q Q Q ( ( ( _ _ [ ) [ ' ' ' ' ' ' ' ' <.<.,.3.,.<., ",
"I I I I I I I I I I I I I I I Y I I I I Y Y Y Y &.=.=.;.:.:.0.0.2.2.2.2.0.0.0.0.r.r.r.r.r.r.r.r.r.r.r.r.r.r.e.r.e.q.r.r.r.u.u.u.u.u.u.u.u.u.u.u.y.y.%X%X=X=X=X=X%X;X;X,X,X2X2XeX2X2X2X2XeXeXeXqXqXqXqXqX,X<X,X<X<X<X>X*Xp.L.yXlXlXlXzXzXzXzXzXZXzXkXkXlXkXkXjXkXkXkXMXMXkXXXXXXX[.{.[.[..X.X[.[..X.XXXMXmXmXmXmXmXMXMXMXMXoXMXMXMXMXMXMXmXmXoXoXmXoXoXoXoXoXoXoXoXXX.X.X.X.X.X.X.X.X[.[.[.[.[.}.XXXXXX}.}.}.}.}.|.].J.m.m.m.m.m.{ { { ) ` ) Q K Q K K K L L L U ' ,.<.<.<.<.<.,.<.<.<.' ' ' ' ' ] ) ) ) ) ) ) ) ) ) ) ) ) ) ) _ [ ( ( ( _ _ _ ( [ [ ( ( ( ( ( ( Q Q Q Q R R G G G D D H H H H D H D D D D D D D D D D D D D D D J J Q Q Q Q Q Q Q ( ( ( [ [ ] [ ' ' ' ' -.-.<.<.<.<.,.<.,.<., ",
"U U I I U U I I I I I I I Y Y Y Y Y Y Y Y Y =.=.=.;.;.;.:.0.0.0.2.2.2.0.0.0.q.q.r.r.r.r.r.r.r.r.r.r.r.r.r.r.i.i.i.i.y.y.u.u.y.u.u.u.u.u.u.u.u.u.y.y.%X%X=X=X=X=X;X;X;X,X,X2X2XeXeXeXeXeXeXeXeXqXqXqXqXqXwXeXeX,X,X<X>X*Xp.L.uXiXlXlXzXzXzXzXzXzXzXkXkXlXkXkXkXkXkX}.[.}.{.{.[.[.{.{.[.[..X.X[.[..X.XXXMXMXMXmXMXMXMXMXMXoXoXXXoXMXMXMXMXmXmXoXoXmXoXoXoXoXoXoXoXoXXX.X.X.X.X.X.X.X.X[.[.[.[.[.[.XXXX}.XX}.}.}.}.{.].J.N.m.m.m.N.m.#.{ ) ) ` ) Q Q Q U K L L L U ' ,.<.<.<.<.<.,.<.<.<.-.] ' ' ' ] ) ) ) ) ) ) ) ) ) ) ) ) ) ) _ [ ( ( ( ( _ _ ( [ ( ( ( ( ( ( ( ( Q Q R R R G G G D D H H H H H D D D D D D D D D D D D D D D D G J J K Q Q Q Q Q Q ( ( [ [ ] [ ' ' ' ] -.-.<.<.<.<.,.3.,.<., ",
"U U U U U U Y Y I I I I Y Y Y Y Y Y Y Y Y =.;.;.;.;.:.:.:.0.e.e.0.0.0.0.e.e.e.e.r.r.r.r.r.r.p.p.r.r.r.r.r.r.i.i.i.i.i.i.u.u.u.u.u.u.u.u.u.u.u.u.y.y.%X%X=X=X=X=X%X;X;X,X,X2X2XeXeXeXeXeXeXeXeXqXqXqXqXqXwXeXeX<X2X<X<X*Xp.5XuXuXiXlXlXzXzXzXzXzXzXkXkXkXkXkXkX}.{.{.{.{.{.{.{.{.{.[.[.[.[.[.[.[..X.XXXXXMXMXMXoXMXMXMXXXXXXXoXXXMXMXMXMXMXMXoXoXoXoXoXoXoXoXoXoXoXoX.X.X.X.X.X.X.X.X[.[.{.{.[.[.}.}.}.}.}.}.}.}.{.].J.N.m.m.N.A.m.m.#.{ ) ) ` _ Q _ _ K L L L L ' ,.<.<.<.<.<.<.<.<.<.-.] ' ' ' ] ) ) ) ) ) ) ) ) ) ) ) ) ) ) _ ( _ ( ( _ _ ( ( ( ( ( ( ( ( Q ( ( ( ( G G G G G H H H D A A A A D g D D S D D D D D S S S S S S D G G G G G K Q Q Q ( ( [ [ ] ' ' ] ] ] <.<.<.<.<.<.<.3.<.<., ",
"U I I I Y Y Y Y I I I Y Y Y Y Y =.' =.=.=.=.=.;.;.;.:.0.0.e.e.e.q.q.e.e.e.e.r.r.r.r.r.r.r.*Xp.p.r.r.r.r.i.i.i.i.i.i.i.u.u.y.y.u.u.u.u.u.u.u.u.u.y.y.&X%X&X&X=X=X;X;X;X;X,XqX2XeXeXeXeXeXeXeXqXqXqXqXqXqXwXeXeXwX,X<X7X*Xp.L.uXuXuXiXlXzXzXzXzXzXzXzXkXkXkXkXkX}.{.{.{.{.{.{.{.{.[.[.[.[.[.[..X[..XXXXXXXMXXXXXXXMXMXXXXXXXXXXXoXMXMXMXMXmXMXoXoXoXoXoXoXoX.XoXoXoXXX.X.X.X.X.X.X.X[.[.[.[.{.[.[.[.}.}.}.}.}.{.}.].].J.N.m.m.N.J.m.m.#.#.{ { ` _ Q _ ! K K K K L ' <.<.<.<.<.<.<.<.<.<.-.] ' ' ' ] ) ) ) ) ) ) ) ) ) ) ) ) ) ) [ ( ( ( ( ( ( ( ( ( ( ( ( ( Q ( Q ( ( R ( R G G G H D D A A A A A A A A A S S D D D D S S D S S S D D D G G G G K Q Q ( ( [ [ ] ) ] ] ] ] <.<.<.<.<.<.<.3.<.,., ",
"Y Y Y Y Y Y Y Y Y Y Y Y &.=.=.=.' ' ' ' =.=.;.2.2.2.e.e.e.e.e.e.q.q.q.q.e.e.e.e.r.r.&X&Xr.r.*Xr.i.i.i.i.i.i.i.i.i.i.i.y.y.u.u.u.i.i.i.i.i.i.i.i.i.y.u.&X&X%X=X=XqXqXqXqX,XqXqXeXeXeXqXqXqXeXqXqXwXwXwXqXqXqXeXeXwX;X-X*Xp.L.P.uXuXjXlXzXzXzXzXzXzXzXkXkXkXkX{.{.[.[.[.[.[.[.[.[.[.[.[.[.[.[.[.}.XXXXXXXXMXMXMXMXXXoXoXMXMXMXMXMXoXoXoXoXoXoXoXoXMXMXoXoXoXoXoXoXoXoX.X.X.X.X.X.X.X.X.X[.{.{.[.{.[.[.{.{.{.{.{.].].`.J.N.N.J.J.J.A.N.m.m.{ { { { { ~ ! ~ ! ! ! ! ' X.<.<.<.<.<.<.,.,.X.' ' ' ' ] ) ) ) ) ) ) ) ) ) ) ) ) ) ) ) ) ( ( ( ( ( ( ( ( ) ) ) ( ( ( ( ( R R / R G G G H G H H A H A H A A A A A A S D D D D H H D S S S D S D G K K K G Q ( ( ( [ ) ) ] -.-.-.-.<.<.<.<.<.1.<.0.<.3., ",
"Y Y Y Y Y Y Y Y Y Y Y =.=.=.=.=.=.' ' ' =.,.<.<.2.0.0.0.0.e.e.e.w.w.e.e.r.r.r.r.r.r.&X&X*X*X*Xr.i.i.i.i.i.i.i.i.i.i.y.y.u.u.u.u.i.i.i.i.i.i.i.i.i.y.u.%X%X=X=X=XqXqXqXqXqXqXqXqXqXqXqXqXqXqXqXqXwXwXwXwXqXqXqXqXqX;X-X-XL.L.L.uX).jXlXzXzXzXzXzXlXlXjXjX}.}.{.{.{.{.[.[.[.[.}.}.[.[.[.[.}.}.}.}.XXXXXXXXMXMXXXMXXXXXoXoXMXMXoXoXmXMXMXMXMXMXoXoXmXmXMXoXoXoXoXoXoX.X.X.X.X.X.X.X.X.X[.[.{.[.{.{.[.{.{.{.{.{.{.].].].J.J.A.J.J.J.J.N.m.m.#.%.{ o.#.o.{ ` ` ` ` ` ` ..<.<.<.<.X.<.,.X.X.X.' ' ' ' ) ) ) ) ) ) ) ) ) ) ) ) ) ) ) ) ) ) ) ) ) ) ( ( ) ( ) ( ( ( ( ( ( R / / / G G G G H H H H H A A A A A A A S F H H H H H H H H S S S G G K K K K ( ( ( ( ) ) ) ] -.-.-.-.<.<.<.<.<.1.<.0.<.3., ",
"Y Y Y Y Y Y Y Y =.=.=.=.=.=.=.,.=.=.=.;.,.<.2.2.0.0.e.e.e.e.e.e.r.r.r.r.r.r.r.r.r.r.r.r.r.*X*X*Xi.i.i.i.i.i.i.i.i.i.y.y.u.u.u.u.i.i.i.i.i.i.i.i.i.y.u.u.u.=X=X=X%X;XqXqXqXqXqXqXqXqXqXqXqXqXqXqXwXwXwXwXqXqXqXqXqXqXqX-XL.L.L.).).jXlXzXzXzXlXlXlXjX].].].].].].'.'.{.{.[.[.[.}.[.[.[.[.}.}.XXXXXXXXXXXXMXMXXXMXXXXXXXoXMXMXMXoXmXmXmXmXmXmXmXmXmXmXMXMXoXoXoXoX.X.X.X.X.X.X.X.X.X.X[.[.[.{.{.{.{.{.{.{.{.{.{.].].].J.J.J.J.J.J.J.N.N.m.m.#.#.#.@.#.o.{ ....` ` ` ..<.<.<.X.X.<.,.,.X.' ' ' ' ' [ ) ) ) ` ) ) ) ) ` ` ` ` ` ) ) ( ) ( ( ( ( ( ( ( ( ( ( ( ( ( ( ( ( / / / G G G H H H A A A A A A A A A A A A S S S D D D D D S S S G L K K K K ( ( ( ( ) ) ] ] -.-.-.<.<.<.<.<.<.2.<.s.<.3., ",
"Y Y Y Y Y Y Y Y =.=.=.=.=.=.2.,.,.<.,.,.<.2.0.0.e.e.e.e.e.e.e.e.r.r.r.r.r.r.r.r.r.r.r.r.*X*X*X*Xi.i.i.i.i.i.i.i.i.i.y.y.u.u.u.u.i.i.i.i.i.i.i.i.i.i.y.u.u.u.=X=X;X;X;XqX;XqXqXqXqXqXqXqXqXqXqXqXwXwXwXwXwXwXwXwXqXqXyXyXL.L.L.(.uXjXzXzXzXzXzXlXkXjX].].].].U.U.'.'.{.{.{.[.[.[.}.[.[.}.}.XXXXXXXXXXXXMXMXXXXXXXoXMXMXMXMXMXMXMXmXmXMXMXoXoXMXoXoXoXoXoXoXoXoXoX.X.X.X.X.X.X.X.X.X.X[.[.[.{.{.{.{.{.{.{.{.{.{.].{.]._.J.J.J.J.J.J.J.N.m.m.m.m.#.#.#.o.o...` ` _ ` ..<.<.<.X.X.<.,.X.X.' ' ' ' ' [ ) ) ) ` ` ) ) ) ) ` ` ` ` ) ) ( ( ( ( ( ( ( ( ( ( ( ( ( ( ( ( R ( / / I G G H H H A A A A A Z A A A A A A A A S S S S D D D S D S G L K K K K ( ( ( [ ) ) ] ] -.-.-.<.<.<.<.6.<.3.<.e.3.1., ",
"Y Y Y Y Y &.&.&.=.=.=.=.=.,.,.,.,.,.2.2.2.2.2.e.e.e.e.e.e.e.r.r.r.r.r.r.r.r.r.r.r.r.r.r.*X*X*X*Xi.i.i.i.i.i.i.i.i.i.y.y.y.y.u.u.i.i.i.i.i.i.i.i.i.i.y.&Xu.u.=X=X%X;X=X=XqXqXqXqX;X;X;X;XqXqXqXqXwXwXwXwXwXwXwXqXqXqXyXyXL.L.L.(.uXlXzXzXZXZXzXzXzXkXjX|.{.{.{.{.}.[.[.[.[.[.[.[.XX}.}.XX}.XXXXXXXXXXXXMXMXXXXXXXXXXXXXMXMXoXoXoXoXoXoXoXoXoXoXoXoXoXoXoXoXoXoXoX.X.X.X.X.X.X.X.X.X.X[.[.[.{.{.{.'.{.{.{.{.{.{.{.}.].`.J.J.J.J.J.J.N.N.m.m.m.m.#.#.#.o.o.o.` ` _ ....<.<.<.<.<.<.,.,.X.' ' ' ' ' [ ` ) ) ) ) ` ` ) ) ` ` ` ) ) ) ( ( ( ( ( ( ( ( ( ( ( ( Q Q R R R R R R G H H H A A A A Z Z Z Z A d d A A A A A A A A S S D D S D D G L K K K K ( ( ( [ ) ) ] ] -.-.-.<.<.<.6.6.2.3.<.e.1.1., ",
"Y Y &.&.=.=.=.=.=.=.=.=.,.1.2.2.2.2.2.2.2.2.e.e.r.r.r.e.r.r.r.r.r.r.r.r.r.r.r.r.r.r.r.&X*X*X*X*Xp.p.&Xi.i.i.i.i.i.i.y.y.u.y.u.u.i.i.i.i.i.i.i.i.i.i.y.&Xu.u.=X=X%X%X;XqX=XqXqXqX=X=X;X;XqXqXqXqXwXwXwXwXeXeXwXwXqXqXyXyXL.L.L.(.uXlXzXZXZXZXZXZXzXzXkXkXkXMXMXMXMXXXXXXXXXXXXXXXXXXXXXXXXXXXXXXXXXXXMXMXXXXXXXXX.X.X.XXXXXXXoX.XoXoXoXoX.X.X.X.XoXoXoXoX.X.X.X.X.X.X.X.X.X.X.X.X.X[.[.[.[.{.{.{.'.{.{.{.{.].{.{.}.{.].`.J.J.J.J.J.J.N.N.m.m.m.#.@.#.#.#.#.#...` ....4.<.<.<.<.<.,.X.X.' ' ' ' ' [ ` ` ` ` ) ) ) ) ) ` ` ) ) ) ) ( ( ( ) ) ( ( ( ( ( ( ( Q Q R R R R R G H H A A A A A Z Z Z Z b s s s s d A A A A A A A D D D H D G G K K K K Q ( ( ( [ ) ] ] ] -.-.-.<.<.6.2.2.2.3.2.e.2.3., ",
"&.&.=.=.=.=.=.=.=.,.1.1.2.1.1.2.2.2.2.2.q.e.e.r.r.r.r.r.r.r.r.r.r.r.r.r.r.r.r.r.r.i.p.p.p.p.*X*X*X*X*X&X&X&X&X&Xi.i.y.y.u.u.u.u.u.i.i.i.i.i.i.i.i.i.y.&Xu.u.u.&X%X;X;X;X=XqXqXqX;X=X;X;X;XqXqXqXwXwXeXeXeXeXwXwX0X0XyXyXL.L.L.).uXlXzXzXZXZXZXZXZXzXkXkXZXZXBXMXmXMXMXMXMXMXMXMXXXXXXXXXXXXXXXXXXXXXMXMXXXXXXXXX.XXXXXXXXXXXXXXXoXoXoXoX.X.X.X.X.X.X.X.X.X.X.XoXXX.X.X.X.X.X.X.X.X[.[.{.[.{.{.{.'.{.{.{.`.`.{.}.}.|.`.U.J.J.J.J.J.J.N.N.m.m.m.m.m.@.#.#.@.#.O.....<.4.<.<.<.<.<.,.X.X.X.' ' ' ' [ ) ) ) ) ) ) ) ) ) ) ) ) ) ) ) ) ) ) ( ) ) ) ( ( ( ( ( Q Q Q R G G G H H A A n A A A b 0 0 0 0 0 9 9 9 d d d A A A A A S S S D G G G K K K Q Q ( ( [ [ ) ] ] ] -.-.-.<.2.2.2.2.2.3.2.e.2.2., ",
"=.=.=.=.=.=.=.=.1.1.2.1.2.2.2.0.2.2.e.e.e.e.r.r.r.r.r.r.r.r.r.r.r.r.r.i.i.i.i.i.p.*X*X*Xp.p.p.*X*X*X*X*X&X&X&X&Xi.i.i.i.u.u.u.u.u.i.i.i.i.i.i.i.i.i.i.&Xu.u.u.&X%X;X;X;X=XqXqXqX=X=X;X;X;XqXqXwXwXwXwXeXeXeXwXwX0X0XyXyXL.L.L.uXuXlXzXzXzXzXZXZXZXzXkXkXMXMXMXMXMXMXXXXXXXMXMXMXMXMXXXXXXXXXXXXXXXMXMXMXXXXXXXXXXXXXMXMXMXMXMXMXoXoXoXoXoXoXoXoX.XoXoXoXoXoXoXoXXXXX.X.X.X.X.X.X.X[.[.[.[.[.{.{.'.{.{.'.`.`.{.}.}.|.`.U.U.J.J.J.J.J.J.N.m.m.m.m.@.@.#.#.@.@.#.o.O.<.4.4.<.<.<.<.<.X.X.X.' ' ' ' [ ) ) ) ) ) ) ) ) ) ) ) ) ) ) ) ) ) ) ( ( ( ) ) ( ( ( ( Q Q R R G G G H H A n n A A A b 0 0 0 0 0 0 0 9 0 d d d d A A A S S S D G G G K Q K Q Q ( ( [ [ ) ] ] ] -.-.-.2.<.2.2.2.2.e.2.e.2.2., ",
"&.=.=.;.;.1.1.1.1.1.2.2.0.0.w.w.q.q.q.e.e.r.r.r.r.r.i.r.*X*X*Xi.*X*X*X*X*X*X*X*X&X&X&X*X*X*X*X*X-X-X-X-X*X-X&X&X&X&Xy.u.u.u.u.u.u.i.i.i.i.i.i.i.i.i.i.i.u.&X&X&X&X=X=X=X=X=X=X=XqXqXqXqXqXqX0XwXwXwXwXeXeXeXeXwXwXqXyX5XL.L.L.P.).jXlXzXzXzXZXZXZXZXVXVXMXMXMXmXMXMXXXXXXXMXMXMXmXMXXXXXXXXXXXXXMXMXXXXXXXXXXXXXoXXXXXXXoXMXMXMXXXoXoXoXoXXXXXoX.X.X.X.XoXoXXXoX.X.X.X.X.X.X.X.X.X.X[.[.[.[.{.{.}.{.`.`.'.{.{.{.].].U.U.J.J.J.U.B.B.B.N.N.N.m.m.m.m.@.#.#.o.o.` O.<.4.<.<.<.,.X.X.X.X.' ' ' ' [ ] ] ) ) ) ) ) ] ) ) ) ) ) ) ) ) ) ) ) ( ( ( ( ( ( ( ( Q Q R R R H H H H A A A A A A A 0 0 0 0 0 0 9 9 9 9 0 d d d d d A S S S S D D G L K K Q ( ( ( [ [ ) ] ] -.-.-.-.-.2.6.2.0.<.e.2.2.0.2., ",
"&.&.=.;.;.1.1.1.2.2.2.2.w.w.w.q.q.q.e.e.r.r.r.r.i.i.r.*X*X*X*X*X*X*X*X*X*X*X*X*X&X&X*X*X*X*X*X*X>X>X>X-X*X-X>X&X&X&Xy.u.u.u.u.u.u.i.i.i.i.i.i.i.i.i.i.i.i.=X=X&X&X=X=X=X=X=X=X=XqXqXqXqXqXqXqXwXwXwXwXeXeXeXeXwX0XqXyXyXL.L.P.).).jXlXzXzXzXZXZXzXVXZXZXZXVXVXNXmXMXXXXXXXXXMXMXmXmXMXMXXXXXMXMXMXMXMXXXXXXXXXXXXXXXXXXXoXoXMXMXXXoXoXoXoXXXXXoXoXoXoXXXXXXXXXoXXXXX.X}..X.X.X.X.X[.[.[.[.{.{.{.{.{.`.`.{.{.{.{.`.`.U.U.J.J.J.J.J.B.B.B.N.N.m.m.m.m.@.#.#.o.o.` ..<.<.4.3.<.,.X.X.X.X.' ' ' ' [ ] ) ) ) ) ) ) ) ) ) ) ) ) ) ) ) ) ) ) ( ( ( ( ( ( ( Q Q Q R R R H H H H A A A A A A A 0 0 0 0 0 9 9 q 9 0 0 d d d d d A A S S S S D G L K K Q ( ( ( [ [ ) ] ] -.-.-.-.2.6.6.6.6.<.e.<.0.e.2., ",
"&.;.;.1.1.1.1.1.0.0.0.0.w.w.w.q.e.e.r.r.r.r.r.r.&X&X&X*X*X*X*X*X*X*X*X*X*X>X*X*X>X&X>X*X*X*X*X*X:X:X>X>X-X-X=X=X&X=Xy.y.u.u.u.u.u.i.i.i.i.i.i.i.i.i.i.i.&X&X&X&X&X&X=X=X=X=X=X=X;XqXqXqXqXqXqXwXwXwXwXeXeXeXeXwXqXqXyXyX5XL.P.).).jXkXzXzXzXzXzXkXzXVXZXVXVXVXVXmXmXMXXXXXXXXXMXmXmXMXMXMXMXMXmXMXMXMXMXMXMXMXMXXXXXXXoXoXoXoXoXoXoXMXMXoXoXXXXXoXoXoXoXoXXXXXXXXXXXXX}..X[.[.[..X.X[.[.[.{.{.{.{.{.'.'.{.{.{.'.U.U.U.J.J.J.J.J.J.B.J.J.N.N.N.m.m.m.m.@.#.o.o.` ..<.4.4.4.3.<.X.X.X.X.' ' ' ' ' [ ) ) [ [ ) ) ) ) ) ) ) ) ) ) ) ) ) ( ( ( ( ( ( ( ( Q Q R Q R R H G F F A A A A A 0 n 0 0 0 0 0 9 9 q q q q 0 d d d d d d S S S S S D G K K ( ( ( ( [ [ ) ) ] -.-.-.6.2.6.6.6.2.<.e.2.e.e.2., ",
"1.1.1.1.1.1.1.1.0.0.w.w.w.q.q.q.q.r.r.r.r.i.&X*X*X*X*X*X*X*X*X*X>X*X>X*X>X*X>X>X>X*X>X*X>X>X>X>X:X:X>X>X>X>X=X-X=X&Xi.y.u.u.u.u.u.u.i.i.i.i.i.i.i.i.i.i.i.&X&X&X&X&X=X=X=X=X=X=X;X;XqXqXqXqXqXwXwXwXwXeXeXeXeXwXqXpXyXyXyX(.5X).].lXzXZXZXZXZXzXkXzXVXVXZXVXNXmXVXVXmXMXXXXXXXMXMXMXXXXXXXMXMXmXMXMXMXMXMXMXMXMXMXMXMXMXMXoXoXoXmXmXmXmXmXmXMXMXmXmXmXMXoXoXoXoXXXXX.X}..X.X.X.X.X[.[.[.{.{.{.{.{.{.'.'.`.`.`.`.U.U.U.J.J.J.U.U.J.J.J.J.J.N.N.N.m.m.m.@.#.#.o.o...<.4.4.4.3.<.X.X.X.' ' ' ' ' [ [ ) [ [ [ [ ) ) [ [ [ [ [ [ [ [ ) ( ( ( ( ( ( ( Q Q Q Q Q R R G G H H F A A A A 0 n 0 0 0 0 0 9 q q 9 q q q q 0 d d d d d d S S S S S G K K Q ( ( ( [ [ ) ) ] ] -.-.6.6.2.6.6.6.2.e.2.e.e.e., ",
"1.1.1.1.1.0.0.0.w.w.w.q.q.q.q.q.r.r.r.r.&X&X*X*X*X*X*X>X>X>X>X>X>X>X>X>X>X>X:X:X>X>X>X>X>X>X>X>X:X:X>X>X>X>X-X-X=X&Xy.y.u.u.u.u.u.u.i.i.i.i.i.i.i.i.i.i.i.i.i.&X&X&X&X&X=X=X=X=X;X;X;X;XqXqXqXqXwXwXwXeXeXeXeXwX0XaXyXyXyXyXuX).jXzXFXGXGXFXZXZXkXzXZXZXVXBXmXMXVXVXmXMXMXXXXXMXMXMXMXXXMXMXMXmXmXmXmXmXmXMXMXMXMXMXMXMXMXMXMXMXmXNXNXNXmXmXmXmXmXmXmXMXoXXXXXXXXX}..X.X.X.XXXXXXX[.[.[.[.{.{.].'.'.'.`.`.U.U.B.U.U.U.U.U.U.U.U.J.J.J.J.J.N.N.N.N.m.N.m.#.#.o.o...<.4.4.4.3.<.X.' X.' ' ' ' [ [ [ [ ( ( ( ( ( ( ( ( ( ( [ [ [ [ ( ( ( ( ( ( ( ( Q Q R R R R G G G G S S A A A A 0 d 0 0 0 0 0 0 9 q q q q q q 0 d d d d d d f f S S S G K K K Q ( ( ( [ ) ) ] ] -.-.-.-.:.6.2.6.<.e.2.e.e.e., ",
"1.1.1.1.0.w.w.w.w.w.q.q.q.r.r.r.r.r.r.&X*X*X*X*X*X*X>X:X>X>X>X>X>X>X>X>X>X>X:X:X>X>X>X>X>X>X>X>X>X:X>X>X>X>X>X-X=X&Xy.y.u.u.u.u.u.u.i.i.i.i.i.i.i.i.i.i.i.i.i.i.%X&X&X&X=X=X=X=X=X=X;X;XqXqXqXqXwXeXwXeXeXeXeXwXrXaXaXyXyXyXuXuXzXZXGXGXGXFXZXZXkXkXVXMXMXMXMXMXmXmXMXXXXXXXMXMXmXmXMXMXmXmXVXmXmXmXmXmXmXmXMXMXmXmXmXmXmXmXmXmXNXNXNXNXNXNXNXmXmXmXmXmXMXoXoXXXXXXXXXXXXXXXXXXXXX}.}.}.[.{.].'.`.`.`.`.U.B.B.B.U.C.U.U.U.U.U.U.J.J.J.J.J.N.N.N.m.N.N.m.@.#.#.o...<.4.4.4.3.<.X.X.' ' ' ' ' [ [ [ ( ( ( ( ( ( ( ( ( ( ( ( ( ( ( ( ( ( ( ( ( ( ( Q R R R R G G G G G S S A A A A d 0 0 0 0 0 0 q q q q q 9 q q 0 0 d s d d d d d S S S D G K K Q ( ( ( [ ) ) ) ] -.-.-.-.-.:.2.2.:.e.<.0.e.0., ",
"1.1.1.0.w.w.q.q.q.q.q.q.q.r.r.r.i.&X&X&X*X*X*X>X>X>X:X:X>X>X>X>X>X>X>X>X>X>X:X:X>X>X>X>X<X<X<X<X:X:X:X:X>X>X>X-X=X&X=Xy.y.u.u.u.u.u.i.i.i.i.i.i.i.i.i.i.i.i.i.i.y.&X&X&X=X=X=X=X=X=X;X;X;XqXqXqXwXeXeXeXeXeXeXwXrXaXyXyXyXuXlXlXZXFXGXFXZXZXzXkXkXkX}.}.}.kXMXMXXXXXXXXXXXXXXXMXmXmXmXmXmXmXVXVXmXmXmXmXmXmXMXMXmXmXmXmXNXNXNXNXmXmXNXNXNXmXmXmXmXmXmXmXmXmXMXoXMXXXXXXXXX.XXX.X}.XXXX}.[.{.].`.`.`.`.`.C.B.B.B.C.C.U.U.U.U.U.J.B.B.J.J.J.B.N.N.N.N.N.N.@.#.o.#.O.<.4.4.6.3.<.<.' ' ' ' ' ' ' [ [ ( ( ( ( ( ( ( ( ( ( ( ( ( ( ( ( ( ( ( ( ( ( ( R R R R R G G G G F S S A A A A 0 0 0 0 0 0 q q w w w w 9 q q q q 9 s d d d d d A S S G G K K Q ( ( ( ( [ ) ) ) -.-.-.-.:.-.:.:.:.e.<.0.e.2.< ",
"1.1.0.0.w.q.q.q.q.q.q.q.r.r.r.r.&X&X&X&X*X*X>X>X>X>X:X>X>X>X:X<X>X<X<X<X<X<X<X<X<X<X<X<X<X<X<X<X<X:X>X:X>X>X>X>X=X=X=Xy.u.u.u.y.u.i.i.i.i.i.i.i.i.i.i.i.i.i.i.i.y.%X&X&X=X=X&X=X=X=X=X;X;XqX;XqXwXwXeXwXeXeXeXwXaXyXyXyXyXdXlXzXZXFXFXZXkXkXkX|.].].].].].{.}.}.}.}.}.}.}.XXXXXXmXmXMXMXMXMXmXmXVXVXmXmXmXmXmXmXmXmXmXNXNXNXNXNXmXmXmXmXmXMXMXMXmXmXmXmXmXmXmXmXVXVXMXXXXX}.[.[.}.}.}.}.}.{.].`.U.`.`.U.C.B.C.U.C.C.C.C.C.C.C.B.B.B.B.B.B.B.N.N.N.N.N.N.@.#.#.#.O.<.4.4.4.3.3.<.' ' ' ' ' ( ( ( ( ( ( ( R ( ( ( ( ( ( ( ( ( ( ( ( ( ( ( Q ( ( ( R R R R G G G G G H S S A A A A 0 0 0 0 0 0 q q w w w w q q q q q q d d d d d d A S S D G K Q ( ( ( ( ( ( ) ) ) -.-.-.-.-.;.:.:.;.e.;.2.2.2.< ",
"0.w.w.q.q.q.q.r.r.r.r.i.&X&X&X&X>X*X>X>X>X>X>X>X<X<X<X<X<X<X<X<X<X<X<X<X<X<X<X<X<X<X<X<X<X<X<X<X<X<X<X:X>X:X>X=X=X=X=X=Xu.u.y.y.i.i.i.i.i.i.i.i.i.i.i.i.i.i.i.i.i.y.i.i.&X=X&X=X=X=X;X:X:XqXqXqXqXqXwXwXeXeXwXqXaXyXyXhXdXlXlXlXzXkXjX].]._._.].J.J.J.J.J.U.].{.'.'.'.'.[.}.XXXXXXXXoXoXMXmXmXmXCXVXVXmXmXmXmXmXMXmXmXMXMXMXMXMXmXoXoXoXMXMXMXmXMXMXmXmXmXoXoXoXVXmXMXMX}.}.kXMX}.MXMX}.}.{.{.`.`.U.C.C.U.U.U.C.U.C.C.C.U.C.C.C.B.B.B.B.B.B.B.N.N.N.N.N.@.#.#.#.O.4.4.4.3.3.<.<.X.X.' ' ( ( ( ( [ ( ( / / ( ( ( ( ( / / / / / ( ( Q Q Q Q Q R R R R R R R G R G D D D D A d d d 0 0 0 q q q q q q q q w w q q q 0 q 0 0 0 d d d A A S D D G R R ( ( ( ( ( ) ) [ ] ;.;.;.;.;.;.,.2.<.;.0.2.2., ",
"w.w.w.q.q.q.r.r.r.r.*X*X&X&X&X>X>X>X>X>X>X>X>X:X<X<X<X<X<X<X<X,X<X<X<X<X<X1X1X1X1X1X<X<X1X<X<X<X<X<X:X:X>X>X=X=X=X=X=X=Xu.y.u.y.i.i.i.i.i.i.i.i.r.r.r.r.r.r.r.r.i.i.i.i.&X&X&X&X=X=X;X;X:XqXqXqXqXqXwXwXwXwXwXqXqXyXyXhXiXlXlXlX|._.H.N.m.m.m.N.A.A.A.N.N.N.J.J.`.`.`.'.'.[..XXXXXXX.XoXoXoXoXoXoXoXXXXXXXXXXXXXXXMXMXXXXXXXXXXXXX}.}.}.}.}.}.}.kX}.}.}.XXXXoXXXMXMXkX}.}.}.kXMX}.MXMX}.}.}.{.'.`.U.U.U.U.U.U.C.U.C.C.C.C.C.C.C.B.B.B.B.B.B.N.N.N.N.N.N.@.#.#.#.O.+.4.4.4.3.<.<.X.X.X.' ( _ ( ( ( ( ( / / / ( ( ( ( / / / / R R ( K Q Q Q Q R R R R R R R R R R D D D D A d d d 0 0 0 q q q q q q q q q w q q q 0 0 0 0 0 d d d A A D D D G R R R R ( ( ( [ ( [ [ =.=.-.;.;.;.;.2.2.;.0.1.2., ",
"w.q.q.q.q.r.r.r.&X&X*X&X&X&X&X>X>X>X>X>X>X>X>X>X<X<X<X<X<X,X,X,X<X<X<X<X1X1X1X1X1X1X<X<X1X<X<X<X<X<X:X:X>X>X=X=X=X=X=X=Xu.u.y.y.i.i.i.i.i.i.i.i.r.r.r.r.r.r.r.r.i.i.i.i.i.&X&X&X=X=X;X;X:X:XqXqXqXqXwXwXwXwXwXqXqXyXyXhXiXiXiXuXH.@.~ E k k k ~ ~ ^ ~ ~ ^ ^ m.m.B.B.C.`.`.'.'.[.[.}..XoXoXoXoXoXoXoXoXXXXXXXXXXXXXXXXXXXXXXXXX}.}.}.}.}.}.}.{.{.].].].`.`.`.'.{.].].`.`.].{.}.kX}.}.MXkX}.}.}.{.'.`.U.U.`.U.U.C.U.U.U.C.C.C.C.C.B.B.B.B.B.B.N.N.N.N.N.N.@.#.#.o.O.+.4.4.4.<.<.<.,.X.X.' ' _ ( ( [ ( ( / / / / ( ( / / / R R R R G K K K G G R R G G R R G G R R D D D D A d d d 0 0 0 9 q q q q q q q q q q q q q q 0 0 0 d d d A A D D D G G R G G R ( ( ( ( ( [ [ =.=.;.;.;.;.2.2.;.2.1.2., ",
"q.q.q.q.r.r.r.i.&X&X&X&X&X*X*X>X>X>X>X>X>X>X>X<X<X<X<X<X,X,X1X1X1X1X1X1X1X1X1X1X1X1X<X<X1X<X<X<X<X<X:X>X>X>X=X=X=X=X=Xy.u.u.u.y.i.i.i.i.i.i.i.i.r.r.r.r.r.r.r.r.i.i.i.i.i.i.&X&X=X=X=X;X;X:XqXqXqXqXwXwXwXwXwXqXqXyXyXhXuX).K.D.#.~ g 7 7 3 3 7 3 3 7 7 8 q k k ^ b.b.B.B.C.U.`.'.[.[..X.X.X.X.X[.[.[.[.[.[.[.[.[.[.[.[.{.{.{.'.].].].].U.U.U.U.J.I.m.m.b.m.b.n.b.b.b.M.J.`.{.}.{.}.MX}.}.}.}.{.'.'.`.U.`.U.U.C.U.U.C.C.C.C.C.C.B.B.B.B.B.B.N.N.N.N.N.m.@.#.#.o.O.+.4.4.4.<.<.<.,.,.X.' ( ( ( ( [ ( ( / / / / / / R / / R R R R G K K K G G G G G G G G G G R G H H D D A d d 0 0 0 0 q q q q q q q q q q q q q q q q 0 0 0 d d d A D D D G G R G R R ( ( ( ( ( [ [ [ =.=.-.=.;.,.2.;.2.1.1., ",
"q.q.q.r.r.i.&X&X&X&X&X&X>X>X>X>X>X>X<X<X<X<X,X2X<X1X1X1X1X1X1X1X1X1X1X1X1X1X1X1X1X1X<X<X<X<X<X<X<X>X>X>X>X>X=X=X=X=Xy.y.y.u.u.y.i.i.i.i.i.i.i.i.r.r.r.r.r.r.r.r.i.i.i.i.i.i.&X&X=X=X=X;X;X:X:X:X:X0X0XwXrXrXrXqXaXaXyXhX(.L.A.5.~ g 7 = = & # # # # # # & & 3 7 8 k l ^ b.n.J.U.U.`.'.'.'.'.'.'.'.'.'.'.'.'.'.'.'.'.`.U.U.U.C.B.N.A.m.m.m.{ { } W E y q q q q q k k z ^ b.B.U.].{.}.}.}.}.XX}.{.[.'.'.U.U.U.U.U.U.U.U.U.C.C.C.C.B.B.B.B.B.B.N.N.N.N.N.m.@.#.o.o.O.+.4.4.4.<.<.<.,.,.X.' ' ( _ [ [ [ ( / ( / / ( ( ( ( R R R R G G K K K G G G G G G G G G G G G H H D D A d d d 0 0 0 0 q q q q q q q q w w q q q q q q 0 0 d d d A D D D D G G R R ( ( ( ( ( [ [ [ ' ' =.=.=.=.;.2.=.2.;.1., ",
"q.r.r.i.i.&X&X&X&X&X&X>X>X>X>X>X<X<X<X<X,X<X2X2X1X1X1X1X1X1X1X1X1X1X1X1X1X1X1X1X1X1X<X<X<X<X<X<X<X>X>X>X>X>X=X=X=Xy.=Xy.u.u.u.u.i.i.i.i.i.i.i.i.r.r.r.r.r.r.r.r.i.i.i.i.i.i.&X&X=X=X=X;X;X:X:X:X:X0X0XwXrXrXrXqXaXaXyXyX(.D.5.{ R a > = % # X X X X X X X X @ # - 3 8 8 z ^ m.B.B.C.`.'.'.'.'.'.'.'.'.'.'.'.'.U.U.U.C.C.M.n.x.^ E E k q w w w 3 & & & & & & & & 4 8 8 k z x.M.J.].{.}.}.}.XX}.}.[.'.'.U.U.U.U.U.U.U.U.U.U.C.C.C.B.B.B.B.B.B.N.N.N.N.m.m.@.#.%.o.O.+.4.4.4.<.3.<.,.,.' ' ' ' ( [ [ [ ( / / / / ( R R R R R I I G G G G G G G G G G G G G G G G G H H D D A d d d 0 0 q 0 0 q q q q q q q w w w q q q q q 9 0 0 0 d d D D D D G G R R ( ( ( ( ( [ [ [ ' ' =.=.;.=.=.2.=.2.;.1.< ",
"r.r.i.&X&X&X&X&X&X&X>X>X>X>X>X>X<X<X<X<X2X2X2X2X1X1X1X1X1X1X1X1X1X1X1X1X1X1X1X1X1X1X1X<X<X<X<X<X<X>X>X>X>X=X=X=X=X=X=Xy.u.u.u.i.i.i.i.i.i.i.i.i.r.r.r.r.r.r.r.e.i.i.i.i.i.i.i.i.&X=X=X=X:X:X:X:X:X0XwXwXrXrXrXqXyXyXhXhX(.8.{ Q d 7 * # # X X X X X X X     X X @ @ & & 3 8 z x.b.M.C.`.C.C.`.'.C.`.`.'.`.`.C.C.C.B.M.n.x.l z i 3 3 & & # @ @ @ @ @ X X X @ @ @ $ 3 3 4 8 k ^ m.B.U.`.'.{.}.}.[.{.'.'.U.U.U.U.U.`.U.U.U.U.U.C.C.B.B.B.B.B.B.N.N.N.m.m.m.#.%.%.%.o.+.4.4.4.<.<.<.,.,.=.' ' ' [ [ [ ( ( ( ( ( ( ( R R R R G I I G G G G G G G G G G G G G G G G G D D D D A d d d 0 0 0 0 q q q q w w w w w w w w 9 9 q 9 q q q q d d A D D D G G R R R R R ( ( ( [ [ [ ' =.=.=.=.=.,.=.2.;.1., ",
"r.r.i.&X&X&X>X>X&X&X>X>X>X>X>X>X<X<X<X<X2X2X2X2X1X1X1X1X1X1X1X1X1X1X1X1X1X1X1X1X1X1X1X<X<X<X<X<X>X>X>X>X>X=X=X=X=X=Xy.y.u.u.u.i.i.i.i.i.i.i.i.i.r.r.r.r.r.r.r.e.i.i.i.i.i.i.i.i.&X=X=X=X:X:X:X:X0X0XwXwXrXrXqXqXyXyXhXhXL.4.Q d 7 * X X X         X X X       X   X @ @ @ & 8 k l b.M.C.C.C.C.C.C.C.C.C.C.C.C.B.n.b.k.l l i 4 3 $ # @ @ X X X X X X X X X X X X @ $ $ 3 3 8 z b.b.M.B.U.`.{.{.{.'.'.'.`.U.U.U.U.`.`.`.U.U.U.C.C.B.B.B.B.B.B.N.N.N.m.m.m.#.%.%.%.o.+.+.4.+.<.<.<.,.,.,.' ' ' ' [ [ ( ( ( ( ( ( ( R R R G I I I G G G G G G G G G G H G G G G G G D D D D A d d d 0 0 0 0 0 q q q w w w w w w w w 9 9 9 9 q q q 0 d d A D D D G G G G G R R R ( ( [ [ [ ' =.=.=.=.=.,.=.2.=.1., ",
"y.y.&X&X&X&X&X>X>X>X>X>X;X;X>X<X<X2X2X2X1X1X1X1X1X1X1X1X1X1X1X1X1X1X1X1X1X1X1X1X1X1X1X1X1X1X2X2X<X;X;X;X>X>X=X=X=X=X=Xy.y.i.i.i.i.i.i.i.i.i.i.i.e.e.e.e.e.e.e.e.e.e.e.r.i.i.i.i.&X&X=X-X-X:XqX0XqXqX0X0XqXwXrXqXqXyXhXhXK.O.d = % X X X o % % % : * % % X         X X X @ @ $ 3 8 z x.b.b.n.n.V.n.n.n.V.B.M.n.b.x.l x 5 5 4 2 $ $ @ @ @ X X X @ # # & & & & = = $ $ $ $ $ 4 8 z l b.n.n.B.`.[.'.'.{.{.'.'.'.'.'.'.'.`.U.U.U.C.C.J.J.B.N.N.M.N.N.N.m.m.m.%.%.^ %.o.+.+.+.+.X.<.<.,.,.X.' ' ' ' ] [ [ [ ( ( ( ( ( ( U G G I G G G G F G G G G G G H H H H G G G G D D A A A d d d 0 0 0 0 0 9 9 q w w w w w w w q q q q q q q q 0 0 d A D D D D D G G R R ( ( ( ( ( U [ ' ' ' =.=.=.,.=.2.,.,., ",
"y.y.&X&X&X&X&X>X>X>X>X>X;X>X>X<X<X2X2X1X1X1X1X1X1X1X1X1X1X1X1X1X1X1X1X1X1X1X1X1X1X1X1X1X1X1X2X2X;X;X;X;X>X>X=X=X=X=Xi.y.y.i.i.i.i.i.i.i.i.i.i.i.e.e.e.e.e.e.e.e.e.e.e.i.i.i.i.i.&X*X=X-X-X:XqX0XqXqX0X0XqXqXqXqXaXyXhXiX(.` 7 = X # : 9 G ` 4.4.<.] [ G 9 ; o         X X X @ $ 4 8 z l k.x.n.n.n.n.b.b.n.b.k.k.l l x 5 5 4 2 2 $ @ @ @ @ $ 3 7 g E ) @.m.@.@.@.^ ^ k 8 8 4 8 8 z l b.M.B.C.'.'.'.'.'.'.`.`.'.'.'.`.`.U.U.U.C.C.J.J.B.N.M.m.N.N.N.N.N.m.m.%.%.%.o.+.+.4.4.X.X.X.,.,.X.' ' ' ' ' [ [ [ ( ( ( ( ( / ( G G I G G G G F G G G G G G H H H H H H H H H D A A A d d d 0 0 0 0 0 9 9 q w w w w w w w q q q q q q q q q 0 d A D D D D D G G R R ( ( ( ( ( ( [ ' ' ' =.=.=.,.=.2.,.,., ",
"&X&X&X&X&X&X&X>X>X>X>X>X;X>X>X<X<X2X,X,X1X1X1X1X1X1X1X1X1X1X1X1X1XeXeXeXeXeXeXeXeXeX1X1X1X1X,X,X;X;X;X>X=X=X=X=X&Xi.i.i.i.i.i.i.i.i.i.i.i.i.i.i.e.r.e.e.r.r.r.e.e.r.e.i.i.i.i.i.i.p.*X*X-X:X:XqXqXqXqX0XqXqXqXqXaXyXhXiX(.Q 7 = = R G.jXlXlXuX(.uX(.L.L.6.] b : % X     X X @ @ $ 3 4 8 x z k.k.k.k.k.l k.l z z z x x 5 4 4 2 2 2 $ 3 3 4 k ^ #.H.P.].jXlXlXjXjX|.].J.m.^ z z k z l b.M.B.B.C.`.'.'.'.'.'.'.'.'.'.'.`.U.U.U.U.U.J.J.J.N.N.N.N.N.N.m.m.m.%.^ ^ %.o.+.4.4.4.<.<.X.,.,.,.=.=.' ' ' [ [ [ ( [ ( ( ( / ( G G G G G G F F F F F F F F F F H H H H F S H S A A A d d d d d 0 0 0 0 9 q q q w q w w w w q q q q q q q q 0 d A D H D G G G G R R ( ( ( ( ( ( [ ' ' ' =.=.=.,.=.2.,.1., ",
"&X&X&X&X&X&X&X>X>X>X>X;X>X>X>X<X<X<X,X1X1X1X1X1X1X1X1X1X1X1XeX1XeXeXeXeXeXeXeXeXeXeX1X1X,X,X,X,X;X;X;X>X=X=X=X=X&X&Xi.i.i.i.i.i.i.i.i.i.i.i.i.i.e.e.e.e.r.r.r.r.e.r.e.i.i.i.i.i.i.i.*X*X=X:X:X:X0XqXqX0XqXqXqXqXaXyXyXiXK.Q 7 7 o.).zXzXjX).D.4.8.8.6.6.6.t.<.I < % X   X X X @ @ @ $ 3 4 x z z l z z z z z x x x x i 5 5 5 4 4 4 4 8 x z b.A.P.].jXjXjXjXjXjXjXkXjX].].J.J.N.m.x.x.b.n.n.n.M.`.`.'.'.'.`.'.'.{.'.'.`.`.U.U.U.U.J.J.J.N.N.m.N.N.N.m.m.b.%.^ ^ %.o.+.+.4.4.<.3.3.,.,.,.=.=.' ' ' [ [ [ [ ( ( ( ( / / G G G G G G F F F F F F F F S S A H H H A A A S A A A d d d d d d 0 0 0 9 9 q q q q w w w q q q q q q q q q 0 d A D H D G G G G R R ( ( ( ( ( ( ' ' ' ' =.=.,.,.=.2.,.1., ",
"&X&X&X%X&X>X>X>X>X>X>X;X,X,X,X<X<X,X<X<X,X1X1X1X1X1X1X1XeXeXeX1X1X1XeXeXeXeXeXeXeXeX1X1X,X,X,X,X;X;X;X;X=X=X&X&X&Xi.i.i.i.i.i.i.i.i.i.i.i.i.e.e.e.e.e.e.r.r.r.e.e.i.i.i.i.i.i.i.i.i.&X&X-X-X-X-X0X0XqXqXqXqXqXqXaXqXyXhXL._ g R H.K.G.#.~ K G D d A A A F U U H < % X   X X X X @ @ $ 3 4 x z z k.k.l z z z x x x x 5 5 5 5 5 4 5 5 x z ^ m.I.J.].].].].].|.|.jXjXjX|.|.|.].`.J.M.b.b.n.n.M.C.'.'.'.'.'.'.'.{.[.'.'.'.`.U.U.U.U.J.J.N.N.N.N.N.N.N.N.m.m.%.^ ^ %.o.+.+.....X.3.3.<.,.,.=.=.' ' ' [ [ [ [ [ ( ( ( U U G G G G G F F F F F F F F F F F H H H H H A S S S S A A d d d d d 0 0 0 9 9 q q 7 7 7 7 q q q q q q q q q q 0 d A D D D G G G G R ( ( ( ( ( ( ( ( ' ' ' ' -.,.,.=.2.,.2., ",
"&X&X&X%X&X>X>X>X>X>X;X;X,X,X<X<X<X<X<X<X1X1X1X1XeXeXeXeXeXeXeXeX1X1XeXeXeXeXeXeXeXeX1X1X,X,X,X,X;X;X;X;X=X=X&X%Xi.i.i.i.i.i.i.i.i.i.i.i.i.e.e.e.e.e.e.e.r.r.r.e.e.i.i.i.i.i.i.i.i.i.&X&X-X-X-X-X0XqXqXqXqXqXqXqXyXyXyXhXL...` o.N.o.R q 7 = = * % * % % ; : : ; ; O X   X X X X @ @ @ 3 8 z x.b.n.n.n.n.k.k.z x l z i 5 5 5 5 4 5 5 i z l ^ ^ ^ m.m.m.I.J.J.J.J._.).].|.jX|.|.|.].`.B.M.n.M.C.C.`.'.'.'.'.'.{.[.'.'.'.`.U.U.U.U.J.J.N.N.N.N.N.N.N.m.%.%.^ ^ ^ %.o.+.+.....X.X.<.<.,.,.=.=.' ' ' ' [ [ [ [ ( ( ( U U G G I G G F F F F F F F F F F F H H H H H A S S S S A A d d d d d d 0 0 9 q q q 7 7 7 7 q q q q q q q q q q 0 d A D D D G G G G R ( ( ( ( ( ( ( ' ' ' ] ' -.,.,.=.2.,.2., ",
"&X&X&X%X&X>X>X>X>X>X;X;X<X<X<X<X<X<X<X<X,X,XeXeXeXeXeXeXeXeXeXeX1X1X1X1XeXeXeXeX1X1X1X1X,X,X,X<X;X;X;X;X=X=X%X%Xi.i.i.i.i.i.i.i.i.i.i.i.i.i.e.e.e.e.e.e.e.e.e.e.e.e.i.i.i.i.i.i.i.i.i.&X-X-X-X-X0XqXqXqXqXqXqXqXyXhXhXhXL.5.#.@.{ g 7 = * # X # % o X X o o O O O + + + X X X X @ @ $ 4 z n.U.'.'.'.[.'.`.C.n.k.k.k.l x 5 5 5 5 5 5 5 8 i i 8 8 8 8 w 8 q q g g E ~ { #.N.J.`.].{.{.'.C.B.M.B.B.`.`.'.'.'.'.{.[.'.'.'.'.`.U.U.U.J.J.J.N.N.N.N.N.m.%.%.^ ^ z ^ %.$.7.7.7.4.4.X.<.<.,.,.=.=.=.' ' ' ' [ [ [ [ [ [ U U G G I G G F F F F F F F F F H H F F H H H H S S S S d d d d d d d d 0 0 0 q q q 7 7 q q q q q q q q q q q q 0 d A D D D D G G G R ( ( ( ( ( ( ' ' ' ' ] -.-.,.,.,.2.,.2., ",
"&X&X&X%X&X>X>X>X>X;X;X,X,X2X2X,X,X<X1X<X1XeXeXeX1XeXeXeXeXeXeXeX1X1X1X1X1XeX1X1X1X1X1X1X,X,X,X<X;X;X;X;X;X=X%X%X&Xy.i.i.i.i.i.i.i.i.i.i.i.i.e.e.e.e.e.e.e.e.e.e.r.i.r.i.i.i.i.i.i.i.&X&X-X-X:X-X0XqXqXqXqXqXqXqXyXhXiXuXK.5.@.@.k 3 # @ X X % 7 : o           o X X + o X X X X X X $ 8 ^ J.}.mXVXCXCXCXoX[.C.C.n.b.k.z 5 5 5 5 5 4 4 3 3 2 & & 3 & @ @ @ @ # # & * = 3 7 g ^ %.J.'.{.`.C.C.C.C.U.`.`.`.'.'.{.[.{.'.'.'.`.U.U.U.J.J.J.N.N.N.N.N.N.m.b.%.^ ^ ^ m.G./././.F.9.4.X.<.,.,.=.=.' ' ' ' ' ' [ [ [ [ ( U U U G G G F F F F F F F F F F F H H F H H H H S S S S A d d d d d d d 0 0 0 9 q q 7 7 q q q q q q q q q q q q 0 d A D D D D G G G R ( ( ( ( ( ( ' ' ' ' -.<.<.,.,.=.2.1.2., ",
"y.y.y.%X&X;X;X;X;X,X,X,X,X1X1X1X1X1XeXeXeXeXeXeXeXeXeXeXeXeXeXeXeX1X1X1X1X1X1X1X1X1X<X,X,X<X,X,X,X;X;X;X;X>X>X&X&X&X&Xi.i.i.i.i.r.i.r.r.r.r.r.e.e.e.r.r.r.e.e.e.e.e.r.r.r.p.i.i.&X&X&X&X=X-X-X-X0X0X0X0XpXpXpXyXyXdXiXuX/.G.#.~ 8 @ X @ @ 3 R ) d %     X       X % ; % % % & # @ @ $ 8 m.U.{.mXNXNXCXCXCXmXoX.XU.C.n.k.i 5 5 5 5 4 3 3 2 2 w E } q & @ @ X X @ X     X @ @ & 8 z b.J.`.`.C.C.C.U.Y.'.'.'.'.{.}.{.{.'.'.`.Y.U.U.U.J.J.J.N.N.M.m.N.N.N.B.J.J.J.J.J.|.jXjX).K.5.....X.] ' ' ' ' ' ' ' ' ' ( ( ( ( U U U K K G F F F F F S F S F S A S F F F H H H H F F S A A A A d d d d d d 0 0 q q q q q q q q q q q q q q q q 0 0 d A D D R G G R R R ( ( ( ( [ ' ' ' =.;.=.=.;.0.2.2.2.2., ",
"y.y.y.%X&X;X;X;X,X,X,X,X1X1XeXeX1X1XeXeXeXeXeXeXeXeXeXeXeXeXeXeXeXeX1X1X1X1X1X1X1X1X<X<X<X<X,X,X,X,X,X;X>X>X>X&X&X&X&X&X&Xi.i.i.r.r.r.r.r.q.q.e.e.e.e.e.e.e.e.e.e.r.r.t.r.p.i.&X&X&X>X>X=X>X>X:X0X0X0X0XyXyXyXyXyXdXiXiX).G.@.~ 3 @ & 3 w g { O.R : X         X @ w R 0 = # = w 3 & 3 z M.`.[.MXmXNXNXNXmXoXoX.X'.Y.C.n.l i 5 5 4 3 2 2 3 q { P.I.E = @ X X X X X X X & & # @ $ 3 8 l n.M.Z.C.C.U.'.{.[.{.{.[.}.[.{.{.'.'.`.`.`.U.J.J.J.B.N.N.N.B.J.J.U.].{.{.].].].jXjXjX).K.5.....] ' ' ' ' ' ' ' ' ' ( U U ( U U L L L L S F F F F S S S S S S S A F S S H H F F F S A A A A d d d d d d d 0 q q q q q q q q q q q q q q q q 0 0 d A D H G R G R R R ( ( ( ( [ ' ' ' =.;.;.;.;.0.;.0.2.2., ",
"y.y.&X%X&X;X;X;X,X,X,X,X1X1XeXeX1X1XeXeXeXeXeXeXeXeXeXeXeXeX1X1XeXeXeXeXeXeXeXeXeX1X1X<X<X<X<X,X,X,X;X>X>X>X>X&X&X&X&X&X&X&Xi.i.r.r.r.e.q.q.e.q.e.e.e.q.e.e.e.e.e.e.r.r.r.p.r.i.&X*X>X*X-X>X>X>X:X:X:X:XyXyXyXyXyXdXlXjXuX).A.^ q q E { { { #.#.{ 0 * X       X = / I.{ w & w g E q y b.U.}.XXMXmXoXoXoXoXoXoX.X'.'.Y.C.b.l i 5 2 3 3 4 y x.P.8XuX} = @ X @ X X X X = q d 7 & $ @ $ 4 i l x.M.C.Y.'.[.[.[.[.[.}.[.[.{.'.'.'.`.`.U.J.J.J.B.B.J.J.J.U.U.].{.{.].].`.`.].].].jXP.A.O...` ` ' ' ' ' ' ' ' ' ( U U U U U L K L F S S F F S S S S S S A A A A S S S F F F F S A A A A A A d d d d d d 0 0 q q q 9 q q 9 9 9 q q q 0 0 0 0 0 d D D H G R R R ( ( ( ( ( ' ' ' ' =.=.;.;.;.0.1.2.0.2., ",
"y.y.&X%X;X;X;X;X<X<X,X,X1X1XeXeX1XeXeXeXeXeXeXeXeXeXeXeXeXeX1X1XeXeXeXeX1X1XeXeX1X1X1X<X<X<X<X,X,X;X;X>X>X%X>X&X&X&X&X&X&X&Xi.i.r.r.r.q.r.q.e.e.e.e.e.e.e.e.e.e.e.r.r.r.r.p.p.p.*X*X*X*X-X>X>X:X>X:X:X:X:X:X5X5X5XdXlXlXjXuXP.m.I.I.I.J.I.m.{ { m.~ q = # @ % : ~ A.P.I.E q k E { ^ ^ J.kXMXMXmXNXmXoXoX.X.X.X.X[.[..X'.C.b.l i i l l l x.J.P.P.lXm.w @ X X X X   # w { @.^ k 8 3 3 3 4 i k.n.C.'.{.[.XX}.}.[.[.[.[.{.{.{.'.'.`.U.U.J.J.J.J.J.J.U.U.U.U.U.U.U.U.U.U.J.J.].].G.A.O...] ` ' ' ' ' ' ' ' ' ( ( U U U U U L L F S S F F F F S S S S S A A A F F S F F F F S A A A A A A A A d d d d 0 0 0 0 q q q q q q q q q 0 0 0 0 0 0 d D D D G R R R ( ( ( ( ( ' ' ' ' =.;.;.;.;.0.1.2.0.2., ",
"&X&X%X%X>X;X;X;X,X,X,X1X1X1XeXeXeXeXeXeXeXeXeXeXeXeXeXeXeXeX1X1XeXeXeX1X1X1XeXeX1X,X,X,X<X,X,X;X>X>X>X>X>X&X&X&X&X&X&X&Xi.i.r.i.i.r.r.r.r.e.e.e.e.e.e.e.e.e.e.e.r.r.r.r.r.p.*X*X&X&X*X*X>X>X>X>X-X-X-X>X>X:X5X5X5XdXlXlXlXlXjX).].P.J.I.I.A.m.m.A.m.{ E k k ^ m.P.).).P.H.A.m.m.m.m.M.{.MXmXMXmXNXoXoXoX.X.X.X'.'.[..X.X'.C.x.l n.M.M.n.M.T.{.kXlXP.} w @ X X @ & 7 ~ A.I.m.{ ^ z k k x l x.M.C.{.{.}.}.XX}.[.[.}.[.[.{.{.'.'.'.`.U.J.J.J.J.J.U.U.U.U.U.U.J.C.B.n.M.M.B.J.P.P.A.O.O.] ` ' ' ' ' ' ' ' ' ' ' U U U U U K L L F S F F F F F F F F F F F F F F F F F F F F A A A A A A A A d A A A d d 0 0 0 0 0 0 0 q q 0 0 0 0 0 0 d d A D H D G R R ( ( ( ( [ ( ' ' ' ' ;.;.;.2.;.0.1.2.0.2., ",
"&X&X%X>X>X;X;X;X<X,X,X1X1XeXeXeXeXeXeXeXeXeXeXeXeXeXeXeXeXeX1X1XeXeX1X1X1X1X1X1X,X,X,X2X,X,X;X;X>X>X>X%X&X&X&X&X&X&Xi.i.y.y.r.r.r.r.r.q.e.e.e.q.e.e.e.e.e.e.e.e.e.e.r.r.r.r.p.p.&X&X&X&X*X>X>X>X-X-X-X-X:X-X-X5XyXdXlXlXzXzXzXlXlXjXJ.A.I.A.m.I.m.m.m.m.^ x.m.J.J.J.J.J.I.N.m.m.x.m.U.MXBXBXMXMXmXoXoX.X.X.X'.Y.'.'..X.X[.Y.M.b.n.M.C.U.C.U.T.].kXlXP.x.q w 8 q ^ m.P.P.I.m.m.m.m.b.n.n.M.C.U.U.[.[.}.XXXXXX}.[.}.[.[.{.{.'.'.'.`.U.J.J.B.J.J.U.U.U.{.].J.b.l l u l l x.m.J.I.A.O.O...` ] ' ' ' ' ' ' ' ' ' ( ( U U U U K K F F F F F L F F F F F F F F F F F F F F F F F S S S A S A A D A A A d d d d 0 0 0 0 0 0 0 0 0 0 0 0 d d d D D D G G R R ( ( ( [ [ ( ' ' ' ' ;.;.2.2.;.0.1.2.0.2., ",
"&X&X%X>X>X;X,X,X,X,X,X,X1XeXeXeXeXeXeXeXpXeXeXeXeXeXeXeXeXeX1X1X1X1X1X1X1X1X1X1X,X,X,X,X;X;X>X>X>X>X>X>X&X%X&X&Xr.r.r.r.r.q.q.q.q.q.q.q.q.q.0.0.0.0.0.0.0.0.0.0.e.e.e.e.r.r.r.r.i.&X&X&X>X>X*X>X-X-X-X-X:X:X:X5XyXdXlXzXzXZXZXzXzXZXuXI.A.m.^ m.^ x.x.x.^ ^ x.x.x.^ x.b.b.b.x.x.b.J.MXZXCXBXMXMXmXoXoX.X.X.X'.'.'.'..X.X.X'.C.Z.x.n.n.M.C.M.M.M.U.T.T.J.m.m.I.J.P.].].P.I.m.m.M.J.J.U.`.'.'.{.{.XXXXXXXXXXXXXX}.}.[.[.{.'.'.'.'.].U.J.B.B.J.J.U.U.].'.U.b.l i 5 5 4 4 e W m.I.A.#.O.O...] ' ' =.' ' ' ' ' ' ' ( U U U U U U U U F F F F F F F F F F F F G G G G F F F F H H H H D D D A H D D D d d A d d d d d d d d d d d d d d d D D D D G G R ( ( ( ( [ ( [ ' ' ' ' ;.;.2.2.;.0.;.0.0.2., ",
"&X&X>X>X;X;X,X,X,X,X,X1XeXeXeXeXeXeXeXeXpXpXeXeXeXeXeXeXeXeX1X1X1X1X1X1X1X1X1X1X,X,X,X,X>X>X%X%X>X>X>X>X%X%X&X3Xr.r.q.q.q.q.q.q.q.q.0.0.0.0.0.0.0.0.0.0.0.0.0.0.0.0.e.e.e.e.t.r.r.i.&X&X&X>X>X*X-X-X-X-X:X:X-X5XyXdXlXzXzXFXZXZXkXZXkXJ.I.^ k ^ l l l l l l k.l l l ^ b.M.m.b.x.m.{.SXHXAXmXMXNXNXoXoX.X.X.X.X.X'.[..X.X.X'.Y.C.Z.n.x.x.c.x.x.x.n.M.J.B.J.U.U.J.J.P.J.J.N.N.B.J.`.`.{.{.[.}.XXMXMXMXXXXXXXXXXXXX[.[.{.{.'.'.'.'.].U.J.B.M.J.J.U.U.U.U.M.x.l i i 4 2 2 2 l m.J.I.#.O.O.] ] ] =.-.' ' ' ' ' ' ' ' ( ( U U U U U U U U U U I I K K F F F F G G G G G G G G G G G G H D D D H H D D D D A A d A d d d d d d d d d d d A D D D G G G R U ( ( ( ( ( ( ' ' ' ' ;.;.;.2.;.0.;.0.2.2., ",
">X>X>X>X;X,X,X,X,X,X1XeX1XeXeXeXeXeXeXeXeXeXeXeXeXeXeXeXeX1X1X1X1X2X2X2X2X2X,X,X,X,X,X>X>X>X>X>X>X>X>X>X%X3X&X&X&Xr.r.q.q.q.q.q.q.0.0.0.0.2.:.:.2.2.2.2.0.2.2.0.0.0.0.e.e.e.e.e.r.r.r.r.&X&X&X>X&X*X&X&X*X*X*X-XsXlXlXzXFXFXFXGXZXzXlXP.m.^ k k y l l l l k.x.x.x.b.n.B.B.M.M.m.B.kXHXHXSXmXMXmXmXoXoX.X.X.X.X'.Y.'..XoX.X[.'.'.Z.Z.n.x.k.x.x.x.x.x.x.x.b.n.M.M.m.m.b.b.b.B.U.`.{.{.}.MXMXMXmXmXmXMXMXMXMXMXXXXX[.{.{.{.{.'.`.U.].U.U.B.M.B.U.U.U.U.U.M.x.M.U.C.c.i 2 2 i c.I.A.#.O.O...-.<.<.-.=.=.=.' ' ' ' ' ' ' ( ( U U U U U U U U I I F F F F F F G G F F I I G G G G G G G G G G G G D D D D D D A d d d d d d d d d d d A D D H D G R R ( ( ( ( ( ( [ ' ' ' =.-.;.;.2.2.2.2.2.e.2.0., ",
">X>X>X>X;X,X,X,X,X,X1XeX1XeXeXeXeXeXeXeXeXeXeXeXeXeXeXeXeX1X1X1X1X2X2X2X2X,X,X,X,X,X,X,X>X>X>X>X>X>X>X>X%X3X&X3Xr.r.q.q.q.q.q.q.0.0.0.0.0.2.:.:.:.:.:.:.2.2.2.0.0.0.0.0.e.e.e.e.r.r.r.r.&X&X&X&X*X*X&X&X*X*X-X*XsXlXlXzXbXFXZXFXZXZXkX].I.x.W k y l l k.x.c.n.M.n.n.n.M.M.M.M.M.U.MXAXHXSXNXmXNXNXNXoX.X.X.X.X.X'.'..X.X.X.X[..X'.Y.C.Z.n.x.x.x.k.^ x.x.x.x.x.x.x.x.x.x.m.J.U.].{.}.}.MXmXmXmXmXmXMXMXMXMXMXXXXX[.{.{.'.'.'.`.U.U.J.B.B.M.B.U.J.U.U.U.U.B.U.{.'..XZ.k.5 i x.J.I.{ { { ..-.-.-.-.=.=.=.=.' ' ' ' ' ' ' ' ( ( U U U U U U U I I I U U U U U U U U I I I I G G G G G G G G G G G G H D D D D A A d d d d d D D A A D D D D D G R G ( ( ( ( ( ( ' ' ' ' =.-.;.;.2.2.2.2.2.e.2.0., ",
"3X3X>X>X,X,X,X2X,X,X1X1X1XeXeXeXeXeXeXeXeXeXeXeXeXeXeXeX1X1X1X1X2X2X2X2X2X,X,X,X,X,X,X,X,X;X>X>X>X>X>X>X&X3X3X3Xr.r.q.q.q.q.q.q.0.0.0.2.2.:.:.:.:.:.:.:.:.:.:.:.:.:.0.0.0.0.e.e.e.q.r.r.&X&X&X&X*X*X*X*X*X*X*X5XsXlXzXzXFXFXFXGXFXZXZXkX].J.m.x.x.x.x.c.M.B.C.C.C.B.B.M.B.J.U.U.{.BXAXHXSXCXmXmXNXNXoX.X.X.X.X.X.X.X.X.X'..X.XoXoX.X.X'.C.M.n.x.k.k.k.k.k.k.k.x.x.b.n.M.U.`.{.}.}.kXMXMXMXmXmXmXmXMXMXMXMXXXXX}.{.'.'.'.'.'.U.U.U.B.B.B.M.B.U.M.M.n.M.C.U.{.MXXXNXOXZ.u u n.J.I.{ { O.] ] <.-.;.-.=.=.=.=.' =.=.' ' ' ' ' ' ' ' U Y U U U U U U U U U U U U U U U U U U G G G U ( ( G G R G G G D D D H H H H D A A A A H H H H D H H D G R R R ( ( ( ( ( ( ' ' ' ' =.-.;.<.2.2.2.0.2.e.2.0., ",
"3X3X>X>X,X,X,X2X,X,X1X1X1X1XeXeXeXeXeXeXeXeXeXeXeXeXeXeX1X1X1X1X2X2X2X2X,X,X,X,X,X,X,X,X,X;X;X>X>X>X>X>X&X3X3X3Xr.r.q.w.w.0.w.0.0.0.2.2.2.:.;.;.;.;.;.;.;.;.:.:.:.:.:.:.2.2.0.0.w.w.e.r.r.r.&X&X*X*X&X*X*X*X*X*XsXlXzXzXFXGXGXGXFXZXZXzXkXjX].U.U.U.U.U.U.U.U.U.C.C.U.U.`.{.}.kXkXZXHXHXSXCXmXNXNXNXoX.X.X.X.XoX.X.X.X.X[..XoXoXoXoXoX.X'.Y.C.B.M.M.M.n.n.n.n.n.U.U.`.{.}.}.MXMXMXMXMXMXMXMXMXMXmXMXMXMXMXXXXX}.{.'.'.'.`.U.U.U.C.M.M.B.M.M.B.M.x.l k.x.n.U.[..X.XOXY.k.l M.J.A.{ { { ] <.-.-.;.;.;.-.-.=.=.=.=.=.' ' ' ' ' ' ' Y Y Y Y Y U U U Y Y Y Y Y Y [ [ U U U U ( ( ( U ( ( ( ( ( ( R R G G G G D H D H D H H D D D G D D D D G R R Q Q ( ( ( ( ( ' ' ' ' ' -.-.;.;.2.2.2.0.2.e.2.2., ",
"3X3X>X,X,X2X2X2X1X1X1X1XeXeXeXeXeXeXeXeXeXeXeXeXeXeX1X1X1X1X,X1X2X2X2X2X,X2X,X,X,X,X,X,X;X>X>X>X>X>X>X3X3X3X3X&Xr.r.w.w.0.0.2.0.2.2.2.:.;.;.;.;.;.;.;.;.;.;.;.;.;.;.:.:.:.:.:.0.0.q.w.w.r.r.&X&X*X*X&X&X*X*X*Xp.sXlXzXFXGXGXGXLXGXFXZXZXzXkXkXkXkX{.].`.T.U.U.U.U.`.'.}.kXMXkXkXkXAXHXHXCXmXmXNXNXNXoX.X.X.X.X.XoXoXoX.X.X.XoXoXoXoXoX.X[.[.'.'.'.'.'.'.{.{.[.[.XXMXMXmXmXmXVXVXMXmXMXMXMXMXMXMXmXmXMXMXMXMXXX}.{.'.'.`.Y.U.U.U.C.n.n.M.M.M.B.n.i 4 4 5 i x.C.Y.Y.oX[.c.k.M.J.m.{ { { { <.-.-.;.;.;.;.;.;.;.;.-.=.=.' ' ' ' ' ' ' Y Y Y Y Y Y Y Y Y Y Y Y Y Y [ [ [ [ [ [ ( ( [ ( ( ( ( ( ( ( ( R R G G R G G G H H H G G G G G G G G G Q Q Q ( ( ( ( ( ( ' ' ' ' ' -.-.2.<.2.2.0.0.2.e.2.2., ",
"3X3X3X,X,X,X2X2X,X1X1X1X1XeXeXeXeXeXeXeXeXeXeXeX1X1X1X1X1X,X,X,X2X2X2X2X2X2X,X,X,X,X,X>X%X%X%X%X>X>X3X3X3X3X3Xr.r.q.w.0.0.2.1.1.;.;.;.;.;.=.=.=.;.;.;.;.;.;.;.;.;.;.;.;.:.:.:.:.0.0.q.q.q.r.r.r.r.r.i.i.*X*X*Xp.sXlXbXFXGXGXGXIXLXGXFXZXzXzXkXkXkX{.].].].].T.U.{.}.MXVXVXMXkXkXMXAXPXHXCXMXmXNXNXNXoXoX.X.X.X.XoXoXoXoXoXoXoXoXoXoXoXoX.X.X[.[.[.[..XXXMXMXmXCXVXCXCXCXCXCXCXVXVXVXVXVXVXVXVXmXmXmXMXMXMXXXXX[.{.'.'.`.Y.U.U.C.B.n.n.M.M.B.C.M.5 2 2 2 4 i c.Z.Y..XY.x.l n.J.m.{ { { O.-.-.<.-.<.<.,.,.,.,.,.,.=.=.' ' ' ' X.X.' X.Y Y Y Y Y Y Y Y Y Y Y [ Y Y ' [ [ [ [ [ [ [ [ [ [ [ [ [ [ [ Q ( Q Q R R R R G G G G R R R R R R Q Q Q Q ( ( [ [ ( ( ' ' ' ] ' ] -.<.2.<.2.2.0.0.2.e.2.2., ",
"3X3X3X>X,X2X,X,X,X,X1X1XeXeXeXeXeXeXeXeXeXeXeXeX1X1X1X1X1X,X,X,X2X2X2X2X2X2X,X,X>X%X%X%X%X%X%X%X3X3X3X3X3X3X3Xr.w.w.w.1.;.;.;.;.;.;.;.;.=.=.=.=.=.=.;.;.;.;.;.;.;.;.;.;.;.;.:.:.0.0.0.q.w.q.q.r.r.r.r.r.*Xr.p.p.yXlXbXFXGXGXGXLXGXGXZXZXzXzXkXkXjXkXkXkXkXkXMXMXVXCXSXAXZXZXMXkXZXAXHXAXCXMXmXNXNXNXoXoXoXoXoX.XmXmXNXmXoXoXoXoXoXoXMXoXMXMXMXMX[..X.XXXMXmXCXCXCXCXCXCXCXCXCXCXCXCXVXVXVXVXVXVXmXmXMXMXMXXXXX[.{.{.'.`.U.U.C.B.M.c.c.M.M.U.U.C.i 2 2 2 4 5 k.Z.Z.Y.C.x.l b.J.N.{ { { <.-.-.-.-.<.<.<.<.<.,.,.,.<.<.<.<.<.<.<.,.,.,.,.' Y Y ' ' ' Y ' ' ' ' ' ' ' ' [ [ [ ' ' ' [ [ [ [ ) ) ) ) ( ( ( ( ( ( Q ( G G G G R R ( Q Q Q Q Q Q Q ( ( [ [ ( ( ' ' ' ] ] ] -.-.2.<.2.2.0.q.2.e.2.2., ",
"3X3X3X>X,X2X,X,X,X,X1X1X1XeXeXeXeXeXeXeXeXeXeXeXeX1X1X1X,X,X,X,X2X2X2X2X2X,X,X,X3X%X%X%X%X%X%X%X3X&X3X3X3Xr.w.q.w.w.0.1.;.;.;.;.;.;.;.=.=.=.=.=.=.;.;.;.;.;.;.;.;.;.;.;.;.;.;.;.:.0.0.0.w.e.r.r.r.r.r.r.r.r.r.r.yXlXzXzXFXGXGXGXFXZXzXzXZXZXzXkXkXkXkXMXMXZXZXAXAXAXHXGXGXZXZXVXZXAXAXSXVXmXmXNXNXNXNXNXNXoXoXoXNXNXNXoXoXoXNXNXmXmXNXCXCXCXNXNXMXMXMXMXmXCXCXCXAXSXCXCXCXCXCXCXCXVXVXVXVXmXmXmXmXmXMXMXMXMX}.[.[.{.'.'.U.U.C.B.M.x.x.n.M.U.Y.U.l 4 2 5 5 i k.n.Z.Y.Y.n.x.m.m.m.{ { O.<.<.-.-.<.<.<.<.<.<.<.,.,.<.<.,.,.<.<.<.<.,.,.,.,.=.' =.' ' ' ' ' ' ' ' ' =.' =.=.] ] ] ' [ [ [ [ ) ) ) ) [ [ [ ( ( ( ( ( ( ( ( ( ( ( ( ( Q Q Q Q Q ( ( ( [ ( ( [ ' ' ' ] -.-.;.;.<.<.2.2.0.0.0.e.2.2., ",
"3X3X3X3X3X2X2X2X2X2X2X1X1X1X1X1XeXeXeXeXeXeX1X1X1X1X1X,X,X,X2X2X2X2X2X,X,X,X,X3X%X%X%X%X%X%X%X3X3X&X3Xr.w.w.w.w.0.0.0.;.;.=.=.=.;.;.=.=.=.&.[ [ [ [ ;.=.;.;.;.;.;.;.;.;.;.;.;.;.:.:.0.0.e.e.e.e.q.q.r.r.r.r.t.t.uXlXzXzXZXZXZXGXZXzXzXzXzXkXkXkXkXMXZXZXZXZXAXHXGXGXGXGXGXZXZXZXGXGXZXBXMXNXCXCXNXNXNXCXCXNXmXmXNXNXNXmXmXmXmXNXoXoXNXmXNXNXNXCXNXNXNXNXNXNXNXVXCXCXCXCXCXCXCXVXVXVXVXmXVXVXVXVXmXmXmXmXMXXX}.[.[.'.'.`.U.C.M.M.b.b.n.M.B.U.{.[.x.x 5 i l k.k.c.n.Z.C.n.c.M.I.m.{ { { ] ] <.<.<.<.<.<.<.<.<.<.<.2.2.2.2.,.2.<.<.,.,.,.,.=.,.=.,.;.;.=.=.=.=.=.=.-.=.=.=.-.-.-.-.-.-.] ] ] ] ] ] ] [ [ [ [ [ [ [ [ [ [ [ ( ( ( ( ( ( _ Q _ _ ( ( ' ' ' ' ' ] ] -.;.;.;.:.<.<.<.2.0.r.0.e.r.r., ",
"3X3X3X3X3X>X2X2X2X2X2X1X1X1X1X1XeXeXeXeXeXeX1X1X1X1X1X,X,X2X2X2X2X,X,X,X,X%X3X%X3X3X%X%X%X%X3X3X&Xr.r.r.w.w.q.0.0.0.:.;.;.=.=.=.=.;.=.=.[ [ / I / [ [ [ [ [ [ [ ;.;.;.;.;.;.;.;.:.:.:.0.0.0.0.e.q.q.q.q.r.e.t.t.uXlXzXzXzXzXzXZXZXZXzXZXzXkXkXkXkXMXZXZXZXZXZXAXGXGXGXGXGXZXFXGXGXGXZXMXMXmXmXmXNXNXNXCXCXNXmXmXNXNXNXmXmXMXmXNXoXNXNXNXmXCXCXCXNXNXNXNXmXmXVXVXCXVXVXVXVXVXVXVXVXVXVXVXVXVXVXmXmXmXmXMXMXXX}.[.{.'.`.Y.U.B.M.M.b.b.M.B.U.`.[.XXn.l i i l l k.k.c.Z.Z.n.n.M.I.m.{ { { ] ..<.<.<.<.<.2.2.<.<.<.<.<.<.2.2.1.1.1.1.<.<.<.<.<.<.<.<.;.;.;.;.;.;.;.;.;.-.-.-.-.-.-.-.-.-.-.-.-.-.-.] [ [ [ [ [ [ [ [ [ [ [ [ [ [ ( ( ( _ _ U _ _ ( ' ' ' ' ' ' ' X.<.;.;.:.:.<.2.2.2.0.t.0.e.t.e., ",
"3X3X3X3X3X>X2X2X,X2X2X1X1X1X1X1XeXeXeXeXeX1X1X1X1X,X1X1X2X2X2X,X,X,X,X%X3X3X%X3X3X3X3X3X3X3X3X3Xr.r.q.q.w.w.0.0.:.:.;.;.=.=.&.Y =.=.[ Y I I I I / / / / / / / / [ ;.;.[ ;.;.;.;.:.:.:.:.:.0.0.0.w.w.q.q.e.e.r.L.uXlXzXlXzXlXkXzXzXzXzXzXzXkXkXkXkXMXZXZXZXZXZXBXZXZXGXGXGXGXGXGXGXZXZXMXBXmXmXMXmXNXCXCXCXmXMXmXNXNXNXNXmXoXmXmXNXNXNXNXCXCXCXCXNXNXNXNXNXNXNXNXVXVXVXVXVXVXVXVXCXVXVXmXmXmXmXmXMXMXMXXXXX}.[.[.[.'.U.U.U.M.n.n.b.n.M.C.U.'.[.[.M.x.l i i l l k.c.Z.Z.M.M.J.I.m.{ { { <.<.<.<.<.<.2.2.2.2.2.<.<.2.2.2.2.2.2.2.2.<.2.<.<.2.2.2.2.<.<.<.<.,.2.,.,.-.-.<.,.<.<.-.-.-.-.-.-.-.-.-.-.] ] ] ' ] ) ) ) ) [ [ [ [ [ [ ( ( U ( U ' ' ' ' ' ' ' ' ' ' <.,.-.:.<.2.<.2.2.2.e.t.e.e.t.e.9 ",
"3X3X3X3X3X>X2X2X2X2X2X2X2X1X1X1X1X1XeXeX1X1X1X1X2X2X,X,X2X,X,X,X,X,X%X3X3X3X3X3X3X3X3X3X3X3X3X3Xr.q.q.w.w.0.0.0.;.;.;.=.&.Y Y Y Y Y Y I I I I I / / / / I I I I / / [ [ [ ;.;.;.;.;.;.;.:.:.:.0.0.w.w.q.e.e.t.p.uXlXlXlXlXjX|.jXkXkXkXkXkXkXkXMXZXZXZXZXZXZXBXMXVXZXZXZXZXFXGXHXGXZXMXMXVXCXmXmXmXNXCXCXNXoXoXmXmXNXNXmXoXoXoXoXNXNXNXNXCXCXNXNXNXNXNXNXNXNXCXNXmXVXmXmXmXmXVXVXVXVXVXmXmXmXmXmXMXMXXXXXXX}.}.[.{.`.U.U.C.M.n.b.b.n.M.C.U.`.'.'.C.n.k.k.k.k.k.k.c.Z.C.C.C.J.J.m.{ { -.<.<.<.<.<.0.0.0.0.0.0.0.0.2.2.0.0.0.0.0.0.2.2.2.2.2.2.2.2.2.2.2.2.2.<.<.<.<.<.<.<.<.<.<.<.2.2.2.2.-.-.-.-.] ] ] ] ] ] ] ] ] ] ] ) [ [ [ ( ' ' ' ' ' ' X.' X.X.X.X.' ,.<.,.<.<.<.2.2.0.0.0.e.r.e.t.r.t.9 ",
"3X3X3X3X3X3X3X3X2X2X2X2X2X2X2X2X,X1X1X1X1X1X,X2X,X,X,X,X2X>X>X>X>X%X%X3X%X3X3X%X3X3X3X3X3X3X3X3Xw.w.w.w.0.0.:.:.;.;.=.&.&.&.I I I I I I I I I I I I I / I / I I / / / / / / ;.;.;.;.;.;.;.;.;.:.0.0.0.0.0.e.t.t.uXlXlXjXjX|.].|.|.kXkXzXzXZXZXZXZXZXZXZXZXBXMXMXMXkXkXkXZXZXGXHXGXZXZXZXCXCXNXmXCXCXSXCXCXMXoXmXmXmXNXmXmXoXoXoXNXNXNXNXCXNXNXNXmXmXNXNXNXNXCXVXmXmXmXmXmXmXmXmXVXVXmXmXmXMXMXMXMXMXXXXXXX}.[.[.{.Y.U.C.B.M.n.b.b.n.M.C.U.U.U.Y.U.Z.M.n.n.n.c.c.n.Z.U.U.U.J.I.m.{ 6.<.<.<.<.<.2.0.0.0.0.0.0.0.0.e.e.e.e.e.q.q.e.2.2.2.2.2.2.2.2.e.e.2.2.2.2.2.2.2.2.2.2.2.2.2.2.2.2.2.2.2.2.-.6.<.<.<.<.<.] ] ] ] ] ] ] ] ] ] ' ' X.' ' X.X.X.X.X.X.,.,.,.,.<.1.<.<.<.0.0.0.e.e.e.p.e.t.r.t.9 ",
"3X3X3X3X3X3X3X3X,X2X2X2X2X2X2X2X,X2X,X,X1X,X2X2X,X,X2X2X>X>X>X>X>X%X%X3X3X3X3X%X3X3X3X3X3X3Xw.w.w.w.w.w.0.:.;.;.;.;.=.&.&.&.I I I I I I I I I I I I I I I I I I I / I / / / [ ;.;.;.;.;.;.;.;.;.2.0.0.0.e.0.e.t.P.uXjXuXjX|.].|.|.kXzXZXZXZXZXSXGXZXZXBXBXMXMXMXkXkX].kXZXGXGXHXGXSXZXAXAXCXmXmXCXSXAXAXCXNXmXmXmXmXNXNXNXmXmXmXmXNXNXNXCXNXNXNXmXNXNXNXVXVXCXCXmXmXmXmXmXmXmXmXmXmXmXMXMXMXMXMXXXMXXXXXXX}.[.[.'.U.C.C.M.n.n.n.n.M.C.U.U.U.U.U.U.C.C.Z.Z.Z.n.n.Z.U.U.U.U.J.A.{ O.6.<.<.<.2.2.2.e.e.0.0.e.e.e.e.e.e.e.e.e.e.e.e.2.0.2.2.2.2.2.2.e.e.e.q.0.0.0.2.0.0.2.2.0.0.0.0.2.2.6.2.2.2.6.6.-.] ] ] ] ] ] ] ] ] ] ] ] ` ` ` X.X.X.X.X.X.X.X.X.,.,.,.,.,.<.1.<.2.0.0.0.e.e.e.t.p.e.t.p.t.v ",
"3X3X3X3X3X3X3X>X,X,X,X2X2X2X2X2X2X2X,X,X,X2X,X,X2X2X>X>X>X>X>X3X%X%X%X3X3X3X3X3X3X3X3X3Xw.w.w.w.w.w.1.1.;.;.;.;.;.;.;.&.&.&.Y I I I I I I I I I M M M M M I I I I I / / [ / / ;.;.;.;.;.;.;.:.;.2.2.0.0.2.0.6.6.L.uXuX).|.|.|.|.kXzXZXZXZXZXAXSXSXZXBXMXMXMXMXkXkX].U.{.ZXGXGXGXGXZXSXAXAXCXCXCXSXSXAXHXAXCXMXXXXXMXmXmXmXmXmXmXmXNXNXCXCXCXCXCXNXNXNXCXVXVXZXCXmXmXmXmXmXmXmXmXmXmXMXMXXXXXXXXXXXXXXXXXXX[.{.'.`.U.C.B.M.n.n.n.M.Z.C.C.U.C.C.U.Y.Y.Y.Y.Z.Z.Z.n.C.U.U.U.U.J.A.O.6.6.<.<.2.2.2.2.e.e.e.e.e.e.e.e.e.e.e.e.q.q.q.q.e.e.e.e.e.e.e.e.e.e.e.e.e.0.0.0.0.0.0.0.0.0.0.0.6.0.2.2.2.2.2.2.-.-.-.-.-.-.-.-.-.-.-.-.-.] ] ] ,.,.,.X.X.,.,.,.,.,.,.,.,.3.3.3.2.0.0.e.e.e.e.e.t.p.e.p.p.t.9 ",
"3X3X3X3X3X3X>X>X,X,X,X2X2X2X2X,X,X2X2X2X2X,X,X,X2X>X>X>X>X>X3X3X3X3X3X3X3X3X3X3Xw.w.w.w.w.w.w.w.w.w.1.1.;.;.;.;.;.;.;.&.&.&.I I I I I I I I I I M M M M M M I I I I I / [ / / ;.;.;.;.;.;.;.;.;.2.0.0.2.<.2.6.6.L.uXuX).|.|.|.|.zXZXGXGXZXGXGXGXZXZXBXBXBXMXkX}.kXT.U.{.ZXGXHXGXZXZXZXAXAXSXSXAXCXCXAXHXAXCXXX[..XXXoXoXoXoXoXoXmXNXNXCXCXCXCXCXNXNXNXCXVXVXZXCXNXmXmXmXmXmXmXmXmXMXMXMXXXXXXXXX}.XXXXXXXX[.'.`.Y.U.C.B.M.n.n.n.M.Z.C.C.C.C.Z.C..X.X.XY.Y.Z.Z.Z.U.U.U.U.J.J.A.O.6.6.2.2.2.2.3.0.e.e.e.e.e.e.e.e.0.e.e.e.q.q.q.q.e.e.e.e.e.e.e.e.e.e.e.e.e.0.0.0.0.0.0.0.0.0.0.0.6.0.0.0.2.2.2.2.<.<.<.<.<.<.-.-.-.-.-.-.-.-.-.X.,.,.,.X.X.,.,.,.,.,.,.,.1.3.3.0.2.0.0.e.e.e.e.e.t.p.r.p.p.t.9 ",
"3X3X3X3X3X%X3X3X,X,X,X,X,X,X,X,X,X,X,X,X2X,X,X%X%X%X%X3X%X%X%X%X3X3X%X3X3X3X3Xw.w.w.w.w.w.w.w.w.w.w.1.;.;.;.;.&.&.&.&.&.Y I P P I I I I I M M M M M M M m m m M I I I I / / / / / [ / ;.;.;.;.;.;.;.;.2.<.0.6.6.L.P.uX].].|.kXkXzXZXGXGXGXGXGXZXZXZXBXMXkX}.{.T.U.{.BXZXGXGXZXZXkXkXVXCXSXAXAXAXAXSXSXAXAXCXMX{..X.XXXMXXX.X.X.XXXmXNXNXNXCXCXCXCXCXCXCXCXCXZXCXCXCXVXVXmXmXmXMXmXMXXX}.}.[.[.[.[.[.}.}.[.'.Y.Y.U.U.C.B.M.n.n.n.B.C.C.Z.n.n.Z.Y.oX.X[.Y.Z.Z.C.Y.Y.U.U.J.I.A.A.5.6.6.6.e.e.e.e.e.e.e.e.e.e.t.r.r.e.e.r.r.e.e.e.e.r.r.r.r.r.r.r.r.i.i.i.r.r.r.r.r.e.e.e.e.e.e.e.e.e.e.6.0.0.0.0.0.2.2.2.2.2.<.2.<.2.6.<.<.<.<.<.<.<.,.,.,.3.3.3.3.3.3.3.0.0.0.0.0.e.e.e.r.r.r.r.r.r.r.p.r.p.p., ",
"3X3X3X3X3X%X3X%X,X,X,X,X>X,X,X,X,X,X,X,X2X2X%X%X%X%X%X3X%X%X%X%X3X3X%X3X3X3Xw.w.w.w.w.w.w.w.w.w.0.1.1.;.;.&.&.&.&.&.&.Y I I P P I I I M M M M M M M M m M M M M I H H I I / / / / / [ [ ;.;.;.;.=.;.;.2.:.2.2.6.L.P.).].].].}.kXzXZXGXGXGXGXGXZXMXMXMXMXkX{.T.T.kXBXAXGXZXZXkXkXkXkXkXMXVXVXVXVXVXMXBXSXAXSXVXMXXXXXMXMXXX[.[.[.XXMXNXNXCXCXCXCXCXCXCXCXCXCXCXCXCXCXVXCXVXmXmXmXmXMXXXXX}.}.[.[.{.[.[.[.'.`.U.U.C.C.B.M.M.M.M.M.M.C.C.C.Z.C.Y..X.X'.Z.n.Z.C.Y.[.C.U.U.J.I.A.A.6.6.e.e.e.e.e.e.e.e.e.t.r.r.t.r.r.r.r.r.r.r.r.r.r.r.r.r.r.r.r.r.r.p.i.i.i.i.r.r.r.r.r.r.e.e.e.e.e.e.e.e.e.e.e.e.6.6.6.6.6.2.2.2.2.2.2.2.2.2.2.2.2.<.,.3.,.3.3.3.3.3.3.0.0.0.0.0.q.e.r.e.r.r.r.r.a.r.r.p.i.p.p., ",
"3X3X3X3X3X3X%X%X>X>X,X,X>X,X,X,X,X,X,X,X2X2X,X,X%X%X%X%X%X%X%X%X%X%X%X3X%X3X3X3Xw.w.w.w.w.0.w.0.1.1.;.;.&.&.&.&.Y Y Y I I P P P M M M M M m b b b b b m m m m m m m H H I I I I I / [ / [ ;.;.;.;.=.=.=.;.<.<.6.D.P.P.)._.].|.kXkXZXZXZXZXZXZXVXkXMXkX}.{.{.{.{.kXZXGXZXMXkXkXkXkXkXkXkXMXXXXXXXMXkXkXVXCXCXCXmXmXNXNXNXmX.X.X.X.XoXmXNXCXCXCXCXCXCXCXCXCXCXCXCXCXCXCXCXCXNXmXmXCXMXXXXXXXXXXX[.[.{.{.{.'.Y.U.C.M.M.M.M.M.M.M.M.M.Z.C.U.U.Y.[..X[.U.Z.Z.C.Y.'.'.n.B.J.J.I.A.5.6.6.e.e.e.e.e.e.e.r.r.r.p.p.p.p.p.p.p.p.p.p.p.p.p.i.i.p.p.i.p.i.i.p.p.p.p.i.i.i.i.i.a.t.r.r.r.r.r.r.r.t.t.t.t.e.e.e.e.e.e.e.e.e.6.e.e.0.0.0.0.0.2.<.<.<.3.3.0.0.0.0.0.0.0.0.q.e.e.e.e.r.r.r.r.a.a.i.i.p.p.p.p., ",
"3X3X3X3X%X3X%X%X>X>X,X,X,X,X,X,X,X,X,X,X2X,X,X%X%X%X%X%X%X%X%X%X%X%X%X3X%X3X3X3Xw.w.w.w.0.0.0.0.;.;.&.&.&.&.&.&.I I I I P P P M M M M M m b b b b b m m b b m b m n m m H I I I I I I [ [ [ ;.;.=.=.;.=.;.-.-.-.A.K.P.P.J.].|.kXkXZXZXZXZXZXVXkXkXkX}.{.{.{.{.{.}.MXMXkX{.].].].{.{.{.{.[.[.}.}.}.].].{.}.MXMXMXmXmXNXCXNXMXXXXX.X.XoXmXmXNXCXCXCXCXCXCXCXCXCXNXCXCXCXCXCXNXmXmXmXMXXX[.[.[.[.[.[.{.{.'.'.Y.C.B.M.M.M.M.M.B.B.C.Z.B.B.C.C.Y.'.[.'.'.Y.[..X[.U.M.n.B.J.J.A.@.5.6.e.e.e.e.e.e.e.r.p.p.p.p.*X*X*X*Xp.p.*X*X*X*X*X*X*X*X*X*X*X*Xp.p.*X*X*X*X*Xp.p.p.p.a.p.p.p.p.p.p.t.t.t.t.t.t.t.t.t.t.e.e.e.e.e.e.e.e.e.e.e.e.e.0.3.3.3.3.0.0.q.q.0.0.q.e.e.e.e.e.r.r.r.r.r.i.p.p.p.p.p.p.p.p., ",
"3X3X3X%X%X%X%X%X>X>X;X;X;X,X;X,X,X,X,X%X%X%X%X%X%X%X%X%X%X%X%X%X%X%X%X%Xw.w.w.w.w.w.w.w.:.:.:.:.;.&.&.&.&.Y I I I I I I P P M M M M M m b b b b b b b b m m m b m m m m H H I F I I / / / / [ [ =.=.=.;.;.-.-.-.5.I.P.P.J.`.].|.kXkXZXZXVXMXkXkXkXkX{.{.T.T.{.{.{.T.U.J.B.J.J.U.`.`.U.`.`.`.'.'.`.J.B.J.U.U.U.'.'.{..XMXMX.X.X.X.X.X.XoXMXmXNXCXCXCXNXCXCXCXNXNXmXCXCXCXVXmXmXmXMXXX[.{.[.[.[.{.[.'.'.Y.U.U.C.M.M.M.M.M.M.B.B.B.C.C.C.C.C.U.'.[..X[..X[.[.U.M.x.M.B.J.A.m.@.5.8.t.e.r.e.e.r.r.r.p.p.*X5X5X*X*X*X*X*X*X*X-X-X-X-X-X-X-X*X-X-X-X*X*X*X*X-X*X*X*X*Xp.p.p.p.p.p.p.p.r.r.r.r.r.t.r.t.t.t.t.t.e.e.e.e.e.e.e.e.e.e.e.e.e.e.e.e.e.e.e.e.e.e.e.e.e.r.r.r.r.r.i.i.i.i.p.p.a.a.p.a.p.p., ",
"3X3X3X%X3X%X%X%X>X>X;X;X;X,X;X,X,X,X,X%X%X%X%X%X%X%X%X%X%X%X%X%X%X%X%X%Xw.w.w.w.w.w.w.w.:.:.:.:.=.&.&.&.Y Y I I I I I P P P M M M m m m b b b b b b b b b b b b m m m m m H I I I I I I / / I Y ' Y =.=.;.-.-.] 6.I.P.P.J.`.].|.kXkXkXzXkXkXkX{.kX{.{.{.T.T.{.{.T.M.l l l x.M.J.J.B.B.B.B.C.C.`.U.B.m.b.x.x.x.x.x.c.C.Y.[.[..X.X.X.X.X.XoXXXmXNXNXNXNXNXNXCXNXNXmXmXmXmXmXmXMXMXXX[.[.{.'.'.'.'.`.U.U.U.C.C.M.n.M.M.M.M.M.M.B.C.U.U.U.U.Y.'..XXXMXXX[.U.B.M.M.M.B.J.A.m.m.5.5.8.t.r.r.r.r.r.i.r.*X*X5X5X5X5X6X6X5X5X5X5X5X5X5X5X-X-X-X-X-X-X-X-X-X-X-X-X-X-X-X-X-X*X*X*Xp.p.p.p.p.p.p.p.r.r.r.r.t.t.t.t.t.t.t.t.t.t.t.e.t.e.e.e.e.e.6.e.e.e.e.r.r.r.r.r.t.r.r.r.r.r.i.i.a.p.p.p.p.p.p.p.p.p., ",
"3X3X%X%X3X%X%X%X>X>X>X;X;X,X,X,X,X,X%X%X%X%X%X%X%X%X%X%X%X%X%X%X%X%X%X%Xw.w.w.w.w.w.w.:.:.:.:.;.=.&.&.&.Y Y I I I I I P P P M M b b b b b v v v v v v v v v v v n n n n n m m M I I F I I I / U Y Y ' =.;.-.-.] { A.P.P.J.`.].].}.kXkXkXkXkX{.{.{.{.{.T.T.T.T.T.C.x.4 2 3 i W b.x.x.^ l x.b.n.M.M.^ z x 8 4 3 4 4 5 l n.T.Y.Y..X.X.X.X.X.X.XoXmXNXNXNXNXmXCXmXCXNXNXNXNXmXMXMXMX[.{.[.'.'.'.Y.U.U.U.U.C.M.M.M.M.M.M.M.M.M.B.C.C.C.C.U.'.[.XXMXmXMXXX'.C.M.M.C.U.J.N.m.m.m.A.A.8.8.i.i.i.i.i.i.i.*X5X5X5X5X6X6X6X5X6X5X5X5X5X5X5X-X-X:X-X5X5X-X-X-X-X-X-X-X-X-X-X-X-X*X*X*Xp.p.p.p.p.p.p.p.p.p.p.p.p.p.p.p.t.t.t.t.t.t.t.t.t.t.t.e.e.e.e.t.e.t.t.t.r.r.r.r.r.r.r.r.i.i.i.p.a.p.a.p.p.-Xp.p.-X, ",
"%X%X%X%X%X%X%X%X>X%X>X;X;X,X,X,X,X,X%X%X%X%X%X%X%X%X%X%X%X%X%X%X%X%X3X%Xw.w.w.w.w.w.w.:.:.:.:.;.&.&.&.&.Y Y I I I I I P P M M M b b b v v v v v 9 v v v v v v v v 0 b m m n m m I I F F I I / I Y Y ' ' [ ] ] ] { A.G.P.J.`.].].}.kXkXkXkX}.{.{.{.{.{.T.T.T.T.T.U.W 2 @ @ $ 4 y k k k i x z l l 8 4 3 $ @ @ @ @ @ 2 5 k.c.Z.T.Y.oXoX.X.X.X.XXXMXNXmXNXNXmXmXCXCXmXmXmXmXMXMXXXXX[.[.[.'.'.'.U.U.C.U.U.C.M.M.M.M.M.M.M.M.M.B.C.C.M.C.'.[.[.XXMXMXXX}.{.`.U.U.U.J.N.m.m.@.5.A.8.6.a.i.i.i.i.i.i.p.*X*X*X5X6X6X*X5X6X6X6X6X:X:X:X:X:X:X:X5X5X5X:X:X:X5X5X-X-X-X-X-X-X-X*X*X*Xp.p.p.*X5X5X*X*Xp.L.L.p.p.p.p.p.p.p.p.p.p.p.p.p.p.t.t.t.t.t.e.t.t.t.t.r.r.r.r.r.r.p.p.i.i.i.p.p.a.a.a.p.*X-Xp.p.-X, ",
"%X%X%X%X%X%X%X%X%X%X%X;X;X;X,X,X,X2X2X2X%X%X%X%X2X%X%X%X%X%X%X%X%X3X3X3X3Xw.w.w.w.w.0.0.:.:.;.;.;.&.&.&.&.&.&.I P P P M M M M M b v v v v 9 9 9 9 9 v v v v v v b v b b n m m H M M M I I I I I U U Y ( ' ' ' ] ] A.P.P.P._.].].{.kXMXkXkXkX{.].].U.U.U.T.U.T.T.U.b.8 $ @ @ & 3 y 8 4 3 4 4 i i 4 4 2 $ $ $ $ $ @ $ 2 e l c.C.'.oXoXmXoXoX.XoXoXoXoXoXmXMXmXmXCXCXCXCXmXMXXXXX.X[.'.'.'.U.U.U.C.C.C.C.B.B.M.M.M.n.n.M.M.M.B.B.C.U.U.'.{.}.MXMXMXMXkXkX}.}.].U.J.A.I.A.D.8.6.8.e.a.i.i.i.i.i.*X*X*X*X*X5X5X5X6X:X7X5X7X7X:X:X:X:X:X:X:X:X:X:X:X:X:X:X:X:X-X-X-X-X-X-X-X-X-X-X-X*X*X*X*X*X*X*X5X5Xp.p.p.p.p.p.p.p.p.p.p.p.t.t.t.t.L.L.L.p.L.p.p.p.p.p.p.p.p.p.p.p.a.a.p.a.a.a.p.p.p.*X-X*X-X-Xc ",
"%X%X%X%X=X=X%X%X%X%X%X;X;X,X,X,X,X2X2X2X%X%X%X%X2X%X%X%X%X%X%X%X3X3X3X3X3Xw.w.w.w.w.0.0.:.:.;.;.;.&.&.&.&.&.Y I P P P M M M M M b v v v v 9 9 9 9 9 v v v v v v b b b b b m M M M M M I I I I I U U U Y [ [ ' ' ` A.P.P.P._.].].{.}.}.{.{.{.{.`.].U.T.U.U.U.U.].].P.m.k 3 @ @ @ 3 3 3 3 2 4 i l l l l l l l i 4 2 2 2 e u x.Z.Y.oXoXNXmXoXoXoXoXoXoXoXoXoXMXmXmXCXCXVXmXXXXXXX}.[.'.'.U.U.U.C.C.C.C.B.B.M.M.M.M.n.n.M.M.M.B.B.B.U.T.{.}.MXMXMXkXMXkXkXjX].].J.A.A.A.8.8.8.8.e.e.i.i.i.i.p.p.*X*X-X-X5X5X5X5X5X5X7X7X:X:X:X:X:X:X0X0X:X0X0X:X:X:X:X:X:X:X:X:X:X:X-X-X-X-X-X-X-X-X*X*X*X*X*X*X*X*X5X5X5XL.L.L.L.L.L.L.L.L.t.t.t.t.L.p.L.L.p.p.p.p.p.p.p.p.p.p.p.p.p.p.p.p.a.p.p.p.*X*X-X*X-X-Xc ",
"%X%X%X=X=X=X%X%X%X%X;X;X;X;X,X,X,X2X2X2X2X2X%X%X2X2X%X%X%X%X%X%X3X3X3X3X3X3Xw.w.w.w.0.0.:.;.;.;.=.&.&.Y &.Y I P P P M M M M M M b v v v v v 9 9 9 9 9 v v v v v v v v v b m m M M M I I I I I I I I U Y ( [ [ ' ) 5.P.P.J.J.].|.{.}.{.].{.{.'.`.].U.U.U.U.U.{.kXkXkXjXP.m.q & @ $ & 3 2 2 3 i l x.x.x.m.M.M.^ i 5 4 4 5 l x.Z.Y.oXoXNXNXmXoXoXoXoXoXoXoXoXoXXXXXVXmXmXoXXX.X[.[.'.'.Y.U.U.C.C.C.C.B.M.M.n.n.n.n.n.M.M.M.M.B.B.B.M.U.'.{.kXkXkXkXkXkXkX].].P.A.m.A.8.8.8.8.8.8.e.i.i.a.p.p.p.p.*X5X5X5X6X5X5X7X7XyX7X7X7X:X:X:X:XyX0X0X0X0X0X0X0XyX0X0XyX:X:X:X:X-X-X-X-X-X-X-X-X*X*X*X*X*X*X*X*X5X5X5X5X5X5X5X5XL.L.6XL.L.L.L.L.L.p.p.p.p.p.p.p.p.p.p.p.p.p.p.p.p.a.p.p.p.p.p.p.*X*X-X-X-X-Xc ",
"%X%X%X=X=X=X%X%X%X%X;X;X,X,X,X,X2X,X2X,X,X2X2X2X2X2X%X%X%X%X%X%X3X3X3X3X3X3Xw.w.w.w.0.:.:.;.;.;.&.&.&.Y Y I P P P P M M M M M b v v v v v v 9 9 v v 9 9 v v v v v v v v b b m m M M M I H I I I I U U Y ( [ [ ' ) 5.K.P.P.J.].{.}.{.].].{.{.].U.].U.B.B.U.}.MXZXZXZXzXZXZX].^ 8 2 3 3 2 2 3 8 l ^ x.b.M.B.B.M.x.l l i l x.n.C.Y.oXoXNXNXNXoXoX.X.XoXoXXXoXoXXXXXmXMXoXoXXX[.[.[.'.'.U.U.C.C.C.C.B.B.M.M.n.n.n.M.M.M.M.M.M.M.B.B.M.B.U.{.{.}.kXMXkXkX].P.J.H.A.@.5.6.8.6.6.8.a.a.a.a.a.a.p.-X5X5X5X5X6XyXyXyX7XyXpXpXpXpXpXpXwXwXpXwXwXwXqXqXqXpXyXyX0X0X0X:X:X:X-X-X-X-X-X-X-X-X-X-X*X*X6X6X6X6X5X5X5X5X5X5X5X5XL.6X6X6XL.6X6XL.p.p.p.p.p.*X*Xp.p.p.p.p.p.p.*Xp.p.p.p.p.-Xp.-X-X*X-X-X-X-X:Xc ",
"%X%X%X=X%X%X=X%X;X;X;X;X;X;X;X<X,X,X2X2X2X2X2X2X2X2X2X%X%X%X%X3X3X3X3X3X3X3Xw.w.w.w.0.:.:.;.;.;.=.&.Y I I I P P P P M M M M M v v v v v v v 9 9 v 9 9 v v 9 v v 9 9 9 9 v b n b m m H H F I I I I U U ( [ [ [ ' ) O.I.P.J.J.].|.{.|.].{.}.{.`.J.J.J.J.U.kXZXAXSXGXZXZXGXHXGXkXU.W k 8 2 2 2 5 x x.n.U.U.U.].'.U.U.C.Z.C.Y.Y.'..XoXNXNXNXNXNXoX.X.X.X.XoXoXoXoXoXoXoXoXoX.X[.'.'.'.Y.U.C.C.C.C.C.B.B.M.M.n.n.M.M.M.M.M.M.M.M.B.B.B.B.C.U.U.].{.kX].].J.I.A.m.m.A.5.5.6.8.t.a.a.a.a.a.a.-Xp.5X5X5X5X5XyXyXyXyXpXpXpXpXpXpXpXpXpXpXpXpXwXwXrXrXrXrX0X0X0X0X0X0X:X:X-X-X-X-X-X-X-X-X-X-X-X5X-X-X-X-X5X5X*X*X5X5X5X5X5X5XL.L.6X5X6X5XL.p.p.p.p.p.p.p.p.p.p.p.p.a.p.p.p.p.-X-X-X-X-X-X-X-X-X-X:X:Xc ",
"%X%X&X=X;X;X%X=X;X;X;X;X;X;X<X<X2X2X,X,X2X2X2X2X2X2X2X2X>X%X%X%X3X3X3X3X3X3Xw.w.w.w.0.0.:.;.;.;.=.&.Y I I I P P P P M M M M v v v v v v v v 9 9 v v v v v v v 9 9 9 9 9 v b n b m m H H I I I I I U U ( [ [ ' ' ) O.H.).)._.].|.].].].{.{.`.B.M.M.J.].MXAXHXGXSXGXGXGXGXGXGXAXZX].M.l 4 2 3 5 x b.B.{.}.[.}.XXXXXX[.[..X.X.X.X.XoXNXNXNXCXNXoX.X[.[.[.[..XoXoXoX.X.X.X.X.X[.'.'.Y.Y.U.C.C.C.Z.Z.B.B.B.M.M.M.M.M.M.M.M.M.M.M.B.B.M.x.x.x.n.n.M.J.J.I.m.m.m.m.m.A.5.8.8.8.8.a.a.a.a.a.p.-X5X5X5X5X5X5XyXyXyXyXpXpXpXpXpXpXpXpXpXpXpXrXrXrXrXrXrXrXwXwXwX0X0XqX:X:X:X-X-X-X-X-X-X-X-X-X5X5X-X-X5X5X5X5X*X*X5X5X5X5X5X5X6XL.6X6X6X5XL.p.p.p.p.p.p.p.p.p.p.p.a.*Xa.-Xp.5X-X-X5X5X-X-X-X-X:X-X:X:Xc ",
"y.y.%X&X=X=X;X;X;X;X;X;X;X<X<X<X2X2X2X2X2X,X2X2X2X2X2X,X>X%X%X%X3X3X3X3X3X3X3Xw.r.w.w.0.0.:.;.;.;.=.&.Y I I P P P M M M M M v v v v v v v v v 9 9 9 9 v 9 9 v v w 9 9 9 v b n m m m H H I I I I I I U Y ( [ [ ' ) { D.).].].].].].`.].{.|.J.M.m.J.].ZXAXHXHXHXAXGXGXGXGXSXZXZXZXkX].n.l i i z l M.U.{.[.[.{.[.{.XXXXoXoXoX.X.X.XmXNXNXCXCXNXoXoX.X[.'.'.'.[..XoX.X.X.X.X.X[.'.'.Y.Y.C.C.C.Z.Z.Z.M.B.M.M.M.M.M.M.M.M.M.M.M.M.M.M.x.l i l ^ ^ ^ ^ m.m.m.m.m.A.A.5.A.A.8.8.a.a.p.a.a.a.p.a.5X5X5XyXyXyXyXsXpXsXpXpXpXpXpXpXpXpXpXpXrXrXrXrXrXrXrXrXrXrXwXwXwX0X0XqX:X:X:X:X:X:X:X:X:X:X:X:X6X6X6X6X5X5X5X5X5X5X5X5X6X6X6X5X6X6X5X5XL.p.p.p.p.p.*Xp.p.p.*Xp.*X*X*X-X-X5X5X5X-X-X-X5X-X-X5X:X:XyXc ",
"y.y.%X=X=X=X;X;X;X;X;X;X;X<X<X<X,X2X2X2X2X2X,X2X2X2X,X,X>X>X%X%X%X3X3X3X3X3X3X3X3Xw.w.w.0.0.:.;.;.=.&.Y Y I P P P M M M M v v v v v v v v v v 9 9 v 9 9 v v v 9 w 9 9 9 v b n m m m H H I F F I I I I U U [ [ [ ) { A.).|.].].].].].|.{.].J.N.m.].kXGXAXAXAXAXHXGXAXSXAXAXSXZXMXkX{.U.B.b.x.k.k.C.U.'.`.'.'.{.{.[..XoXoXoX.XoXoXNXNXmXNXCXNXoXoX.X[.'.'.'.'.[..X.X.X.X.X.X[.'.'.Y.Y.C.C.C.C.Z.M.M.M.n.n.M.M.M.M.M.M.M.M.M.M.M.M.x.l k l x.b.b.m.{ m.A.A.A.A.A.A.D.D.D.D.L.a.p.a.a.a.p.a.5XyXyXyXyXpXsXsXsXsXsXsXpXpXpXpXpXpXpXwXrXrXrXrXrXrXrXrXaXaXaXrXwXwXqX0X:X:X:X:X:X:X:X:X:X:X:X:X6X6X6X6X5X5X5X5X5X5X5X5X5X5X6X6X6X6X6X5Xp.p.p.p.p.p.*Xp.p.p.*Xp.*X*X*X-X-X5X5X5X-X5X5X-X-X-XyX:X:XyXc ",
"%X&X&X&X&X=X=X=X;X;X;X;X;X;X<X<X,X,X,X,X,X,X,X,X,X,X,X,X,X,X;X%X%X%X3X%X3X3X3Xw.3Xw.w.0.0.:.;.;.;.;.=.&.Y Y I P P P M M M M v v v v v v v v v v v v v v 9 9 v v v v v v b n n n M M M H F F F I I I U U ( [ [ [ ) { S.).].].].].].].|.].J.m.N.`.kXZXGXGXSXGXSXSXZXSXAXAXAXZXBXMX}.}.{.U.M.n.n.M.B.C.U.U.Y.{.[.[.[.XXXXoXoXoX+XCXmXNXNXNXNXmXmXmXoX.X.X'.'.'.'.'.'.'.'.'.'.'.'.'.Y.Y.U.C.C.C.Z.B.M.B.M.M.M.M.M.B.M.M.M.B.B.n.n.M.x.x.x.m.J.].J.m.m.m.m.A.A.A.A.6.D.D.L.L.L.L.L.5X-X5X5XyXyXyXyXyXyXyXyXpXsXpXsXsXpXpXpXpXpXpXpXaXwXeXeXeXwXwXwXwXwXwXwXrXwXwXwXqX0X0X0X:X:X:X:X:X5X5X5X5X5X7X7X5X6X5X5X5X5X5X5X5X5X5X5X5X5X5X5X5X5X*X*X*X*Xp.-X-Xp.p.p.p.*X*X*X*X-X-X5X5X-X-X:X5XyX5XyX5X0XpXc ",
"&X&X&X&X&X=X=X=X;X;X;X;X;X;X<X<X,X,X,X,X,X,X,X,X,X,X,X,X,X,X;X;X%X%X%X3X3X%X3X3X3Xw.w.w.0.:.:.;.;.;.=.&.&.Y P P P P M M M M v v v v v v v v v v v 9 v 9 9 9 v v v v v v b n n n M m H H F F I I I I U U ( [ [ [ ) { S.).|.].].].|.].{.].J.B.`.|.VXZXAXZXZXZXZXZXZXSXSXSXZXZXMXMXkXkX}.'.U.B.M.M.C.`.'.'.'.[.XX.XMXMXmXmXCXCXCXCXmXNXNXNXmXmXmXmXoX.X.X'.'.'.'.'.'.'.'.'.'.'.Y.Y.Y.U.U.C.C.C.C.B.B.B.B.M.M.M.M.B.M.M.B.B.B.n.n.M.m.b.m.B.U.].J.A.m.#.#.A.A.A.A.6.D.D.D.L.L.L.L.L.-X5X5XyXyXyXyXyXyXyXyXpXpXpXsXpXpXpXpXpXpXpXpXaXwXeXeXeXwXwXwXwXwXwXwXrXwXwXwXwX0X0X0X0X7X:X:X:X5X5X5X5X7X7X7X5X5X5X5X5X5X5X5X5X6X6X5X5X6X6X6X5X5X5X5X5XL.L.5X-X-X-X-Xa.-X-X-X-X-X-X-X5X-X:X:X5XyX5XyX5X0XpXc ",
"&X&X&X=X&X=X=X=X=X>X>X;X;X:X;X<X,X<X<X,X,X,X,X,X,X,X,X,X,X,X,X;X%X;X%X%X%X3X%X%Xr.w.q.w.0.0.;.:.;.;.=.=.&.Y I P P M M M M M b v v v v v v v v v 9 9 9 9 9 9 9 v v v v v b n n n M m H H G F I I I I U U Y [ [ [ ) { A.).|.].].].{.{.{.].`.`.{.VXZXSXZXZXZXZXZXZXVXVXVXVXMXkXkXkXkXkX}.}.{.'.U.C.'.[.XXXXXXMXMXMXMXMXMXoXoXoXoXVXmXNXmXmXNXNXNXNXoX.X.X'.'.'.'.'.Y.Y.Y.Y.Y.Y.Y.Y.Y.U.C.C.C.C.C.B.B.B.M.M.M.M.M.B.M.M.M.B.M.n.M.B.B.B.B.J.].].P.A.m.m.6.6.5.6.A.A.D.D.L.L.L.L.L.L.a.yX5XyXyXyXyXyXyXyXyXpXpXpXpXpXpXpXpXpXpXpXaXaXwXeXwXwXwXwXwXwXwXwXwXwXwXwXwXwXyX0X0X0X0X:X:X:X:X:X:X:X7X7X5X5X5X5X5X5X5X5X5X5X5X5X6X5X6X6X6X6X5X5XL.L.L.L.5X5X5X5Xp.a.-X-X-X-X-X-X5X5X:X:X:X:XyX:X0X:X0XpXc ",
"%X&X&X=X&X=X=X=X=X=X;X;X:X:X<X;X,X,X,X,X,X,X,X<X,X,X,X,X,X,X,X;X,X,X;X%X%X%X%X%X3Xr.q.w.0.0.:.:.;.;.;.=.=.Y I I P P M M M M b v v v v v v v v v v 9 9 9 9 9 9 9 v v v v b n n n m m H H F I I I I U U U Y [ [ [ ) { A.P.].].].].|.{.].].].|.kXVXAXZXZXVXVXZXzXzXVXMXMXMXkXkXkXkX{.{.}.}.[.{.'.'.[.XXMXMXMXMXMXMXMXMXXXXXXXoXoXoXmXmXmXNXNXNXNXNXoXoX.X.X'.'.'.Y.Y.Y.Y.Y.Y.Y.Y.U.C.C.C.C.C.C.C.B.B.B.B.M.M.M.M.B.M.M.M.M.M.M.M.B.J.J.J.J.].].J.m.{ #.6.6.6.6.5.A.D.D.L.L.L.L.L.L.a.yXyXyXyXyXyXyXyXyXyXpXpXpXpXpXpXpXpXpXaXaXaXaXeXeXeXeXwXwXwXwXwXaXwXwXwXwXwXwXpXyXyX0X:X:X:X:X:X:X:X:X5X5X5X5X5X5X5X5X5X5X5X5X5X5X5X5X6X6X6X6X5X5X5XL.L.L.5X5X5X5XL.p.p.p.-X-X5X5X5X5X:X:X:XyXyX:X0X:X0XpXc ",
"&X&X%X=X&X=X=X=X>X;X;X;X;X;X;X<X<X<X<X,X<X<X<X<X<X<X<X,X,X,X;X;X,X,X;X%X%X%X%X%X3Xr.r.w.q.0.0.:.;.;.;.;.=.&.Y I P P M M M M b v v v v v v v v 9 v v 9 9 9 9 9 9 0 0 9 0 b n n n m m H H H F I I U U I Y Y [ [ [ ) { 5.P.].].].`.`.].{.].].}.kXVXZXZXkXkXkXkXkXkXkXkXkXMXMXMXkXkX{.{.{.{.{.{.[.'.[..XoXMXMXMXMXXXMXMXXXXXoXoXoXoXoXmXmXmXmXmXNXNXNXmXoX.X.X'.Y.Y.Y.Y.Y.Y.Y.U.C.C.C.C.C.C.C.B.B.B.B.B.B.B.M.M.M.V.M.M.m.M.M.M.B.J.J.J.J.J.].U.J.m.m.{ O.6.6.6.6.8.D.L.L.L.L.L.5X5XL.L.yXyXyXyXyXyXyXyXpXpXpXpXpXpXpXpXpXpXaXaXaXaXeXeXeXeXeXeXaXaXaXaXaXpXwXwXwXwXpXpXwXwX:X:X:X:X:X:X7X7X7X7X:X:X5X5X5X5X5X5X5X5X5X5X6X6X6X6X6X6X5XL.L.L.L.L.5X5X5X5XL.L.L.L.L.5X5X:X5X:X:X5XyXyX0X:X0X:XwXpXc ",
"%X&X%X=X=X=X=X=X>X;X;X:X:X:X:X<X<X,X,X,X<X<X<X<X<X<X<X<X,X,X;X;X,X;X%X%X%X3X%X%X3X3Xr.q.q.0.0.:.;.;.;.;.;.&.Y I P P M M M M b v v v v v v v v v v v 9 9 9 9 9 9 0 0 b b b n n M m m H H G F I I U U U Y Y [ [ [ ) ` O.G.).].].`.`.`.{.].{.}.kXkXVXkXkXkXkXkXkXkXkXMXZXZXZXZXZXVXkXkX[.}.{.{.{.[..X.XXXMXMXMXMXMXMXMXMXXXoXoXoXoXXXXXoXoXoXmXmXmXmXNXoXoX.X'.Y.Y.Y.Y.Y.Y.Y.C.C.C.C.C.C.C.B.B.B.B.B.B.B.B.M.M.M.V.B.M.m.M.M.M.B.U.U.`.`.].].P.I.{ #.#.O.6.6.6.8.t.L.L.L.L.L.L.5X5Xa.L.yXyXyXyXyXyXyXpXpXpXpXpXpXpXpXpXaXaXaXaXaXaXaXaXeXeXeXeXaXaXaXaXaXaXpXwXwXwXpXpXwXwX:X:X:X:X:X:X7X7X7X7X:X:X5X5X5X5X5X5X5X5X5X5X6X6X6X6X6X6X5X5XL.L.L.L.L.5X5X5XL.L.L.L.L.5X5X5X5X5X5X5XyXyX0X:X0X:XwXpXc ",
"i.i.&X&X&X=X=X=X;X;X:X:X:X:X:X<X<X<X,X,X<X<XwXwX,X<X<X,X,X,X,X;X,X,X;X%X%X%X%X%X3X3Xr.q.w.w.0.:.;.;.;.;.;.&.Y I P P M M M M b v v v v v v v v v v v v v 9 9 9 9 0 0 0 b b n n n m H H H G I I I U U U Y Y ( [ ( ) ` #.H.).].`.`.U.`.'.].{.kXMXkXkX|.{.kXkXkXkXkXZXVXZXZXVXMXkXkX{.kXkX}.[.{.{.[.XX[..XMXmXMXMXMXMXXXXXXXXX}.XX}.}.}..X.XoXoXoXoXNXoXoXoX.X.XY.Y.Y.Y.Y.Y.Y.C.C.C.C.C.C.B.B.B.B.B.B.B.B.B.M.V.M.M.B.M.m.m.V.M.B.U.U.`.].].].P.I.{ m.#.O.6.6.6.6.t.D.L.L.L.L.5X5X5Xa.L.(.yXyXyXyXyXyXpXpXpXpXpXpXpXpXpXaXaXaXaXaXaXaXaXaXaXaXaXaXaXaXaXaXaXpXpXpXpXpXpXwXwXwX:X:X:X:X:X:X:X7X:X:X:X5X5X5X5X5X5X5X5X5X5X5X5X6X6X6X5X6X5X5X5X5X5X5X5X5XL.L.5X5X5X5X5X5X5X:XyX0XyXyXyX0X:XwX:XwXpXc ",
"i.i.&X&X&X=X=X=X;X;X:X:X:X:X:X:X<X<X<X<X<X<X<XwX<X<X<X<X,X,X,X;X,X,X,X;X%X%X%X&X3X3Xr.q.w.w.0.:.:.;.;.;.=.&.Y I P P M M M M b v v v v v v v v v v v v v 9 v 9 9 0 0 0 0 0 n n n n m H H G G I I U U U ( ( ( ( ( ) ` O.H.).].`.`.`.].].].{.kXMXMX}.].].{.|.}.kXVXZXZXkXkX{.U.J.M.T.{.[.MX[.[.}.XX.X[.[..XMXMXXXMXMXMXMXXXXX}.[.[.[.[.[.[..X.X.X.XoXoXoXoX.X'.'.Y.Y.Y.Y.Y.U.C.C.C.C.C.B.B.B.B.B.B.B.B.B.B.M.M.M.M.M.M.m.m.m.V.B.U.U.`.].].].P.I.{ 6.6.6.6.6.6.6.8.D.t.L.L.L.L.5X5XL.L.L.yXyXyXyXyXyXpXpXpXpXpXpXpXpXpXaXaXaXaXaXaXaXaXaXaXaXaXaXaXaXaXaXaXpXpXpXpXpXpXwXwXwX:X0X:X:X:X:X:X7X:X:X:X5X5X5X5X5X5X5X5X5X5X5X5X5X5X5X6X5X6X5X5X5X5X5X5X5X5X5X5X5X5X5X5X5XyXyXyX0XyXyX0XwX:XwX:XwXpXc ",
"i.i.i.&X&X=X=X=X>X:X:X:X:X:X:X:X:X:X<X<X<X<X<X<X<X<X<X<X<X;X;X,X,X%X,X%X%X%X%X>X%X&X3Xr.w.0.0.0.;.;.;.&.&.&.Y I I P P M M M M M v v v v v v v v v v v 9 9 9 9 9 0 m 0 m m m m m m m E E E E R R / / / / ( ( ( ( ) ( ` A.).].].J.`.].].].|.}.kXkX].`.U.U.].{.}.}.kX].J.m.x.W l x.M.M.C.U.U.Y.Y.Y.U.C.C.C.C.Y.Y.'..X.X.X.X.X.X.X[..X.X.X.X[.'.'..X'.[..X.X.X[.'.Y.Y.Y.U.C.C.C.C.C.C.C.B.B.B.B.B.B.C.B.B.B.M.M.n.V.M.M.M.M.n.n.M.B.U.`.].].].P.A.{ { O.6.6.6.6.6.A.8.8.8.a.L.L.L.L.5X5XyXyXyXyXyXyXyXpXpXyXpXaXaXaXpXpXpXpXpXpXpXwXwXwXpXpXpXpXrXrXaXaXpXpXaXwXpXpXwXwXpXwXpXpX7X7X<X<X<X7X7X7X7X:X5X5XyXyXyX5X5X5X5X5X5X5X5X5X5X5X5X5X5X5X5X5X5X5X5X5X5X5X5X5X5X5X-X-X-X5X5X0X0X0XpXwXwXwXeXpXc ",
"i.i.&X&X=X=X=X=X-X-X>X:X:X:X:X:X:X:X:X:X:X:X:X:X<X<X<X<X<X<X;X,X,X%X%X;X%X%X%X>X%X3X&Xr.w.w.0.0.1.;.;.&.&.&.Y I I I I M M M M b v v v v v v v v v v v 9 9 9 9 9 0 0 q q m m m m m m E E E E R R ( ( / / ( ( ( ( ) ) { A.P.].].J.].].].].].|.}.{.`.J.m.b.M.J.J.J.m.^ k k y y l l l x.x.c.c.c.c.c.c.c.c.c.c.c.n.n.Y.Y.Y.'.[..X[.[.Y.Y.Y.Y.Y.Y.Y.Y.'.[.[..X[.'.'.U.Y.Y.U.C.C.C.C.C.C.B.B.B.B.B.B.B.B.B.B.B.M.n.n.V.n.M.M.n.n.n.M.B.U.].].].].P.A.{ ] -.6.6.6.6.6.A.8.8.8.a.a.L.L.L.5X5XyXyXyXyXyXyXpXpXpXpXyXyXaXaXpXpXpXpXpXpXaXpXwXrXaXaXaXaXrXrXaXaXaXaXaXaXwXwXpXwXpXwXwXpX7X7X<X<X<X7X7X7X7X:X:X:X:X0XqXyX5X5XyX5XyXyX5X5XL.5X5X5X5X5X5X5X5X5X5X5X5X5X5X5X6X5X5X-X-X5X:X0X0X<XwXwXwXwXwXpXc ",
"&X&X&X&X&X&X=X=X-X-X-X>X:X:X:X:X:X:X:X:X:X:X<X<XwXwX<X<X<X<X;X,X,X,X,X;X%X%X%X>X&X&X&Xr.r.q.0.0.1.;.;.;.=.&.&.I I I I P M M M v v v v v v v v v v v v 9 v 9 9 0 0 0 m m m m m m m m E E E R R R / / / / / ( ( ( [ ) { #.I.).].J.].].].].].].].`.m.^ i i z ^ ^ ^ 8 4 3 3 3 4 e e i u u l k.k.k.k.k.k.k.k.k.k.k.k.c.c.c.n.Z.C.C.C.U.Z.Z.Z.C.C.U.Y.'.'.'.[.[.'.'.U.'.Y.U.U.C.C.C.C.B.B.B.B.B.B.B.B.B.B.V.M.M.V.V.V.b.m.V.b.b.b.M.B.`.].].|.].P.A.{ ] -.6.6.6.6.6.A.8.8.8.a.a.L.L.L.5X5X5XyXyXyXyXqXpXqXpXpXyXyXaXaXaXpXpXpXaXaXpXpXaXaXaXaXaXaXaXrXaXaXaXaXaXaXrXwXpXpXwXwXwXwX7X7X<X<X7X7X7X7X7X:X:X0X:X0X-XqX5X5X5X5X5X5X5X5X5X5X5X5X5X5X5X5X5X5X6X6X6X6X5X6X6X5X5X-X-X5X:X0X0X<XwXwXeXwXeXpXc ",
"&X&X&X&X&X&X-X-X-X-X-X>X:X:X:X:X:X:X:X:X0X0X<X<XwX<X<X<X<X<X<X<X,X,X,X,X;X>X>X>X>X&X&Xr.r.q.0.0.2.1.;.;.=.&.&.I I I I P M M M b v v v v v v v v v v v v v 9 9 0 0 0 m m m m m m m m m E E R R R R / / / / / R ( ( ] { ) m.).].J.`.].].].].].J.B.z 8 3 3 3 4 3 2 $ $ $ $ 2 2 2 4 4 5 5 e e e e i i i i i u u u u u i u k.k.c.c.c.c.c.x.x.x.c.M.C.Y.Y.Y.'.'.'.'.'.'.'.U.U.C.C.C.C.B.B.B.C.B.B.B.B.B.B.M.V.V.V.V.n.b.b.b.b.b.b.B.J.`.].].|.].P.A.) { { 6.6.6.6.6.5.8.8.8.8.a.a.L.L.5X5X5X5XyXyXyXqXpXqXqXpXqXqXaXaXaXaXpXpXpXaXpXpXaXaXaXaXaXaXaXaXaXaXaXaXaXrXrXpXwXpXwXwXwXwX7X7X<X<X7X7X7X7X7X7X:X0X:X0XqXqX5X5X5X5X5X5X5X5X5X5X5X5X5X5X5X5X5X5X6X6X6X6X5X6X6X5X-XqX-X5X:X0X0X<XpXwXeXwXeXpXc ",
"*X*X*X*X-X*X-X-X-X-X-X>X:X:X:X:X7X7X7X7X0X0XwXwXwXwX<X<X<X<X;X<X2X,X,X,X;X;X>X>X>X&X*X&Xr.w.q.q.2.1.;.;.;.&.&.I I I I I M M M b v v v v v v v v v v v 9 v 9 b 0 q q q m m m m m m m m E E E R R R R R R / / ( ( ( ` { ~ #.G._.J.J.`.].].].`.J.b.k 8 3 @ @ @ @ @ @ @ @ @ @ @ 2 2 2 2 2 2 2 2 2 2 2 2 2 2 2 p p p p p 2 2 4 5 5 e 5 5 5 5 5 i k.n.C.C.U.U.'.'.'.'.'.'.U.U.C.C.C.C.B.B.B.C.B.B.B.B.B.B.M.M.V.b.b.b.n.b.n.b.b.m.B.U.U.`.].].].P.#.) { { O.6.6.6.6.5.8.6.8.8.a.L.a.L.5X5X5XyX5X5XyXqXpXqXqXqXpXpXaXpXpXpXpXpXpXpXpXpXpXaXaXaXaXaXaXaXaXaXaXrXrXwXaXpXwXwXwXwXwXwX<X<X<X:X7X7X7X7X7X7X5X0XqX-X-XqXqXqXyX5XyX5X5X-X5X5X5X5X5X5X5X5X5X5X6X6X6X6X6X6X6X5X-XqX-XqX:X:X<X<XpXwXwX<XwXpXc ",
"-X-X*X-X-X-X:X:X-X-X:X:X:X:X7X:XpXpXyXyXyXyXpXpXwXwX<X<X<X<X<X;X,X,X,X,X;X;X;X>X>X&X&Xr.r.r.q.q.0.1.;.;.;.=.&.Y I I I I M M M M b b v v v v v v v v v v v 9 0 0 q q q m m m m m m m E E E E R R R ( R R / / R ( ( ) ) ~ { A.P.J.J._.`.].].`.N.b.z 8 4 $ $ 3 4 8 y l l y e p p p 2 2 2 2 2 2 2 2 2 2 2 2 2 p p p e p p 2 2 2 2 2 2 2 2 2 2 2 i k.M.Z.C.U.Y.'.'.[.'.'.U.U.C.C.C.C.B.B.B.B.B.B.B.B.B.B.M.M.b.n.b.b.b.b.b.b.b.n.B.U.U.U.].].].P.@.) ` { { 6.6.6.6.5.6.6.t.8.a.a.L.L.5X5X5X5X5X5XyXqXpXqXqXpXqXpXaXpXpXpXpXpXpXpXpXpXpXaXaXaXaXaXaXaXaXaXaXaXaXwXaXwXwXwXwXwXwXwX<X<X<X<X7X7X7X7X7X:X:X0XqX-X-X-XqXqXyXyXyX5XyX-X-X5X5X5X5X5X5X5X5X5X6X5X6X6X6X6X6X5X-XqX-XyX:X0XwX<XpXwXwX<XwXpXc ",
"-X-X-X-X-X-X-X-X:X:X:X:X7X7X7X7XyXyXyXyX0XwXyXyX0X0XwX<X:X:X:X<X,X2X,X,X,X;X;X>X>X&X&Xr.r.q.q.q.0.2.;.;.;.=.&.Y I I I I M M M M M M M b v v b v v v v v v 0 n 0 q q q m m m m m m m N E E E R R R R R R ( R R R ( Q / ) { m.J.J.J.J._._.`.`.N.^ ^ k k k z b.J.].CXZXBX{.T.T.R.R.c.c.c.c.c.c.c.c.k.k.g.c.c.c.c.c.R.R.v.c.c.c.c.k.5 5 5 5 5 5 l k.n.M.Z.C.'.'.'.'.'.`.U.U.C.C.C.B.B.B.B.B.B.B.B.B.B.B.V.V.b.b.b.b.b.b.x.^ ^ b.B.J.U.U.`.].].P.A.{ { { { 6.6.6.6.5.6.6.t.8.a.a.a.a.5X5XyXyX5X5XyXqXpXqXqXqXpXpXpXaXpXpXaXaXpXpXpXpXwXrXaXaXaXaXrXaXaXaXaXaXaXwXwXwXwXwXwXwXwXwXwXwX:X:X7X7X7X7X7X:X:X:X0X:XqXqX-XqXyXyXyX-XyX-X5X5X5X5X5X5X5X5X5X5X5X5X5X5X6X6X6X5X5X-X-XqX:X0XwX<XwXwXwX<XwXpXc ",
"-X-X-X-X-X-X-X-X:X5X5X5X7X7X7X7XyXyXyXpXpXpXyXyX0X0XwXwXwX:X:X;X,X,X,X;X;X;X;X>X>X>X&Xi.r.q.w.q.0.0.;.;.;.=.&.&.I I I I I M M M M M M M M b b b b b v v v 0 n 0 q q q m m m m m m m N E E E E R R R R R R ( ( R ( Q / ) { #.H.P.J.J._._.]._.N.^ ^ ^ ^ b.J.{.MXZXCXCXBXMXY.Q.Q.T.T.T.Q.T.T.T.T.T.Q.Q.Q.Q.Q.Q.Q.Q.Q.Q..XBX.XQ.T.T.Z.n.c.x.k.k.x.n.n.M.Z.C.U.'.'.'.'.`.U.C.C.C.B.M.B.B.B.B.B.B.B.B.B.B.V.V.b.b.b.b.x.x.^ ^ ^ b.M.J.`.`.`.].].).A.o.` { { 6.6.6.6.5.8.6.6.8.a.a.a.a.5X5X5XyX5X5XyXqXqXqXqXqXpXpXpXpXpXpXaXaXaXpXpXpXwXrXrXaXaXaXaXrXaXaXaXaXaXwXwXwXwXwXwXwXwXwXwXwX:X:X7X7X7X7X7X:X:X0X0X0X0XqX5X-XyXyXyXqXyX-X5X5X5X5X5X5X5X5X5X5X5X5X5X5X5X5X6X5X5X-X-XqX:X0XwX<XwXwXwX<XwXpXc ",
"-X-X-X-X5X5X5X5X5X5X7XyXyXyXyXyXsXyXpXpXpXpXpXyXpXpXwXwXwXwXwX<X<X<X<X<X<X;X>X>X>X>Xi.i.i.i.r.q.0.0.1.1.;.;.=.&.&.I I I I I M M M M M M b b v v b b b b b n m 0 m m m m N N N N m N N N E E E E E E R R R R R R ) ) ) { ) #.m.A.J.J._.`.J.J.J.N.^ x.m.m.J.U.].{.[.MXMXBXMXY.Q.Q.Q.Q.Q.Q.Q.Q.Q.Q.Q.Q.Q.Q.Q..XBXBXBXBXBXBXQ.T.T.T.Z.M.n.Z.C.C.M.n.M.Z.C.C.U.U.`.`.'.U.C.C.C.C.C.C.B.B.B.B.B.B.B.B.B.B.M.b.b.b.b.b.b.b.x.^ ^ b.M.J.J.].]._.].|.G.o.{ ` O.4.{ 6.8.6.6.6.8.8.a.a.a.a.L.L.-X-X-X5XqXqX0X0XqXqXqXqXwXpXwXwXwXpXpXpXpXaXpXaXaXaXaXaXaXaXaXaXaXaXaXaXaXaXwXwXwXwXwXwXwXwX<X<X<X:X7X7X<X:X:X0X0X0X0X0XqXqXyXyXyXyXyXyX5X5X5X5X5X5X5X5X5X-X5X5X5X5X5X5X5X5X5X-XqXqX0X0X0X<X<X<XwXwXpXpXc ",
"-X-X-X5X5X5X5X5X5X6X7X7XyXyXyXpXsXpXpXpXpXpXpXpXpXpXpXwXwXwXwXwXwX<XwX<X;X<X>X>X>X&Xi.i.i.i.r.q.q.0.2.2.2.;.;.=.&.I I I I I M M M M M M M b v v b b b b b m m 0 m m m m N N N N m N N N E E E E E E E R R R R R ) ) ) ) { { m.m.J.J.J.J.J.J.J.N.J.J.J.J.J.J.J.J.T.T.Y.MX.XY.T.T.T.T.T.Q.Q.T.T.T.Q.Q.Q.Q.Q..X.XBX.XQ.T.T.T.R.R.Z.M.n.Z.C.Y.Y.U.B.M.Z.C.C.U.U.U.U.U.C.C.C.C.C.B.B.B.B.B.B.B.B.B.B.m.b.b.b.b.b.x.^ ^ ^ ^ ^ x.b.B.U.].].].J.].|.).@.` ` O.O.] 6.8.6.6.6.8.8.a.a.p.a.p.p.-X-X-X5XqXqX0X0X0XqXqXqXwXwXwXwXwXwXpXpXpXaXaXaXaXaXaXaXaXaXaXaXaXaXaXaXaXaXwXwXwXwXwXwX<XwX<X<X<X:X7X7X<X0X0X0X0X:X0X0X0XqXyXyXyXyXyXyX5X5X5X5X5X5X5X5X5X5X5X5X5X5X5X5X5X5X5X-X-XqX0X0X0X<X<X<XwXwXpXpXc ",
"L.5X5X5X5X5X5X5X6X6X7X7X7X7XyXyXyXyXpXyXpXpXpXpXpXpXpXwXwXwXwXwX<X<X<X<X<X;X;X>X>X&X&Xi.i.i.i.q.q.0.0.0.2.;.;.=.&.&.I I I I M M M M M M M b v v m b m m m m m q m m m N N N N N m N N N E E E E E E E R E R R R ( ( / / ~ { { #.N.J.J.J.J.J.J.N.J.J.`.].`.J.M.m.M.n.M.C.T.Z.R.R.R.R.R.R.R.R.R.R.R.Z.R.R.Z.T.Y.T.T.T.Z.Z.n.c.M.M.M.M.U.Y.[.[.Y.U.C.C.C.C.C.U.C.C.C.C.C.C.B.B.M.B.B.B.V.V.B.B.V.V.b.b.b.x.x.^ l z l l ^ x.b.N.J.J.].]._.J._.|.).H.o._ ..O.{ 6.8.6.6.6.8.8.a.a.p.a.p.p.-X-X-XqXqXqX0X0XqXqXqXqXpXpXwXwXwXwXwXpXpXpXwXaXaXaXaXaXaXaXaXaXaXaXaXaXaXpXwXwXwXwXwXwXwXwX<X<X<X<X:X<X<X0X0XqXqXqX0X0X:X:X0X0X5X5XqXqXyXyX5X5X5X5X5X5X5X5X5X5X5X5X5X5X5X5X-XqX-X-X:X:X:X<X<X<XwXwXpXpXc ",
"5X5X5X5X5X5X5X5X6X6X7XyX7XyXyXyXsXpXyXpXpXpXpXpXpXpXpXpXwXwXqXwXwX<XwX<X<X;X:X:X=X>Xi.i.i.i.i.q.q.q.0.0.2.;.;.=.;.&.I I I I I M M M M M M M v v m b m m m m m m m m m N N N N N m N N N E E E E E E E E R R R R ( ( ) / / ~ { { N.N.N.N.N.N.J.N.N.J.J.].].J.M.m.^ l y u l u u t t t t t u u u u u u u u g.k.c.c.c.n.n.n.n.Z.Z.T.U.Y.[.[..X[.Y.U.C.C.C.C.C.U.C.C.C.C.C.B.B.B.M.M.B.V.M.V.V.V.V.b.b.b.^ ^ z l z z l z ^ b.m.B.J.J.].].J.J._.jX|._.#.` o.O.<.6.8.6.6.6.8.8.a.a.p.a.p.-X-X-X-XyXqXqX0X0XqXqXqXqXwXpXwXwXwXwXwXwXpXpXpXaXaXaXaXaXaXaXaXaXaXaXaXrXaXaXwXwXwXwXwXwXwXwX<X<X<X<X:X<X<X0X0XqXqXqX0X0X:X:X0XqX5X-XqXqX-X5X5X5X5X5X5X5X5X5X5X5X5X5X5X5X5X5X-X-X-X-X:X:X:X<X<X<XwXwXpXpXc ",
"5X5X5X5X6X6X6X6X6X6X7X7X7XsXsXsXsXaXpXpXpXpXpXpXpXpXpXpXwXwXwXwXwXwX<X<X<X:X:X:X=X=X&Xi.i.i.i.e.q.0.0.2.:.:.;.;.;.&.I I I I I M M M M M M b b v m b m m m m m m N N m N m N N N N N N N E E E E E E E E E R R R ( ( ) / ~ ~ { { m.N.N.N.N.N.N.N.J.J.`.].`.J.N.b.l i 4 2 2 2 2 2 2 2 2 2 2 2 2 2 2 2 2 2 2 5 e i l k.c.n.M.Z.T.T.[.[..X.X[.'.Y.U.U.U.C.C.C.C.C.C.C.C.B.B.B.B.M.M.M.V.V.V.V.V.b.b.b.b.z l l z z z z l ^ m.M.J.J.J.J.J.J.J.).jXjX|.S.o. .O.O.<.6.6.6.8.6.8.a.a.a.a.p.p.-X-X-X-X-XqX0XqX0X0X0XqXwXwX0X0XwXwXwXwXwXwXwXaXaXaXaXaXaXaXaXaXaXaXrXrXrXwXwXwXwXwXwXwXwXwXqXqX:X<X<X<X<X:X0X:XqXqXqXqX:X:X0X0XqXqX-X-X-X5X5X5X-X-X-X-X-X-X5X5X5X5X5X5X-X-X-X-X-X-X:X:X:X<XwX<XwXwXwXpXc ",
"5X5X5X5X6X6X6X6X6X6X7X7XsXsXsXsXyXaXpXpXpXpXpXpXpXpXpXwXwXwXwXwXwXwXwX<X:X:X:X:X=X=Xi.i.i.i.i.e.q.0.0.0.:.:.;.;.;.&./ I I I I M M M M M M M b b m m m m m m m m m m m N m N N N N N N N E E E E W W E E E R R R R ( ) / / ~ { { #.m.N.m.N.N.N.N.J.J.J.`._.J.N.N.^ i 3 2 2 2 2 2 2 2 2 2 2 2 2 2 $ $ 2 2 2 2 5 i l k.c.M.B.U.U.Y.[.[.[.[.[.'.U.U.U.C.C.C.C.C.C.C.C.C.C.B.B.B.B.M.V.M.V.b.b.b.b.b.b.^ z z z z z z z z ^ m.M.J.J.J.m.N.J.J.].jXjXjXG.#.` ..] ] 6.6.6.8.6.8.a.a.a.a.L.L.-X-X-X-X-XqX:XqXqXqX0XqXqXwX0X0X0XwXwXwXwXwXwXwXrXaXrXaXaXaXaXaXaXrXrXwXwXwXwXwXwXwXwXwXwXwXqXqX:X<X<X<X<X:X:X:XqXqXqXqX:X:X:X:XqXqX-X-X-X-X5X5X-X-X5X-X-X-X-X-X-X-X5X5X-X-X-X-X-X-X:X:X:X:XwX<XwXwXwXpXc ",
"5X5X5X6X6X6X6X6X6X6X6X7XsXsXsXsXsXsXyXyXpXpXyXyXpXpXpXpXwX0XwXwXwXwXwX<X:X<X:X:X-X=X=Xi.i.i.i.q.q.q.q.0.0.:.;.;.=.&./ I I I I I I I M M M M M m m m m m m m m m m m m m m N N N N N N N E E E E E E E E E E R R R R / / / ~ ^ ^ ^ %.m.m.m.m.m.m.m.N.J.J.J.N.N.m.l i 4 2 2 $ $ $ 2 2 2 2 2 2 2 2 2 2 2 2 2 4 i l l x.M.B.U.U.U.'.[.'.[.'.'.Y.U.U.C.C.C.C.B.B.C.C.C.B.B.B.B.B.M.M.V.b.b.b.b.b.b.%.z z z z k k z z z z ^ m.N.N.M.N.b.N.J._.].|.jXjX).#.` ..] <.6.6.6.8.6.8.a.a.a.a.L.L.-X-X-X-X-XqX-XqXqXqX0X0XqXqX0X0X0XqXwXwXwXwXwXwXwXrXrXwXaXaXaXaXwXwXrXwXwXwXwXwXwXwXwXwXwXwXqXqXwXwX<X<X<X:X:XqX:X:XqXqX0X:X:X0XqX-X-X-X-X-X-X-X-X-X5X-X-X-X-X-X-X-X5X-X-X-X-X-X-X-X:X:X:X:XwXwXwXwXwXpXc ",
"6X5X6X6X6X6X6X6XyX6X7XsXsXsXsXsXsXyXsXyXaXyXyXpXpXpXwXqXqXqXqX0XwXwXwXwXwX<X:X:X>X=X=X&X&Xi.i.q.q.q.q.w.0.0.;.;.=.&.I I I I I P I I I M M M b m m m m m m m m q m m m m m N N N N N N E E E E E E E E E E R R R R R R R R / ) ^ ~ %.#.#.m.m.#.%.%.m.N.N.m.%.^ z k 8 4 3 2 $ $ $ $ $ $ 2 2 2 2 2 2 2 4 4 4 5 i l l x.n.B.C.C.U.'.'.'.'.'.'.Y.U.C.C.B.M.M.M.B.B.B.B.B.B.B.B.B.M.M.V.b.b.z z z ^ ^ l z z k k z z z ^ ^ %.m.m.N.m.b.m.N.J._.].|.jXkXjXS...O.O.<.6.8.6.6.8.8.8.a.L.a.L.L.-X-X-X-XqX-X-X-X0X0X0X0XqXqX0X0X0X0X0XwXwXwXqXwXwXwXwXwXwXaXaXwXwXwXwXwXwXwXwXwXwXwXwXwXwXwXwXwXwX<X<X<X<X0X:XqX:X:X0X0X0X:X0X0X-X-X-X-X-X-X-X-X-X-X5X-X-X-X-X-X-X-X5X-X-X-X-X-X-X-X:X:X:X:XwXwXwXwXwXpXc ",
"5X5X6X6X6X6X6X6XyXyXyXyXyXyXsXyXsXyXyXyXaXaXaXaXaXyXyXqXqXqXqXqXwXwXwXwXwXwX<X<X;X;X;X=X&X&X&Xi.y.q.w.w.w.1.1.;.=.&.Y I I I I I I I M M M M b b b b b n m m m m m m m N m N N N N N N N N E E R E E E E E E E E E E R R R R ~ ~ ~ ^ #.#.%.%.%.^ ^ ^ %.^ ^ z z k k 8 4 4 3 2 2 $ $ $ $ $ 2 2 2 3 3 4 4 4 4 5 x z l k.n.M.M.B.B.C.C.C.C.C.C.C.B.M.M.M.M.M.M.M.M.M.B.M.M.M.M.b.b.b.b.b.b.^ ^ l z z z z k k k z ^ ^ ^ ^ %.m.m.m.%.^ m.N.J._.).|.jXjXzX).@.{ O.5.6.6.6.6.6.8.8.a.p.p.L.p.-X-X-X-X-X-X:X0X0X0X0X0X0X0X0X0X0X0X0X0X0X0XpXpXpXpXpXpXwXwXpXpXpXpXqXqXqXwXwXwXwXwXwXwXwXwXwXwX<X<X<X<X<X0X:X:X:X:X:X:X:X:X-X-X-X-X-X-X5X5X-X-X-X-X5X-X5X5X-X-X-X-X-X-X-X-X-X-X-X-X:X:X:X:X<X<XwXwXpXpXc ",
"6X6X6X6XyXyXyXyXyXyXyXyXyXyXsXsXsXsXyXyXaXaXaXaXyXyXyXqXrXrXrXrXqXwXwXwXwXwX<X<X;X;X;X;X&X%X&Xy.y.w.q.w.w.1.1.;.=.&.Y I I I I I I I M M M M b b b b b m n m m m m m m m N N N N N N N N N E E R R R E E E E E E E E R R R / ) ~ ~ { o.o.o.%.%.z z z z z z k x 8 8 8 4 3 3 2 2 $ $ $ $ $ $ $ $ 2 2 3 4 4 4 4 x z z k.b.n.n.b.n.n.n.n.M.M.M.M.M.M.n.n.M.M.M.M.M.M.n.n.n.b.b.b.b.b.x.x.^ l ^ z z k 8 8 8 x k z z ^ ^ ^ %.%.%.^ ^ ^ m.N.G._.).|.jXjXzXjXH.O.{ O.5.5.6.8.6.6.8.a.p.p.p.L.p.-X-X-X-X5X:X:X:XyX:X0X0X0X0X0X0X0X0X0XqXqXqXqXwXwXwXwXqXqXpXpXpXpXqXqXqXwXwXwXwXeXwXwXwXwXwXwX<X<X<X<X<X0X:X:X:X:X:X:X:X:X-X-X-X-X-X5X5X5X5X-X-X-X-X5X5X5X-X-X-X-X-X-X-X-X-X-X-X-X:X:X:X:X<X<XwXwXwXpXc ",
"yXyXyXyXyXyXsXsXsXsXsXsXsXdXdXdXsXsXyXyXaXaXyXaXyXyXyXyXrXrXrXrXwXwXwXwXwXwXwX<X<X;X;X;X;X%X&Xy.y.q.q.w.w.1.1.;.=.&.Y I I I I I I I M M M M b b b b b m n m m m m m m N N N N N N N N N N E E R R R E E E E E E E R R / R / ) ) ~ ~ { { o.#.^ z z z z z k x 4 4 4 4 3 2 $ $ $ $ $ $ $ $ $ $ $ $ 2 3 4 4 4 4 5 x z z l k.k.k.k.k.k.x.x.b.n.n.x.x.b.b.n.n.n.n.n.n.n.n.n.n.b.b.b.x.l l z z z z x x 4 4 8 8 k k z z ^ ^ ^ ^ ~ k ^ ^ @.N.H._._.).|.jXzXlX).A.{ O.5.5.6.8.6.8.8.a.p.L.p.p.p.-X-X-X-X-X-X-X:X0X:X0X0X0X0X0X0X0X0X0X0X0XqXqXqXqXwXqXqXqXwXwXwXwXqXqXqX0XwXwXwXwXwXwXwXwX:X:X:X:X:X:X:X:X:X:X:X:X:X:X-X-X-X-X-X-X-X-X5X5X-X-X-X-X-X-X-X-X-X-X-X-X-X-X-X-Xp.p.-X-X:X:X:X:X<X<XwXwXwXpXc ",
"yXyXsXsXsXdXdXdXdXdXdXdXdXdXdXdXsXsXyXyXaXaXaXyXaXaXyXyXrXrXrXrXwXwXwXwXwXwXwX<X<X<X;X;X=X&X&X&Xy.y.q.q.w.1.1.1.=.&.Y I I I I I I I M M M b b n b b m m n n m m m m m m m N N N N N N N N E E R R E E E E E E E E E R R / / / ) ~ ~ ^ { #.#.^ z z z z z k x 4 4 3 3 2 $ $ $ $ $ $ $ $ 2 2 2 2 2 2 3 3 4 4 4 5 5 x z z z l l l l k.k.x.x.x.x.k.k.x.x.x.b.b.n.b.n.n.n.n.n.b.b.b.x.l l z z z x 8 8 4 4 8 g k k z z ~ ^ ^ z k k ^ ^ #.m.N.G._.).|.jXxXzXjXD.O.O.5.5.8.8.6.8.t.a.L.p.p.p.p.-X-X-X-X-X5X:X:X0X0X0X0X0X0X0X0X0XqXqXqXqX0X0X0XqXqXqXqXqXqXqXqXqXqX0X0X0XwXwXwXwXwXwXwXwX;X:X:X:X:X:X:X:X:X:X:X:X:X:X-X-X-X-X-X-X-X-X5X5X-X-X-X-X-X-X-X-X-X-X-X-X-X-X-X-Xp.p.-X-X:X:X:X:X<X<XwXwXwXpXc ",
"yXyXyXyXsXsXsXsXsXsXsXsXsXsXsXsXsXsXyXsXyXyXyXyXaXaXaXaXaXaXrXqXqXwXwXwXwXwXwX<X<X<X;X;X=X=X&X&Xi.y.q.q.w.w.1.1.;.&.&.I I I I I I I P H M M b b m m m m n n m m m m m N N N N N N N N N N E E R E E E E E E E E E } R R / / ~ / ~ ^ ^ { #.@.%.z z z z z k x 4 3 3 3 2 2 $ $ 2 2 2 2 2 2 3 3 3 3 4 4 4 4 4 4 5 5 x z z z l l l k.k.k.k.k.k.k.k.k.x.x.x.x.b.b.b.b.b.b.b.b.b.z z z l z z k x 8 4 4 4 8 8 k z z z z ~ k k k k ~ ^ %.#.@.N.H._._.|.|.lXzXxX).5.O.5.5.6.8.6.6.6.8.L.L.a.p.p.-X-X-X-X-X5X5X:X0X0XyX0X0X0X0X0X0XqXqXqXqX0X0X0X0X0X0X0X0X0X0X0X0X0X0X0XqX0XqXqXqX:X:X:X:X:X:X:X:X:X:X:X:X-X>X-X-X-X-X-X-X-X-X-X-X-X-X-X-Xp.p.p.p.-X-X-X-Xp.p.p.p.-X-X-X-Xp.L.-X-X:X:X:X:X<X<XwXwXwXeXc ",
"yXyXyXyXyXsXyXyXdXdXdXdXdXsXsXsXsXsXyXyXsXyXaXaXyXaXaXaXaXaXaXaXqXwXwXwXwXwXwXwX<X;X;X>X=X=X&X&Xi.y.q.q.w.w.1.1.;.&.&.I I I I I I I P H M M m b m m m n n n n m m m m m N N N N N N m N N E E R E E E E E E E E E } E } ~ / ~ ) ) ` ) { o.@.#.%.%.%.^ z z x 8 8 4 4 4 3 3 3 4 4 4 5 5 8 i x x x k k x x x x z z z z l l l l l k.k.k.k.k.k.k.k.k.k.x.x.x.x.b.b.b.b.b.b.b.x.z z z z z k 8 4 4 4 4 4 7 8 g k z z k k k k k k ~ ^ ^ #.@.N.H._.).|.|.jXxXxXjXG.@.O.5.6.8.6.6.8.8.a.L.L.a.p.p.p.-X-X-X-X-X:X0X:XyX0X0X:X:X:X:XqXqXqXqX0X0X0X0X0X0X0X0X0X0X0X0X0X0X0XqXqXqXqXqX;X;X:X;X:X:X:X:X:X:X>X>X-X-X-X-X-X-X-X-X-X-X-X-X-X-X-X-Xp.p.p.p.-X-X-X-Xp.p.p.p.-X-X-X-X-Xp.5X5X5X:X:X:X<X<XwX<XwXeXc ",
"yXyXyXyXsXdXsXsXdXdXdXdXdXdXdXsXsXsXsXyXsXsXyXaXyXaXaXaXaXqXaXaXqXwXwXwXwXwXwXwX<X<X;X>X=X=X=X&Xi.y.q.q.w.w.1.1.;.&.&.Y I I I I I I P P M M b b m m m n n 0 n m m m m m N N N N N N N N E E E E R E E E E E E E E E E } } ~ ~ / ~ { ) ^ { #.m.#.#.%.^ ^ z z k k i k k z l l k.x.c.n.n.M.M.M.M.B.B.B.B.B.B.B.M.M.n.b.x.x.x.k.k.k.x.x.x.x.x.x.x.x.k.k.x.x.x.x.b.b.b.b.b.x.z z z z z x 8 4 4 4 4 4 7 8 8 g k k k k k k k k h ~ ~ { #.#.N.H.G.).|.|.jXjXxXxX).S.#.5.6.8.8.8.8.8.a.L.p.a.a.a.p.p.-X-X-X5X5XyX-X0X0XqX-X-XqXqXqXqXqX0X0X0X:X:X0X0X0X0X0X0X0X0X0X0X:XqX;X;X;X;X;X;X>X>X:X:X:X:X>X>X>X>X-X-X-X-X-X-X-X-X-X-X-X-X-X-X5X5Xp.p.p.p.p.p.p.p.p.p.p.p.p.p.p.p.5X5X5X5X-X:X:X:X<X<X<X<XwXpXc ",
"sXsXdXdXdXdXdXdXdXdXdXdXdXdXdXdXsXsXsXsXsXsXyXaXyXaXaXaXrXaXaXaXrXwXwXwXwXwXwXwX<X;X;X>X=X=X=X&Xi.y.q.q.w.w.1.1.;.&.&.Y I I I I I I I H M b m n n n n 0 0 0 n n m m m m N N N N N N m N E E E E R R E E E E E E E E E } } ~ ~ R / ) ) ^ ^ o.m.m.m.%.%.^ ^ ^ ^ ^ ^ m.M.J.U.U.'.{..XXXXXMXMXMXMXXXMXmXVXVXVXmXXX}.'.`.U.C.C.M.n.n.n.n.n.b.x.x.x.x.k.k.x.x.x.x.x.x.k.z z z z z z z x 8 4 3 3 3 4 4 8 8 8 g g k k g g g k h k k ~ { #.@.N.H.G.).|.|.jX|.lXzXjXH.#.5.5.8.8.8.8.D.L.L.L.L.a.a.p.p.-X-X5X-X5XyX5XyXqX5XqX-X-XqXqXqXqXqX0X0X0X:X0X0X0X0X0X0X0X0X0X:X:X:X;X;X;X;X;X>X>X>X>X>X>X>X>X>X>X>X-X-X-X-X-X-X*X*X-X-X-X-X*X*X-X-Xp.p.p.p.p.p.p.p.p.p.p.p.p.p.p.p.5X5X5X5X-X:X:X:X<X<X<X<XwXpXc ",
"dXdXdXdXdXdXdXdXsXsXsXsXdXdXdXdXsXsXsXsXsXsXyXyXyXaXaXaXrXrXrXrXqXqXrXwXwXwXwXwX;X;X;X;X=X=X=X&Xi.i.y.y.q.w.1.1.;.=.&.&.&.I I I I I H M M b m n n n n 0 n 0 n n m m m m m N N N N N N E E E E E R R R R E E E W } } E E E ~ ~ ) ) ) ~ ~ ^ { o.#.m.m.#.%.m.#.m.J.J.U.].{.}.}.MXMXMXMXXXXXXXXXXXXXMXMXMXMXMXMXmXmXoXXX[.[.'.'.Y.U.B.B.B.M.n.n.x.x.l l l x.x.x.x.x.k.z z z z z k x 8 4 3 3 3 4 4 4 8 j g g g g g g g g g g g h ~ ~ %.o.@.S.G._._.).|.|.lXzXxX).@.O.5.5.8.D.D.8.L.L.a.a.p.p.p.p.5X-X-X-X-X-XyXyXyXyX-X-XqX-XqX-XqXqX:X:X:X:X:X:X:X:X:X:X:X:X:X:X:X:X=X>X>X>X=X=X=X=X-X-X-X-X*X*X*X*X-X-X*X-X-X-X-X-X*X*Xp.p.p.p.p.p.p.p.p.p.p.p.p.p.p.p.p.p.p.p.p.p.L.L.*X5X:X6X:X<X:X<X7X<X<XpXc ",
"dXdXdXdXdXdXdXdXsXsXsXsXdXdXdXdXsXsXsXsXsXsXsXyXyXaXaXaXrXrXqXrXqXqXrXwXwXwXwXwXqX;X;X;X=X=X&X&Xi.i.i.y.q.w.0.1.;.=.&.&.&.I I I I I H H M b M M n n n 0 0 0 n n m m m m m N N N N N N E E E E E R R R R E E W W } } W E ^ } ~ ~ ) ) ~ ~ ^ { o.#.%.m.%.#.N.N.N.J.`.].{.}.}.}.}.[..X.X.X.X[.[.[.[.[.[.}.}.XXXXXXXXMXXX.X.X[.[.'.'.U.U.U.B.M.n.x.x.l l l x.x.x.x.b.z z z z k x 8 8 4 4 4 3 3 4 4 7 8 8 8 j j j j j g g g g g k ~ ~ %.o.@.S.G._._.).|.|.lXzXzXjXH.5.5.5.6.8.8.6.8.8.a.a.p.p.p.p.5X5X5X-X-X5X-XyXyXyXqXqXqXqX-XqXqXqX:X:X:X:X:X:X:X:X:X:X:X:X:X:X:X:X:X;X=X>X-X=X=X=X-X-X-X*X*X*X*X*X*X*X>X*X*X*X*X*X*X*Xp.p.p.p.p.p.p.p.p.p.p.p.p.p.a.a.p.p.p.p.p.p.p.L.*X5X6X6X7X7X:X<X7X<X<XpXc ",
"sXdXdXdXdXdXdXdXdXsXdXdXdXdXdXdXsXsXsXsXsXsXsXsXyXaXaXaXaXaXaXqXqXqXaXqXwXwXwXwXqXqX:X;X=X=X&X&X&Xi.i.y.q.w.0.1.;.=.&.&.&.I I I I I H H M M n n n n n n 0 0 0 0 0 0 m m m m N N N N N A A H E E R R E E E E W W W E W W E E } ~ ) ) } ~ ^ { { #.%.#.%.#.N.H.H._.`.].{.}.{.{.'.'.'.'.'.'.'.'.'.'.'.'.'.{.[.[.[..XoXoX.X.X.X[.[.'.{.'.U.U.B.M.n.x.x.l l ^ l l l l z z k k x 8 4 4 3 4 7 4 3 3 4 7 8 8 8 q q q q j g g g g g R ~ ~ %.#.@.N.H._._.).|.|.jXxXzXxX).S.5.5.5.A.D.8.8.8.L.L.L.p.p.L.5X5X-X-X-X5X-X-XyXyXyXyXyXyXqXqXqXqX0X:X:X:X:X0X0X0X:X:X:X:X:X:X:X:X-X-X:X=X=X=X=X=X>X*X*X*X*X*X*X*X&X&X&X&X&X&Xp.p.p.p.p.p.p.p.p.p.p.p.p.p.p.p.p.p.p.p.p.a.p.p.p.p.p.p.5X*X:X6X7X7X:X<X7X<X<XpXc ",
"dXdXdXdXdXdXdXdXdXdXdXdXdXdXdXdXsXsXsXsXsXsXsXsXyXyXaXaXaXaXaXaXqXqXyXwXrX0XwXwXwXqXqX:X;X=X=X=X&Xi.i.y.q.w.0.1.;.=.&.&.&.I I I I I I H H M n n n n n 0 0 0 0 0 0 0 m m m m N N N N m A A H H E E E E E E E E E W W W W W E } } } } ) } ~ ^ ^ { #.m.%.%.m.N.N.N.J.J.`.].].`.U.U.C.C.C.C.C.U.U.U.U.U.U.Y.'.{.[.[..X[.[.[.[.[.'.'.'.'.U.B.B.B.n.x.x.l l z z z z z z k x 8 8 8 4 3 3 3 3 4 4 4 3 7 8 8 8 8 q j g g a g g g g R ~ ` { o.@.N.H.G._._._.|.|.jXxXzXjXH.A.5.8.D.L.D.L.L.L.L.L.L.L.5X5X5X5X5X-X-X-X5XyXyXyXyXyXyXqX-X-X-X0X:X:X:X:X0X0X0X:X:X:X:X:X:X:X-X-X:X:X=X=X=X=X=X>X>X>X>X*X*X*X&X&X&X&X&X&X&Xi.i.p.p.p.p.p.p.p.p.p.p.p.p.p.p.p.p.p.p.p.p.p.p.p.p.p.p.*X5X*X6X6X7X:X<X7X7X7XpXc ",
"dXdXdXdXdXdXdXdXdXdXdXdXdXdXdXdXdXdXsXsXsXsXsXsXyXaXaXaXaXaXaXaXrXrXaXwXwX0XwXwXqXqXqXqX:X=X-X=X&X&Xi.y.q.w.0.1.;.=.&.&.&.Y I I I I I H M M n n n n n 0 0 0 0 0 0 0 q m m m m N N N m m A D D E E E E E E E E E E E W W W E E E } } } } R ~ ^ ^ m.N.#.^ @.m.@.m.N.N.J.U.U.U.C.M.M.M.M.M.B.M.M.B.C.C.C.U.Y.'.'.'.'.'.'.'.'.'.'.'.U.U.U.M.n.n.x.x.l z z z k x x k k 8 7 3 3 3 3 3 - - 3 3 4 7 8 8 8 8 7 q q q g g a g g g D R ~ ` o.o.#.N.N.H._._._.).|.|.xXzXxX).A.5.6.D.F.F.L.L.L.L.L.L.L.L.5X5X5X5X5X5X5X5XyXyXyXyXqXqX-X-X-X-X:X:X:X:X:X:X:X:X:X:X:X:X-X-X-X-X=X=X=X=X-X=X-X-X>X&X*X*X&X&X&X&X&X&X&X&Xi.i.i.i.r.r.r.r.p.r.t.t.p.p.p.p.p.p.p.p.a.p.p.p.p.p.p.p.p.p.p.*X6X6X6X6X<X<X7X<X7XpXc ",
"dXdXdXdXdXdXdXdXdXdXdXdXdXdXdXdXdXdXsXsXsXsXsXsXaXaXaXaXaXaXaXaXrXrXaXyXwX0XwXwXwXwXqXqXqX=X-X-X&Xi.i.y.q.q.0.0.;.;.&.&.&.Y I I I I I H M M M n n n 0 0 0 0 0 0 0 0 m q m m N N N m q m A D D E H H E E E E E E E E E E W W E E } } } } R R ^ ^ A.J.m.~ %.@.#.m.N.N.N.B.B.B.M.n.n.n.n.M.M.M.M.M.M.M.B.C.U.U.Y.Y.Y.Y.Y.Y.Y.Y.Y.U.C.B.M.b.x.x.^ l z z k k k x i k 8 8 3 - $ $ $ - $ $ - 3 7 8 g g 7 7 7 7 8 q q a d g g h J R ! ` ` o.#.@.N.N.H._._.).|.|.jXzXzXjXD.5.5.5.A.D.8.D.L.L.L.L.L.L.5X5X5X5X5X5X5X5XyXyXyXyXqX-X-X-Xa.-X-X:X:X:X:X:X:X:X-X-X-X-X-X-X-X-X=X&X=X=X&X&X&X&X&X&X&X&X&X&X&X&X&X&X&Xi.i.r.r.r.r.r.t.t.t.t.t.t.t.t.t.t.r.r.r.r.t.t.t.t.r.r.p.p.p.p.p.*X6X6X6X6X<X<X7X7X7XpXc ",
"dXdXdXdXdXdXdXdXdXdXdXdXdXdXdXdXdXdXsXsXsXsXfXfXaXaXaXaXaXaXaXaXrXrXrXqXwXwXwXwXwXwX0XqXqX-X-X-X&X&Xi.i.q.w.0.0.;.;.=.&.&.I I I I I I H M M M n n n 0 0 0 0 0 0 0 m q q m m y N N N q q k k E E E E E E E E E E E E E E W W E E W } } E E E ~ ^ H.P.m.~ ~ ^ %.#.m.b.b.b.n.n.b.x.x.x.n.n.n.n.n.n.n.n.n.M.M.B.C.C.U.C.Z.Z.Z.Z.Z.C.M.M.n.x.x.x.l z z x k k i 8 8 8 4 3 3 $ & & $ - & 3 7 7 8 q q q 7 7 7 7 7 6 a a g g D D R Q ! ` ~ { o.#.@.N.N.H._._.|.|.|.xXzXzXuXP.D.D.D.D.8.8.L.L.L.L.L.L.5X5X5X5X5X5X5X5X5XyX-X-X-X-Xa.a.a.a.-X-X-X-X-X-X-X-X-X-X-X-X-X-X*X>X&X&X&X&X&X&X&X&X&X&X&Xi.&Xi.i.i.r.i.r.r.r.r.r.e.r.r.r.r.r.r.r.t.t.t.t.t.t.t.r.r.t.t.t.t.t.t.r.r.p.p.p.*X6X*X:X>X<X<X7X7X7XpXc ",
"dXdXdXdXdXdXdXdXdXdXdXdXdXdXdXdXfXdXfXfXfXfXfXfXaXaXaXaXaXaXaXrXrXrXrXrXwXwX0XwXwXwXqXqXqX-X-X-X&X&Xi.i.y.q.0.0.;.;.=.&.&.Y I I I F I H M M M n n n n 0 0 0 0 0 0 m q q m 0 q q N q q q g k E E E E E E E E E E E E E E E W W W W } } E E E ~ { J._.m.E h E ~ ~ %.^ z ^ ^ x.x.x.x.k.x.x.x.x.x.x.x.x.x.n.n.n.M.M.C.Z.M.M.M.M.M.n.n.n.c.x.x.x.x.^ z k 8 8 8 4 4 4 3 - $ $ & $ $ $ - 7 g g q 7 7 7 q 6 7 7 6 a g g g g D J R ~ ! ` ~ ` %.o.#.N.N.H.G._.).|.|.jXxXzXzXjX).P.K.L.D.D.L.L.L.L.L.L.L.5X5X5X5X5X5X5X5X5X-X-Xa.a.a.a.a.a.*X*X-X-X-X-X-X-X-X-X-X-X*X>X>X>X&X&X&X&X&X&X&Xi.&Xi.i.i.i.i.i.i.r.r.r.r.r.r.e.e.r.r.e.r.e.e.e.e.r.r.r.r.r.r.r.r.r.r.t.t.t.t.t.t.p.p.p.*X6X*X:X>X:X<X7X<X7XpXc ",
"dXdXdXgXgXgXdXdXdXdXdXdXdXdXfXfXfXfXfXfXfXfXfXfXfXaXaXaXaXrXrXrXaXwXaXrXrXrXpXpXwXqX0X0XqX:X;X=X*Xi.i.r.r.q.w.0.1.;.;.&.&.&.I I I F H Z H H n n n n n 0 m m m 0 m m q m m m m m k g k k k k k E k k k g g g N N E N N N N N W } } } E E E E E #.).K.#.E 6 6 Q h ~ k k k k z l z z z z z l l l l l k.k.x.b.n.n.n.n.n.n.n.n.b.b.b.x.x.x.x.x.l z k i 8 8 8 8 3 = = & = & & # @ # & h g a 7 7 7 7 8 7 7 6 q a d d d g h R R ~ ~ _ ~ ~ ^ %.#.#.@.N.H.G._.).).|.jXlXzXzXzXlXuXuXiXuXuXL.L.L.L.L.L.(.yXyXyX6X6X5XL.L.L.L.L.a.a.a.a.a.a.5X-X-X*X*X-X-X:X>X>X-X>X>X>X>X>X&X&Xi.i.i.i.i.i.i.i.i.r.r.e.e.e.r.r.e.e.e.e.q.q.q.q.q.q.q.e.e.e.e.e.e.e.e.e.e.e.e.e.e.e.e.e.r.r.p.p.p.*X*X*X*X:X:X:X7X:X<XwXc ",
"dXdXdXgXgXgXdXdXdXdXgXfXdXdXfXfXfXfXfXfXfXfXfXfXaXaXaXaXaXrXwXrXaXwXaXrXrXrXwXwXqXqXqX0XqX:X;X=X*Xi.i.r.r.q.w.0.1.;.=.&.&.&.I I P F H Z H H n n n m n n m m m m m m q m m m q q q g k k k k g k k k k k g A E A m m N N N N N E E E E E E E E { P.).@.g 6 d ` a 7 7 7 7 3 3 4 8 4 4 8 8 i k k z z z z l l l k.k.x.x.x.k.k.k.k.l l W ^ ^ l z k k 8 3 3 3 3 = & = = * & X X @ 7 ~ g d 6 7 7 7 7 7 7 6 q q a d d d g h R R ~ ~ ~ ~ ~ ~ %.o.#.@.N.S.G._.).).|.jXlXzXzXzXlXuXuXiXiXuXuXuXyX5XL.L.L.L.L.L.L.L.L.L.L.L.L.L.L.a.a.a.a.p.-X-Xp.*Xp.*X*X-X-X-X*X*X>X&X>X&X&X*Xp.p.i.i.i.i.i.i.r.r.r.e.e.e.r.e.e.e.e.q.q.0.0.0.0.0.w.q.q.q.e.e.e.e.e.e.e.e.e.e.e.e.e.e.r.r.p.p.*X*X*X*X*X>X:X:X:X:X:XwXc ",
"dXdXgXgXgXgXdXdXdXgXdXgXgXfXfXfXfXfXfXfXfXfXfXfXfXaXaXaXaXaXwXwXaXaXaXaXrXrXrXwXqXqXqXqXqX;X-X=X*Xi.i.r.r.q.w.0.1.1.;.&.&.&.I I P F H Z H H M n n n n n m m m 0 q q q m q m q q q k k k q g g E k E E D A A A A g A E N N N N N N E E E E k E O.P.uXA.g 7 h o.j = = - & & $ $ 3 $ $ $ 3 3 4 8 8 8 8 i x x x z z l z l z z z z z k k k k k y 8 8 3 & $ $ $ # # # # @ X # : d D D 7 7 7 7 7 7 7 7 6 6 q a d d g g g h D R ~ ~ ~ ~ ~ ` %.o.#.#.@.S.H.G./.).).jXjXlXzXlXuX).P.P.uXuXuXuXuXuXuX(.(.L.5X5X5X5XL.L.(.(.L.L.a.a.a.a.a.a.a.a.a.p.a.i.i.i.*X*X>X>X&X&X&X&Xi.i.r.r.r.r.i.i.r.r.r.e.e.e.e.e.e.e.e.e.q.0.0.0.0.0.0.0.0.0.0.0.e.e.e.e.e.e.e.e.e.e.e.e.e.e.e.e.p.p.p.*X*X*X*X*X:X:X:X:X:X<Xc ",
"dXgXgXgXgXgXgXgXgXgXgXgXgXgXfXfXfXfXfXfXfXfXfXfXfXfXaXaXaXaXrXrXaXaXaXaXrXrXwXwXqXqXqX0XqX:X-X-X*Xi.i.r.r.q.w.0.1.1.;.=.&.&.Y I I F F Z H H M n n m n n m 0 m m q q q q q m q q q q k k A q A A E E E E E A A A E E E E E N N E y E E E E g R A.).uXA.g 7 h +.J 6 = # X @ @ @ @ $ $ $ $ $ $ $ 3 3 3 3 4 4 4 4 4 8 8 8 8 8 8 8 8 8 8 8 8 w 3 3 3 & $ @ # # @ X X X X % 7 ) ` a * : = > > 7 7 6 6 6 6 q a d g g g h h R R ~ ~ ~ ~ ~ ~ ` { o.#.#.@.N.S.H._.).).jXjXzXlXlXjXuXuXuXuX5XuXuXuXuXuXuXuXL.L.L.L.L.a.a.8.L.L.8.8.8.8.8.8.e.i.a.a.a.a.i.i.i.&X&X&X&X&X3X&Xr.r.r.r.r.r.r.r.r.r.e.e.e.e.e.e.e.e.e.e.0.0.0.0.2.2.0.0.0.0.0.0.0.e.e.e.e.e.e.e.e.e.e.e.e.e.e.e.r.p.p.*X*X*X*X*X>X>X:X:X:X<Xc ",
"gXgXgXgXgXgXgXgXgXgXgXgXfXfXfXfXfXfXfXfXfXfXfXfXfXfXfXaXaXaXaXaXaXaXaXaXaXrXwXpXqXqXwX0XqX:X-X-X*Xi.i.r.r.q.w.0.0.1.;.=.=.&.&.I I F H Z H M n b n n n n m 0 0 0 q q q q q q q q q q q q N N y E E E E E E E g g k k g q y k E E y E E E E k ^ I.).).A.~ 7 q O.@.J a = # # X X @ @ @ @ @ @ @ @ $ @ $ $ $ $ $ 3 3 3 3 3 3 3 3 3 3 3 3 3 & $ & # @ @ X X X @ X X X @ w Q Q d 7 : : : > > > , 6 6 6 6 6 q d d g g g D D J R ~ ~ ~ ~ ~ ~ ` ` { %.o.#.@.S.H.G._.).|.jXjXjXlXlXlXuX).uXF.F.F.L.(.(.(.uXyXyXL.L.a.8.9.7.7.7.7.7.5.8.9.8.6.9.8.a.a.a.p.p.i.i.i.r.r.r.&Xr.r.r.r.r.r.r.r.r.r.r.e.e.e.e.e.e.0.0.0.0.0.2.2.2.2.2.0.0.0.0.0.0.0.0.0.0.0.0.0.0.0.0.e.e.e.e.e.e.t.r.p.p.*X*X*X*X*X>X:X>X>X:Xc ",
"gXgXgXcXgXcXgXgXgXgXgXgXfXfXgXfXfXfXfXfXfXfXfXfXfXfXfXaXfXaXaXaXaXaXaXaXaXrXaXpXqXqXwX0XqX:X-X=X&Xi.i.r.r.q.w.0.0.1.;.=.=.&.&.I I F H Z H M n b n n n 0 0 0 0 0 q q q q q q q q q q q q N N N N y N E g k g g g q q q q y k k k k E E E E E { P.uX).A.O.q 7  .L.L f L d * X @ @ @ X X X @ @ @ @ @ @ @ # $ $ & & 3 3 3 3 3 3 = = = & $ & @ @ @ @ @ X X X X   X X w Q 5.( : # = > > > > > , > > > 6 q q d d g g g D D J R Q ~ ~ _ ~ ~ ~ ~ ~ ` o.o.N.S.H.G.).).).iX/./.).lXlXjXuXuXK.D.S.5.4.9.F./.uXuX(.(.F.8.7.7.+.+.+.+.+.4.5.5.5.9.8.8.a.a.a.a.r.i.r.r.r.r.r.q.e.e.e.e.e.e.e.e.e.e.e.e.e.q.0.0.0.0.0.2.2.:.2.2.2.2.2.2.0.0.0.0.2.2.0.0.0.0.0.0.0.0.0.0.e.e.e.e.r.r.p.p.*X*X*X*X*X>X:X>X>X>Xc ",
"gXgXgXcXcXcXcXgXgXgXgXgXgXgXfXfXfXfXfXfXfXfXfXfXfXfXfXfXaXaXaXaXaXaXaXaXaXrXpXaXqXqXqX0XqX:X:X=X&X&Xi.i.q.q.w.0.0.1.;.;.=.=.&.I I F H H H M n b n n n 0 0 0 0 0 q q q q q q q q q q q m N N N N y y y y q q q 0 8 q g k k k k k k E E k k E #.uXuX).D.O.d > ! F.f , L ! > * = @ # @ @ @ X X @ @ @ @ # # # & & & = = = = = & & & # # # @ @ @ @ @ # @ X X   X # = K _ K 9 : : : : > > , , > > > > 6 6 q d d g g g D D J R Q ~ ~ ~ ~ ~ ` ` ~ ~ { o.@.N.S.G./.).).)./.F.K.iXlXlXlXlXuX).G.S.$.7./._.).uX(.(././.F.F.F.H.S.S.7.@.@.5.7.7.7.7.9.8.a.a.t.e.r.e.r.r.r.r.e.e.e.e.e.e.e.e.e.e.e.q.0.0.q.0.2.2.:.2.;.;.;.;.1.1.1.1.1.1.1.1.2.2.2.2.2.2.2.0.0.0.0.0.e.e.e.e.r.r.r.r.r.p.*X*X*X*X>X>X>X:Xc ",
"gXgXcXcXcXcXcXcXcXcXgXgXgXgXgXgXfXfXfXfXfXfXfXfXfXfXfXfXaXaXaXaXaXaXaXaXaXrXpXpXqXqXqX0XqX:X:X=X&Xi.i.i.q.q.w.0.0.1.;.=.=.=.&.I I F H H H M n b n n 0 0 0 0 0 q q q q q q q q q y q q q y N N E y y y q q q q q 8 q k E ^ z k k k E E k k E #.lX).).D.O.q > ! 7.X.a L 4.K ! ` 7 : = & # @ X X X X X X X # # # # # # # # # # @ @ @ X X X X X X X X X X X X # 7 D ..Q 9 % % > 7 > > > > > > > > , 6 6 q d d g h h J J J R Q ~ ~ ~ ~ ~ ` ` ~ ~ ` o.#.@.A.H.G./././.7.....D./.).).jXkXjX).G.F._.|.jXxXxXxXxXxXxXxXxXjXjX|.)._.G.H.H.$.$.@.5.5.7.8.a.6.t.e.r.r.e.e.e.q.0.2.2.0.0.0.0.e.e.e.q.0.0.q.0.2.2.:.;.;.;.;.;.;.;.;.;.1.1.1.1.2.2.2.2.2.2.2.2.2.0.0.0.e.e.e.e.r.r.r.r.r.r.*X*X*X*X>X*X>X>Xc ",
"gXgXcXcXcXcXcXcXgXgXgXgXgXfXgXfXgXgXfXfXfXfXfXfXfXfXfXfXaXaXaXaXaXaXaXaXrXrXwXpXwXwXqXqXqXqX:X-X&Xi.y.y.q.q.0.0.1.1.;.;.;.=.Y Y I I F H H b n n n n 0 0 0 0 0 q q q q q 0 0 0 0 y k g g g q k q E k g q q q g g E #.I.P.].J.m.W k E E q q E A.jXP.P.5.5.5.9 : _ 4.s s L _ 4.F.O.{ Q q = # X X X X X X X X X X X X X X X X X X X X X X X X   X X X X X X % s ( ] > : * = : 7 7 > > > > > > > f.a a a a d d g g h h D J J Q ~ ~ ~ ~ ~ ~ ~ ` ` ` `  .o.+.7.H.H.H.S.F.7...~ ` m.A.N.J.|.kX|.|.xXKXKXLXLXLXLXLXLXLXLXLXLXKXSXxXjX)._.).G.7.@.5.7.8.9.8.4.6.e.e.e.e.e.e.0.2.2.2.2.<.2.2.e.e.e.<.2.:.0.2.<.<.;.2.1.1.1.,.,.1.1.1.1.1.1.1.1.1.1.1.2.2.2.2.2.2.2.2.2.0.0.0.q.e.e.r.i.*X&X&X&X*X&X*X-Xc ",
"gXgXcXcXcXcXcXcXcXgXgXgXgXfXgXgXgXgXfXfXfXfXfXfXfXfXfXfXaXaXaXaXaXaXaXaXrXrXwXwXwXqXqXqXqXqX:X-X&Xi.y.y.q.q.0.1.1.1.;.;.=.=.Y I I I F H M b M n 0 0 0 q q q q q q q q q q q q q k q 0 q q q g k g q g k ~ m.J.P.kXzXZXZXZXkXU.b.k y q 0 E #.I.I.K.P.D.D.5.d = 9 8.F < 9 _ ....6.O.Q q = # X X X X               X   X   X   X X X       X X X X X X X : D ` D : * * % * : : : : 7 7 > > > 6 j a j a a d d g g h J J J J Q ~ ~ ~ ~ ~ ~ ~ ~ ` ` | `  .#.@.S.S.@.+.L.9.O._ o.A.J.J.B.].}.xXxXSXKXKXLXLXLXLXLXLXLXLXLXLXLXKXFXSXzXzXjX)./.G.H.D.7.5.5.4.8.8.6.4.6.<.2.2.<.<.6.6.0.2.<.0.0.0.2.2.2.2.<.<.2.;.1.1.1.1.=.=.=.=.,.,.,.,.1.1.1.1.1.1.2.2.2.2.2.2.2.2.0.0.0.q.e.e.r.i.i.&X&X&X*X&X*X-Xc ",
"cXcXgXcXcXcXcXcXcXcXgXgXgXgXgXgXgXgXfXfXfXfXfXfXfXfXfXfXfXaXaXaXaXaXaXaXrXrXwXwXwXwXqXqXqXqX:X-X=Xy.y.y.q.q.0.1.1.1.;.;.=.=.Y I I P F Z H n n n 0 9 w w w w q q g 0 0 0 q q q q q g g g q q 8 8 j g ~ N.).lXZXGXGXPXHXGXZXkXJ.x.W ^ ^ { I.uXP.m.5.I.D.D.D.G : = X.X., ; S _ _ 6.{ Q d > % @ X X                                       X X X X     % 7 D Q d : # * * * : : > : 3 7 7 6 6 6 j j j 9 a a d g g h D J J J Q Q ~ ~ ~ ! ~ ~ ~ ! _ `  .`  .o.#.#.#.o.o.L.7...~ #.H.J.J.B.`.XXSXKXSXSXSXSXKXLXLXLXLXLXLXKXKXKXKXLXKXLXLXFXZXzXlX|._.H.7.5.5.+.4.4.4.4.<.6.6.<.<.6.6.<.<.2.2.0.0.<.:.:.<.2.2.2.;.1.=.=.=.=.=.=.=.=.=.=.=.1.1.1.1.1.1.1.1.1.2.2.2.2.2.0.0.w.q.q.e.e.i.i.i.i.&X*X&X*X*Xc ",
"gXgXgXcXcXcXcXcXcXcXcXgXgXgXgXgXgXgXfXfXfXfXfXfXfXfXfXaXfXaXaXaXaXaXaXaXrXrXwXwXqXqXqXqXqX:X-X=X=Xy.y.y.q.q.0.1.1.;.;.;.=.=.Y I I I F Z b n n b 9 9 w w w w w w 9 9 q q q q q q g q q 8 8 8 g g %.H.|.zXGXLXLXPXGXPXPXHXMXU.c.^ W I.].jXlXkX).{ ) 5.A.5.D.] 7 ; , <.X.> , K ..` ` Q d w * @ X X                                   X o # o X X   % 9 Q K 7 % % * * = : > > 7 3 7 7 7 q g g a j j a a d d g h J J J J J Q Q ~ ~ ~ _ ! ~ ~ ~ _ ` ` ` ..o.` ~ ~ ` O.L.4.` ) #.N.B.B.`.}.SXKXKXSX@X X|.xXzXKXKXKXLXLXKXKXKXKXKXKXKXKXLXLXLXFXzXjX).).G.S.@.o.o.+.5.7.4.4.4.4.4.4.<.<.6.6.2.<.<.<.<.<.2.2.;.;.=.=.=.=.=.=.=.=.=.=.=.=.;.;.1.1.;.;.;.;.1.1.1.1.2.2.2.0.0.0.q.q.e.i.i.i.i.&X*X&X*X*Xc ",
"gXgXgXcXcXcXcXcXcXcXcXgXgXgXgXgXgXgXfXfXfXfXfXfXfXfXfXfXfXaXaXaXaXaXaXaXrXrXwXwXqXqXqX0XqX:X-X=X=Xy.u.y.y.q.0.1.;.:.;.;.=.&.I I P F H Z b n b 0 0 9 q w w w w q w 9 q q d g g g 6 7 7 7 j ~ N._.xXSXLXIXIXLXGXZXZXGXHXVXT.x.l W x.P.kXkXkXkX).{ / O.5.5.8.6.Q 9 * U (.4.9 f ` K Q D 0 7 * # X X X X X         X             X     X # X X X % : ) G d 7 : = = = = = - = = = 3 7 8 8 q g g g j 7 a d f g f J J K J K K K ! ! ! ! ! ~ ~ ~ ~ ! ` ` ` ....~ h D ` 7.F.4.) ~ ^ m.m.n.`.+XAXKXKXKX X_._.|.zXKXLXLXLXLXKXKXKXKXKXKXKXKXGXGXLXLXGXFXZXzXlXjX_.H.N.$.$.$.+.+.+.+.4.4.4.<.<.6.<.<.<.<.<.;.;.;.;.=.=.=.=.=.=.=.=.=.&.&.&.&.=.;.1.1.1.1.1.1.1.1.1.1.1.1.2.2.2.2.0.q.e.e.i.i.i.i.*X*X*X*Xc ",
"gXgXgXcXcXcXcXcXcXcXcXcXcXgXgXgXgXgXfXfXfXfXfXfXfXfXfXfXfXaXaXaXaXaXaXaXrXrXwXwXqXqX0X0XqX;X=X=X=Xy.u.u.y.q.0.0.2.:.;.;.=.&.I I F F Z Z b b b 0 0 9 q w w w w q 0 9 9 9 q q q j 7 j h %._.kXSXLXLXLXLXLXFXzXxXkXZXGXZX{.x.e e y m.J.J.P.jXzXuX{ ) O.5.O.5.8.O.S ; f.a.iX_ 9 S D D g q 7 * # X X X   X                   X   X X o X X   X % 9 ` ..g : * * = = : = - - = = 3 7 8 8 8 q k k g g j g f g f h J J K K K K Q ! ! ! ! ~ ~ ! ! ` ` ` ` ` ` ~ J g D o.D.L.4.` ^ ^ x.b.n.`.CXPXAXSXKX@X X_. XxXKXKXKXKXKX@XxXxXxXKXKXKXKXLXLXLXLXLXLXLXLXGXFXzXxXjX_.H.$.+.+. . .........<.<.<.<.<.<.<.-.-.;.=.;.=.=.=.=.=.=.=.=.&.&.&.&.&.&.;.=.=.1.1.;.1.1.1.1.1.1.1.2.2.2.0.q.q.e.i.i.i.i.*Xp.*X*Xc ",
"gXgXgXcXcXcXcXcXcXcXcXcXcXgXgXgXgXgXfXfXfXfXfXfXfXfXfXfXaXaXaXaXaXaXaXaXrXrXwXwX0X0XqXqXqX;X=X=X=Xy.y.u.q.q.0.0.2.:.;.;.=.Y I I I I Z Z b b b 0 0 9 q w w w q 9 w w > > 7 6 g h @.H.|.xXKXLXPXPXLXLXFXxX|.|.jXkXGXZX{.m.y p e u c.m.A.J.jXzXuX@.{ 5.A.5.O.6.4._ , : T (.(.K a D D d 7 7 * # @ X X X X               X X X X X X X X X % : s G Q 9 > : = = * = > = = > > 7 7 8 8 8 8 i i k k g g g f g f f h h J K K K Q ! ! ! ! ~ ! ` ` ` ` ! ! ` Q D g D ! O.5.8.O.` ^ ^ ^ x.b.'.CXDXDXSXKXSX X_._. X X X X X X X X@XxXKXKXKXSXGXGXFXFXGXLXLXLXLXLXLXLXFXxX|._./.F.+...X. .....<...X.X.<.<.<.-.=.=.;.=.=.=.=.=.=.=.=.=.&.&.&.&.&.&.&.&.=.=.=.;.;.;.;.;.1.1.1.1.1.2.0.0.q.e.e.r.i.i.*Xp.*X*Xc ",
"gXgXgXcXcXcXcXcXcXcXcXcXcXcXgXcXgXgXfXfXfXfXfXfXfXfXfXfXaXaXaXaXaXaXaXaXaXrXwXwXqX0X0XqXqX=X=X=X=Xy.y.u.q.q.w.1.2.:.;.;.=.Y I I I F H b n b b 0 0 9 q w w 7 9 q 9 9 9 9 Q $._.jXFXFXKXKXKXLXPXPXKXSXxX|.|.|.zXAXkXU.^ e 2 2 2 e k ^ A.P.jXlXP.m.{ #.I.A.O.5.6.` s : ; X.iX8.d d d d 7 > = # # X X X X X X           X X X X X X   X % 9 ) ..D 7 = * = > > = = = - - - 3 7 8 i i e e i i i k g g g f f f f f f f K K K K ! ! ! ! Q ~ ` ` ` ` ! ~ ` D d d Q ..4.5.4.` ) ~ ^ l k.n..XCXDXDXDXSX@X@X X X X X X X X X X@XxXKXKXKXKXzXzXzXlXzXZXGXLXLXLXLXLXLXLXFXZXzXjX|._.F.$.+.....+.X.X.X.<.<.<.] -.=.=.=.=.=.=.=.=.=.=.=.=.&.&.&.&.&.=.&.=.=.=.=.;.;.;.;.;.1.2.1.1.1.0.w.q.e.e.r.i.i.*Xp.*X*Xc ",
"cXcXcXcXcXcXcXcXcXcXcXcXcXcXcXcXfXfXfXfXfXfXfXfXfXfXfXfXfXfXfXfXaXaXaXaXaXrXwXwXwX0X0XqXqX=Xu.y.=Xi.y.y.q.q.w.1.1.1.1.=.Y Y F F F H b b b 0 9 9 9 9 9 9 > = 7 q q J 4./.jXzXFXLXLXLXKXKXKXKXKXKX@X X X XXXSXVX}.x.k 3 $ @ & 3 q { K.P.lXzXlXT.m.W A.I.m.@.A.#.O.` 9 * : <.uXL.K A 9 w w : % # # # # X     X X X   X o X X o o   o : ( 4._ s > : = : = : = = = - - - - - 4 i i j.j.j.g.g.i k g j f g g h h h h J J J J K J J J K ` Q Q ` ` ` ) _ d d D Q O.+.5.O... .` ~ W l k.k.Y.CXDXDX+X@X@XKXKXKXKXSXSXKXKXKXKXKXKXKXKXKX@X|._.@.#.).zXzXbXbXFXGXLXGXLXLXLXSXSXSXzXjX_.$.$.9.9.3.X.Y <.6.<.-.<.-.-.] ] ;.;.;.=.=.=.&.&.&.&.;.=.=.=.&.=.&.=.=.=.=.=.=.=.1.2.1.1.1.2.0.q.q.e.r.r.*Xr.*X*Xr.v ",
"cXcXcXcXcXcXcXcXcXcXcXcXcXcXcXcXfXfXfXfXfXfXfXfXfXfXfXfXfXaXaXaXaXaXaXaXaXwXwXwXwXwXqXqXqX=Xu.u.=X&Xy.y.q.q.w.1.1.,.,.Y U F F F F F H A n 0 9 9 0 9 7 w 7 6 g _ /.jXzXbXFXLXLXLXLXKXKXKXKXSXSXSX@X@X@XSXSXVXU.x.4 3 $ @ @ & q { I.P.P.lXkXuXT.m.W A.I.m.m.m.@.@.O.K > ; A L.(.8.d 9 9 w : % % % # # # X X X X X X X X o X   X % G U ( G 9 : = : : - - - - > > > - - - 3 4 i j.j.g.j.g.g.u i g a g g g h h h h J J J J K J J J K Q Q ` ` ` Q Q Q d D Q ` O.O.O.O. ._ ) E k l l l Z..XDXDXDXSX@X@X@XSXSXSXSXKXKXKXKXKXKXKXKX X X_.@.5.I.P.uXL.5XdXzXbXbXFXLXLXLXLXPXPXAXFXFXbXxX).9.9.X.X.X.<.<.<.] ] ] ] ] -.;.;.=.=.=.=.&.&.&.&.=.' =.' =.=.=.=.=.=.=.=.=.=.2.2.2.1.2.2.w.q.e.e.r.*Xr.r.*Xr.v ",
"cXcXcXcXcXcXcXcXcXcXcXcXcXcXcXgXfXfXfXfXfXfXfXfXfXfXfXfXfXaXaXaXaXaXaXaXwXwXwXwXwXwXqXqXqX=X=Xy.=X&Xy.u.w.q.0.1.1.,.Y Y U I F F A A Z 9 9 9 7 7 7 7 q g _ S.).lXFXLXLXLXLXKXLXLXLXKXKXKXKXKXKXSXSXAXAXSXMXU.z 3 @ @ @ @ & q 6.).P.P.P.lXzXP.J.m.W m.I.m.#.@.m.5.4...A ; ; G L.uX] H 9 : % % % % # # # # @ X X X X X o o X X < ' L...A > * % * : : : - - > > > 7 3 4 4 4 5 i j.j.h.h.h.g.g.l k g g g g h h h h h J J K K ! ! J J Q Q Q ` ` Q D D g Q O.O.O.` { O.` ` ) E k i i 5 k.n.'.XX+XSXAXSXSXSXSXSXSXSXSXKXKXKXKXKXKX X X_.H.I.D.D.5.6.L.uXuXL.(.xXFXFXFXFXAXLXLXLXLXLXFXzXxXiX).D.4.X.' ` ..] ` ` ] ` ' [ ' =.=.;.;.=.&.&.=.=.=.=.=.=.=.=.=.=.=.=.=.=.=.2.1.2.2.2.0.0.e.e.r.*Xe.r.*Xr.c ",
"cXcXcXcXcXcXcXcXcXcXcXcXcXcXcXgXfXvXfXfXfXfXfXfXfXfXfXfXaXfXaXaXaXaXaXaXwXwXwXwXwXwXqXqXqX=X=X&X&X%Xy.w.q.w.1.1.,.,.Y Y U U F F A Z 9 9 > w 9 7 q g o.).lXZXLXLXLXLXGXzXxXxXSXKXLXKXKXKXKXKXKXKXAXAXVX`.x.5 2 $ @ @ X * D 6.L.(.K.I.P.lXzXuXI.m.W ^ A.I.m.#.@.@.4.<.U , % : [ (.uXO.9 % % % % % % # # # @ X o # X o X   % F a.uX` S > * * * : : > - = > > > > 3 4 4 5 5 5 j.j.g.h.h.h.g.g.l k k g g h h h h h h J J K K ! ! J J ` Q Q Q ` Q d 9 Q ` O.O.{ ` { O.] ) ) E k 8 4 3 4 i k.n.C.}.VXSXSXSXSXSXSXSXSXSXKXKXSXSXSXSX@X}.xXjX).K.K.(.yXL.6.4.L.uXxXxXzXSXLXLXLXLXLXFXLXPXGXGXzXlX).8.+. .O...` ` ) ) ` ' ' ' ' =.;.=.=.=.=.=.=.=.=.=.=.=.=.=.=.=.=.=.=.=.2.1.2.2.0.0.q.e.q.r.q.r.r.r.c ",
"cXcXcXcXcXcXcXcXcXcXcXcXcXcXfXfXfXfXfXfXfXfXfXfXfXfXfXfXaXaXyXyXaXrXrXrXwXwXeXeXeXeXwXwXqX;X%X&X%Xy.w.w.w.w.1.1.1.,.,.Y U F Z s Z s s 9 s g ~ o./.).zXGXLXLXGXFXFXFXZXxX|.xXSXKXKXKXKXKXKXKXSXSXMX}.B.l 2 $ @ @ # # = f 4.(.yXL.8.A.).zXZXlXI.m.W W m.I.#.o.#.o.4.` [ G : % > ` (.8.K > % % * : * # # # % # o o X X X : <.hXyX<.9 : * ; : : : : : > > > > > > 3 4 5 i i j.j.g.h.h.v.h.g.k.l i k g g h h h J J J J J J Q ! ! J K ` Q Q Q D d d S ` ] ` ` ` ` ` { { ` ) E g 8 3 $ 2 4 8 i l b.B.`.}.oXVXSXSXAXDXDXDXSXSX@X@XKXKXKXZXFXzXxXxXjX(.+.4.(.iXjXjXxXbXLXLXxXxXGXPXPXHXPXPXHXGXGXFXxXiX(.7.@...` ! ` ..O.) [ [ [ -.-.-.;.=.=.=.=.=.=.=.=.;.;.=.=.=.=.;.=.1.1.2.2.2.0.0.e.q.r.q.r.r.r.c ",
"cXcXcXcXcXcXcXcXcXcXcXcXcXgXfXfXfXgXfXfXfXfXfXfXfXfXfXaXaXaXyXaXaXrXrXrXwXwXeXeXeXeXwXqXqX;X=X=X%Xy.w.w.w.w.1.1.,.,.d.U F Z s s > 6 s K  .F.jXxXGXLXLXPXPXSXzXkXSXAXAXSXSXAXKXLXPXKXKXKXSXSX}.|.M.W 8 2 $ @ @ X # > L 4.a.(.(.^.4.A.jXZXZXkXI.m.W y x.I.#.o.#.o.O.' ` ..S * * 9 ..L.L.` : o O % % # # % % o X X X % S (.gX(.Y s > : * ; : : : - > = = > > > = 3 5 i j.j.j.j.h.h.E.E.v.g.k.k.i l k h h h D J J J J J J ! ! ! J K K ( ` K 9 9 A ` O.` ` ` ` O.] ` ` ) R E q w & @ @ $ 3 4 4 i z x.M.B.`.[.oXCXDXDXDXDXDXSXSXSXSXSXAXLXLXFXzXxXjX).jXjXjXxXbXLXFXxXjX|.jXSXAXZXNXHXHXHXPXPXIXLXLXbXjX)./.$.o. .` ` ` ) ) ) ] ] -.-.;.=.=.=.;.=.;.=.;.;.=.=.;.=.=.=.=.=.2.2.2.2.0.0.0.r.q.r.r.r.c ",
"cXcXcXcXcXcXcXgXcXcXcXcXcXgXfXfXgXgXfXfXfXfXfXfXfXaXaXaXaXaXaXaXaXrXrXrXwXwXeXeXeXeXwXwXqX;X%X=Xy.y.w.w.w.1.1.d.d.d.U L s s f S s L 4.).jXbXLXLXLXLXPXPXAXSXVXVXSXAXPXKXKXPXPXAXPXAXSXkX|.`.b.z 8 3 @ @ @ @ @ @ : S 4.L.(.^.a.9.O.A.lXZXZXBXI.m.W y ^ I.#.{ @.o.O.......U 9 ; * Z 4.uXL.F ; o X # # # % # X # = 9 _ uXlX(.L , , > : = ; : : - - > = = = = 7 7 8 i g.j.g.j.g.h.v.Q.OXv.g.k.k.i u k g h D D D D J J J K K K K J K Q K D A d d Q O.] ` Q ( ` ] ` ` ) ) R R A 9 = # X @ @ $ $ 3 8 i z z k.n.C.'..XoX+XDXDXDXDXAXSXSXKXKXKXFXSXzXSXKXLXxXjXxXLXLXxX|.|.xXZXZXMX[.oXNXJXJXHXHXLXLXLXLXLXFXzXjX_.H.#.o.O.{ ) ( ) ] ) ) ;.;.;.;.;.;.;.;.;.=.=.=.;.;.;.=.;.;.;.2.<.2.0.0.2.e.0.e.r.r.c ",
"cXcXcXcXcXcXgXgXcXcXcXcXcXgXfXfXgXgXfXfXfXfXfXfXaXaXaXaXaXaXaXaXaXrXrXrXwXwXeXeXeXeXwXqX;X;X%X=Xy.u.w.w.1.1.1.d.Y U L S s s L  ./.).zXLXLXLXLXPXFXAXAXAXSXSXSXPXPXPXAXAXAXPXPXAXVXkX].B.b.z 4 $ & @ @ X X X % : G X.a.(.yX(.s.X.` 5.lXzXZXZXJ.m.x.y ^ A.{ o.N.#...O...[ U S < % ; S 6.a.<.Z ; X % # % % # # : G (.iXuX4.L s f.> ; * * = = - - > > = - - 3 3 8 i g.g.j.g.g.g.h.v.JXJXZ.g.k.g.e u k g g D D J J R J J K K ! K J K ` d w 7 G ` ] ` ` ( Q ` ` ` ` ` ) ) / Q R d w = # @ X @ @ @ & 3 4 5 i z l x.V.Z.[.oXCXDXDXAXAXAXKXSXSXKXKXFXSXSXLXZXzXLXSX|._.|.xXzXzX{.T.Y.Q.R.R.Y..XXXkXzXFXLXLXLXGXFXzXjX).P.@.o.~ R ) ) ) ( [ ;.;.;.;.;.=.=.=.=.=.;.;.[ ;.;.;.;.;.2.<.2.2.0.2.e.0.e.r.r.c ",
"cXcXcXcXcXcXcXcXcXcXcXcXgXfXfXfXfXfXfXfXfXfXfXfXfXfXaXaXaXaXaXaXaXaXrXrXwXwXeXwXeXeXwXwXqX=X=Xy.y.s.s.s.1.d.Y L Z s f L 7.).jXxXFXLXLXLXLXLXLXPXSXSXSXSXAXPXPXAXPXHXHXHXAXCXMX{.M.b.z 8 4 2 $ @ X X X X X % w A 6.8.L.uXL.8.3.X...G.jXZXZX].M.M.c.k W m.N.o.#.@.O...` ..<._ s * % ; 9 ' L.a.F O # @ o # : A 5.uXiX(...L s , > : ; ; = = * * - = - = = 3 8 8 i u g.j.j.g.g.g.v.Q.OXJXY.k.k.g.u u k g D ~ R R R G ! h D ! ` Q J ! a 9 d K ` ..` Q ` ` ` ` ` ` ` ` ) ) ) ( H s 7 : % # # X X @ @ @ @ $ 2 4 5 i l l k.k.V.`.[.+XDXAXKXKXSXKXKXKXKXKXKXKXKXKXxX}. XxXxX|.|.'.U.v.l.g.z.v.c.n.U.}.SXGXGXHXPXHXGXGXZXZXjX).H.m.#.~ ) ` [ [ ' ] -.-.-.[ [ [ ( ( ;.-.-.=.;.;.;.;.<.<.2.2.2.0.2.e.0.0.c ",
"cXcXcXcXcXcXcXcXcXcXcXcXgXfXfXfXfXfXfXfXfXfXfXfXfXfXaXaXaXaXaXaXaXaXaXrXwXwXwXwXwXwXwXqXqX=X&Xy.u.u.s.3.d.Y L L X.X.9.).xXzXFXLXFXLXLXLXLXLXLXLXKXAXSXAXPXPXPXAXAXAXCXmX[.U.b.l 8 4 2 @ @ @ @ @     X X O ; Z ' 8.L.(.yXL.6.6.O.5.K.lXFXGXMXT.J.M.l k m.N.@.@.@.+.O...O.4.O.G , O % : F 9.yXa.' % X X < ] P.iXjXL.4.L a > > : = = = = = * - = > = = 3 4 8 i y u g.g.g.v.v.v.Q.OXJXOXv.g.k.c.g.u k h D D D R R R J ~ Q D L ! Q d 9 s D Q ` ..` ` ` ` ` ` ` ` ` ` ) ) ) ( G Z 9 9 ; * % # X @ @ @ @ @ @ $ 2 2 4 5 5 5 z k.M.`.[.XXSXSXKXKXKXKXSXSXKXKXKXKXKX@X X}.xX}.{.'.C.v.l.z.g.l.v.Z.'.MXSXAXHXHXHXAXAXHXHXHXGXZXkX|._.N.#.o...` [ ( [ [ ` ] [ ( ( [ [ -.=.[ ;.;.-.-.-.<.<.2.2.0.2.e.0.0.c ",
"cXcXcXcXcXcXcXcXcXcXcXgXcXgXfXfXfXfXfXfXfXfXfXfXfXfXaXaXaXaXaXaXaXaXpXwXwXwXwXwX;X;X;X=X=Xu.u.u.u.s.,.d.d.d.s.9.).jXxXzXbXFXFXFXxXFXLXLXKXKXLXPXPXPXPXPXPXHXSXVX}.'.U.n.k.i 4 2 2 $ @ @ @ @ @ @   . o % : Z ' 9.L.L.P.L.8.6.6.5.K.).lXGXHXGXkXT.J.l y ^ N.S.N.$.5.4.O.4.7.5.[ A ; * ; , Y a.yXyXF < < ( 5XdXP.8...K s > > > - = = = = = = - = 7 = 3 3 5 i u u g.g.k.Z.Q.OXQ.Y.Q.OXZ.g.g.k.c.k.l k D D h D R Q ~ D ! ! J J J g 6 9 S _ ] ` ` ` ` ` ` ` ` ` ` ` ` ) ) ( ( G S Z s , : = % # @ @ @ @ @ @ @ @ @ $ $ 2 3 4 5 z k.n.V.`. XoXCXAXDXKXKXKXKXKXKXKXKXSXSX}.}.}.[.Y.Z.Z.v.v.Z.Y..XMXSXAXPXHXHXHXSXCXAXHXPXPXHXGXSXzXjX_._.7.+.` Q Q Q Q ( ( ( ( [ ] -.] [ -.-.-.-.:.<.<.<.<.2.2.0.2.2.c ",
"cXcXcXcXcXcXcXcXcXcXgXgXgXgXfXfXfXfXfXfXfXfXfXfXfXfXaXaXaXaXaXyXaXaXwXwXwXwXwXqX;X;X=X=Xy.u.u.u.3.d.d.,.s.(.iXxXFXbXzXxXxXxXxXxXkXZXAXAXAXAXLXPXAXAXAXAXAXVX].J.x.l i 4 3 2 $ $ @ @ @ @ @ X X X   o * , S Y 3.a.L.L.L.D.6.6.5.A.).uXjXFXPXHXMXT.T.l y ^ A.H.F.S.7.8.5.8.8.9...F , ; * ; s Y a.yXdXL.L.uXdXL.6.X.( S 6 - = - - - = = - - - - = > 3 4 5 i u g.g.j.g.v.OXDXNX.XY.Z.v.z.g.g.v.c.k.W k R R R R R Q Q J J ! ..! a 6 9 D Q ` ..` _ _ ` ` ` ` ` ` ` ` ` ) [ [ ( K G S S 9 9 > : * % % % & & # @ @ @ @ @ $ $ $ 2 3 4 k z x.n.C.'.XX+XAXDXAXAXKXKXKXKXKXKXSXVXVXoXoX.X'.Y.Q..XoXNXCXAXPXHXDXNXBX.X.XMXCXHXHXHXPXPXKXZXzXxX)._.N.#.| ~ ~ Q Q Q Q ( [ ] ] ] -.-.-.-.:.:.<.<.<.<.;.0.2.2., ",
"cXcXcXcXcXcXcXcXcXcXcXgXgXgXgXfXfXfXfXfXfXfXfXfXfXaXaXaXaXaXaXyXaXpXwXwXwXwX0X:X0XqXqXu.u.s.s.u.,.s.9.(.iXxXbXLXLXzXkX|.|.xXSXSXSXAXKXKXAXAXAXAXAXZXzXkX`.m.l i 4 3 $ $ @ @ @ @ X X X X X X X o % ; 9 K X.s.8.a.(.(.L.8.6.5.D.K.iXiXjXZXHXHXkXT.U.W y x.J.G././.H.K.K.K.L.8._ S , * o o ; s ,.L.dXdXdXdXyX6.' ( d 9 > = * - - - = - > > > - = - 4 8 i u g.g.g.j.g.Y.JXDXSXmX.XY.z.h.h.h.v.k.k.^ E R R Q Q Q Q Q Q Q Q ` D 7 9 D _ _ ` _ _ _ _ _ _ _ _ _ _ _ _ _ ' _ ' _ K L D S d d 9 6 7 > > > w > : : = & $ $ @ @ @ @ @ $ 3 4 i z k.b.B.`..XoXDXAXAXAXAXAXSXSXKXAXAXSXSXCXoXoXoXCXCXSXAXAXSXCXQ.T.v.c.R.T..XMXAXAXPXLXKXKXSXSXzXxXjX|._.H.#.o.` _ Q Q ( ) ] ] ] -.-.-.-.-.:.<.2.2.,.2.;.1., ",
"cXcXcXcXcXcXcXcXfXfXgXgXgXgXgXgXfXfXfXfXfXfXfXfXfXfXaXaXaXaXaXyXpXpXwX0XwXwX:X:X-X-Xi.u.s.s.9.a.(.hXnXbXLXLXLXLXFXxX|.|.xXSXKXSXPXPXPXPXAXAXSXSXkX].N.^ y 8 2 $ @ @ @ @ @ X X X X X     X % : 9 0 S _ 4.8.a.a.L.(.(.K.L.L.K.(.uXiXiXiXzXHXGXkXC.U.W k m.J._._././.).uX).(.7.U s < O . . + ; Z s.-X5X5XyXa.' S 9 6 > : = = - = = = > > > > = = 3 4 5 i g.g.g.g.g.z.Y.oXmXVXSXCXNXv.h.h.h.h.v.c.W E R Q Q Q Q Q Q Q ` Q 9 7 d Q _  ._ ! ! _  ....._ _ _ _ _ _ _ _ X.X.X._ ! K D D D S d s s s s s 9 9 9 9 q 9 7 7 3 3 & & @ @ @ $ 2 2 e i k.n.M.C.[.oXCXSXAXAXKXKXKXKXKXAXSXAXSXSXSXSXAXAXPXAXCXoXQ.R.v.c.c.c.Z.U.CXSXAXKXKXKXKXKXLXLXKXFXzXkX|._.H.5.o.` ( ) ) ) ] -.-.-.-.-.:.:.;.2.=.2.;.;., ",
"cXcXcXcXcXcXcXcXfXfXfXfXfXgXgXgXfXfXfXfXfXfXfXfXaXaXaXaXaXaXaXaXpXpXyX:X7X0X:X:Xi.i.a.u.s.^.(.iXnXxXbXLXLXLXLXKXzXxXxXxXSXKXKXAXPXAXSXVXVXkX{.`.b.^ 8 3 $ $ @ @ X X X X X X X X X X X O 1 < Z I ` O.5.D.L.F.(.(.(.(.L.L.(.).uXuXjXjXiXkXGXGXkXU.T.W y m.J._.).).).uXiXuXK.4.G 9 ; +     . + ; Z 1.e.i.s.,.U Z > 6 > > > > 7 7 7 > 7 7 7 7 3 7 4 8 i u g.g.g.h.h.E.Q.[.}.kXSXVXOXE.~.~.~.h.v.c.^ E Q Q Q Q Q Q Q Q Q g 6 7 K ` ` _ _ ! ! _ `  . ._ _ _ _ _ _ _ _ Y d.X.' _ K K J R G D f f f s s Z Z Z A S D D g k g g 8 7 = = $ $ 2 2 4 e i l k.x.M.U.{.XXSXAXAXSXKXSXSXSXKXKXSXSXSXSXSXAXAXCXXXQ.E.v.v.v.v.Z.C.mXSXAXSXKXKXKXKXKXKXKXKXKXAXSXzXlXjX/.D.5.{ ) ) ] ] -.-.-.-.-.-.=.;.=.2.;.;.< ",
"gXgXgXgXcXcXcXcXfXfXfXfXfXgXgXgXfXfXfXfXfXaXaXaXaXaXaXaXaXaXaXaXpXpX7X7X7X5X-Xa.a.a.a.^.(.iXbXLXxXxXxXbXLXLXLXKXzXzXSXSXKXKXPXPXAXCX}.`.B.m.^ k 8 3 & @ @ @ @ X           X % % * : , 9 Z F ' -.5.5.A.D.D.F.L.(.(.F.a.F.(.).uXuXjXjXjXzXGXGXkXU.T.W y x.P.).).).).uXuX).D...S > O .   . .   . 1 < Z P Z , 9 9 7 6 7 7 7 7 7 7 7 7 7 7 7 7 7 8 8 y g.g.g.g.h.v.E.JXoX[.}.VXVX.Xv.h.h.~.~.h.l.c.^ ~ Q Q R R Q Q Q Q 9 7 d Q Q Q ` _ _ _ _ _ _ _ _ _ _ _ _ _ _ _ _ U U ' X._ ! Q K Q Q R L h f s s S F Z F F L D D g D Q Q R g d q 4 3 2 2 2 2 5 5 l k.x.x.M.`.}.XXSXSXSXSXSXKXKXSXxX X X X}.VXXX[.T.R.R.Q.T.R.T..XVXSXAXSXKXKXKXKXKXKXKXKXKXKXLXLXFXZXlX).D.5.] ) [ ] ] ] -.-.-.;.=.;.;.2.=.=.< ",
"gXgXcXcXcXcXcXgXfXfXfXfXfXfXfXfXfXfXfXsXaXaXaXaXfXaXfXaXaXaXaXaXpXyX:X-XqX^.9.9.9./.iXxXbXbXzXxX_.jXzXFXLXLXLXPXKXKXKXPXPXAXVXXX}.B.l k 8 4 3 & @ @ @ @ X @ @ X   X X o * : : 9 D D K Q [ ] <.4.5.8.D.F.K./.(.).(.K.K.).uX).(.(.jXjXjXjXZXGXBXU.T.c.e ^ ).).).).iX).uX/..._ S ;   . . . . . . . . O O % ; 9 s 9 9 6 7 7 7 7 7 7 8 8 7 7 3 7 i u c.g.g.g.g.g.E.BXAXSXCXCXNXQ.E.h.~.~.h.h.g.k.x.l ~ Q Q R Q J D d 7 d G Q ( ( Q Q Q ! _ _ _ _ `  .` ` ` _ _ _ ` _ _ _ _ _ _ _ _ _ Q Q K K L L L L L L L K L K K Q Q Q Q ( ` ) ` ` ) R 0 w 3 & $ $ 3 4 5 i l x.M.C.'.}.CXAXAXAXAXSX X X X X X X X}.oXBXNXCXNXmXVXCXSXSXSXSXSXKXKXKXKXKXKXKXKXKXAXAXAXAXZXjXG.#.) ) ) ) ] ] ] ] ] ' [ ' ' -.' =.< ",
"gXgXgXgXgXgXgXgXgXfXfXfXfXfXfXfXfXfXfXfXaXaXaXaXaXaXaXaXaXaXrXwXpXpXyXqXa.^.^./.).jXbXLXKXxX|._.|.|.ZXSXAXLXPXKXPXKXAXSXVX XB.b.z 8 2 $ $ @ @ X @ X X X X % % # X * : > 9 d D Q _ _ ` ..O.5.5.5.D.D.D.L.K.(.).).).).).uXuX).K.F.uX).].kXGXGXBXU.T.c.y ^ ].).).).uX)./.D...K 6 O . . . . . . . .   . . + % < 7 9 a q 6 6 6 j j 6 8 8 8 7 8 i u g.g.j.h.h.g.h.Q.NXHXPXAX.XR.v.h.h.~.h.h.v.k.i i k Q G G Q ! Q d 7 d D Q ( _ Q Q Q Q _ _ _ _ _ `  . . . . .` ` ` ` ` ` ` _ _ _ _ _ _ ! Q K K K K K L K K K K K Q _ _ _ _ ) ) ` ] ] ] ] ` ` R g 8 w 3 2 2 2 4 i k.k.b.M.`.[.oXCXAXAXKXKXKXKXKXKXKXSXAXAXHXHXAXAXAXKXSXSXSXSX@X@X@X@X@XKXKXKXKXSXVXXX].].J.I.m.#.{ { ) ) ] ] ] ] ] ] [ ] [ -.[ ' < ",
"gXgXgXgXgXgXgXgXgXgXfXfXfXfXfXfXfXfXfXfXfXaXaXaXaXaXrXaXrXwXwXqXqXpXqX^.a.^.hXxXbXLXLXLXKXzXxX|.kXVXSXAXAXAXAXAXSXVX}.U.b.z 8 4 $ @ @ @ @ @ X X X o % * : 0 0 ; % , A G _ ` ..+.+.+.@.5.5.A.D.D.F.L.K.K.(.).).).uXuXuXuX).K.D.H.uX).jXZXHXHXBXT.T.M.u x.].).).).uX/.7.4...f * . . . . . . . + + . . . . % < 9 9 s d d a a a a s 7 j j 8 i u g.g.g.g.h.v.v.R..XMXSXHXDXQ.z.h.h.~.~.h.E.v.g.5 4 8 E G G G G D s 7 G Q ( _ ( Q Q Q Q _ _ _ _ _ `  .`  .` ` ` ` `  .` ` ` ` ` ` _ _ _ _ ! Q K K K K K K K K _ _ _ [ ) ` ` ` ] ] ..O.] ..5.5.5.{ ~ E 8 4 3 2 2 2 4 5 x l k.n.C.'.XXVXAXKXDXKXKXSXSXSXAXAXAXAXAXAXAXSXKXKXKX@X@X@X@X@XKXKXKXSX@X XV.b.^ ^ k E ^ ) ) ) ) ) ) ) ] ] ] ] [ [ [ -.[ ' < ",
"gXgXgXgXgXgXgXgXfXfXfXfXfXfXfXfXfXfXaXaXaXaXaXaXaXaXrXqXqXqXqXqXqXqXqX^.^.(.xXFXLXLXLXLXKXKXFXFXSXAXHXAXAXAXZXVX`.B.^ 8 3 $ $ $ @ @ X X X X % * : , A I ' <.G ; % Z [ ` O.O.O.4.5.5.5.7.D.D.K.K.K.K.K.(.).).).).uXuXuXuX(.D.8.D.jX].jXZXHXHXkXU.T.M.u x.].).(.(.)./.4.+.X.> . . . . . . . . + + O O O O ; , Z A s s d s a a a f j g k k g.g.g.g.h.h.v.Q.JXJXNX{..XNXJXQ.z.h.h.E.h.E.v.g.5 4 8 q R Q Q d 9 7 d Q Q ( _ _ Q Q Q Q ! _ _ _ _ _ `  .` ` ` ` ` ` `  ... .....` `  . ._ _ ! Q K K K K U K U _ _ _ [ [ ` ` ] ..] ..O.O.] ..O.O.O.O.{ { { ^ k 8 3 2 2 2 4 5 i z l b.M.C.}.oXCXDXAXDXAXAXAXAXAXAXAXAXAXSXKXKX@X@X@X@X@X@XKXKXSXXX`.b.z x k k k k E } } R ) ) ) ) ] ] ] ] [ [ [ -.[ ' < ",
"gXgXgXgXgXgXgXgXfXfXfXfXfXfXfXfXaXaXaXaXaXaXaXaXaXaXyXyXqXqXqXqXqX^.a.^.hXxXFXLXLXLXLXLXLXLXLXFXHXHXAXSXMX{.U.M.l i 3 $ @ @ @ @ X X % % % : , b P Y ,.0.e.e.I % ; G 4.5.8.5.5.7.5.7.7.D.D.K.K.P.(.).).).).uXuXuXuXuXuX).D.5.7.D.uX].jXZXHXZX{.C.T.Z.l x.].).)./.(./.4.X.K *   . . . . . + + + + 1 1 O O ; , s Z s s f s s a s f j g z k.g.h.h.h.h.h.E.JXHXHXHXmXY.Q.Q.v.z.h.v.v.E.v.l.e 4 4 y k Q K S 9 9 s K ..Q Q _ Q Q Q Q _ _ _ _ _ _ _ ` ..` ` ` ` ....` ` ...... . .` `  ._ _ ! Q K K K K U U Q _ _ _ [ [ ` ` ] ] ] O.O.O.O.O.{ ` { O.5.A.A.m.{ ^ k 8 4 3 2 2 2 2 4 i l k.b.M.'.oXCXDXHXPXDXAXAXAXKXKXKX@XKXKX@X@XKXKXKXKXSX+X XV.l z l x.^ ^ ^ ^ } ) { { ) [ ) ) ] ) [ [ [ [ ( ] [ ' < ",
"gXgXgXgXgXdXgXgXfXfXfXfXfXaXfXfXaXaXaXaXaXaXaXaXaXaXyXqXqXqXqXqXa.a.^.hXxXbXLXLXLXLXLXKXLXLXLXLXSXZXkXU.m.W i 4 2 & @ @ @ @ @ X X ; 9 F Y =.2.q.w.w.e.r.e.s.Y ; < ( 6.8.D.D.D.D.S.S.H.H.K.K.P.).).).).).uXuXuXuXuXuX).K.5.+.5.D.uX].lXBXGXGXBXT.T.Z.x.x.].)././.(.F.4. .s O . . + + + O 1 1 ; ; 1 ; ; ; ; ; , Z S S f f s s g g j k l k.h.h.h.h.h.E.Q.JXHXHXHXDXZ.E.v.h.h.v.v.v.v.g.p 5 5 8 q ~ K d 7 9 G _ _ Q Q Q Q Q Q Q _ _ _ _ ` _ _ _ ` ` ` ` ` `  ...` ` .... . . .` `  ._ _ ! Q K K K K U U ( _ _ [ _ [ ] ] ] ] ] ] ....O.O.O.O.5.5.5.5.O.#.A.m.{ } E k 4 3 $ $ $ 2 4 5 x l k.n.C.'.mXCXSXAXDXAXAXSXSXSXKXKXKXKXKXKX@X@X}.`.b.x 4 5 x.U.U.J.A.{ R R R ) ( ( [ ) [ ) [ [ [ [ ( ' [ ' : ",
"gXgXdXdXdXdXdXfXfXfXfXsXaXaXaXaXaXaXaXaXaXaXyXpXpXpXqXqX0XqXqXqXa.(.hXxXbXLXLXLXPXLXKXFXFXAXAXZX].J.b.k 4 2 & @ @ @ @ @ @ @ @ @ % 9 Y 2.e.r.&X&X>Xi.&X&Xi.0.Y < 9 ` 6.4.8.D.D.D.D.H.F.G.K.P.).).).).).).uXuXuXuX).).K.D.7.5.5.D.lX8XT.BXGXHXBXT.T.T.x.x.P.)./././.4.X.L * . . . + + + O 1 1 1 1 O O O O O * , Z S F f f g g g g k l k.g.h.h.h.h.h.!.JXHXDXDXAXNXv.h.h.h.v.v.v.v.l.e 2 5 y q g Q d 9 9 S ` ..` K Q Q _ _ Q Q _ ` _ _ ` ` _ _ ` ` ................`  . .` ` ` _ ` _ _ _ ! Q K K K Q Q ! _ _ _ _ _ ` ` ....O.O...O.` ..O.5.5.5.O.O.{ { O.5.5.6.{ { ~ k 8 3 & $ $ $ 8 i l k.x.n.C.Y.oX+XSXAXKXKXKXKXKXKXKXSXSXXX X`.V.k.x 4 3 x b.U.].].P.I.5.) ( R ( ( [ ) ( ( [ [ [ [ ( ' [ ' < ",
"gXgXdXdXdXdXdXdXdXsXsXsXaXaXaXaXaXaXaXaXaXrXpXpXqXqX0X0XqXqX-X-Xa.(.jXbXLXLXLXPXPXPXPXPXAXZX].N.^ W 8 $ @ @ @ @ X X X X @ # % ; b I e.r.r.&X>X3X>Xr.&X:X&X1.P < Z <.8.4.8.D.5.5.H.H.F.G.K.K.).(.(.).).).uXuXuXuXK.K.D.D.D.7.D.I.lXT.T.{.ZXHXBXR.T.T.x.x.P.)././.9.X._ s O . .     . . + + . . . . . + . . + < Z F S s d g g k k l k.l.h.h.h.h.h.h.Q.DXHXDXDXNXQ.v.h.h.E.v.v.z.v.e 5 4 8 k ) Q 9 7 9 D Q Q Q Q _ Q _ _ _ _ _ _ _ _ _ ` ` _ _ _ ` ................` ` ` ` ` ` _ _ ` _ _ _ _ ! ! _ ! _ _ _ _ _ _ _ ........O.O.O.O.` ] O.O.O.O.O.O.O.O.5.5.5.5.6.6.O.{ R 0 w 3 $ @ $ 2 4 i y l x.x.B.`.}.oXCXSXAXKXAXSXSXSXoX XV.b.x 8 4 4 x ^ N.J.].jXlXlXjXuXL.4.( ( ( ( ( ( [ [ [ [ ( ' [ ' < ",
"gXgXgXdXdXdXdXdXsXsXpXaXpXaXaXaXaXaXaXaXwXwXqXqX0XpXyXqXqXaXyXa.8.).xXLXLXLXPXPXPXAXVX}.U.m.z 8 3 & @ @ X X X X X X @ % : 9 A I [ ;.0.p.*X*X3X3X3X3X3X*X*Xq.F ; 9 ' 6.8.8.8.8.F.H.G.K.K.P.).).).).).uXuXuXuXuX).K.D.D.A.D.D.D.I.uXT.{.ZXHXHXBXc.T.T.c.x.P.iX/./.9.s.L * . . . . . + . . . . . . + . . .   . ; Z F S S D d q k W c.v.z.h.h.h.h.h.l.Z.oXDXHXDXQ.v.h.~.~.h.v.v.l.g.e 5 8 g R L s 6 d S L Q _ _ ! Q Q ! ! _ _ _ _ _ _ _ _ _ _ _ _ _ ........ . . .` ......` ` _ _ _ ` ` _ _ ! Q Q Q ! _ _ _  . . .` O.O.....O.O.O.O.O.O.O.O.O.O.4.4.4.4.4.6.6.6.4.4.<.O.` ) R g w 3 @ @ @ $ 3 8 y y k.b.n.C.U.[.CXHXHXAXCXMX}.M.z k 4 8 k %.N.J._.).jXjXlXzXbXxXlXiX8.O.R G ( ] ` [ [ ' [ ] ( [ : ",
"gXdXdXdXdXdXdXdXsXsXpXpXpXaXaXaXaXrXaXaXwXqXqXqX0XyXyXqXqXyXyXL.uXxXFXLXGXAXAXAXVX[.B.^ i 4 $ @ @ @ @ X X X X X % % : 9 A F ' -.-.:.t.*X6X*X3X3X3X3X3X&Xt.0.H ; 9 ' 4.8.8.8.8.F.H.F.K.K.K.).).).(.).uXuXuXuX).).K.D.D.A.D.D.D.I.lXT.kXHXHXHXBXZ.T.T.c.W J.).K.9.9.X.s % . . . . + + + . + . . . .   . + . . 1 , F S D E y y l x.v.v.h.h.h.v.!.Q.Q.Y.Z.Y.OXQ.E.h.~.~.h.v.v.l.t 5 4 k ~ ~ f 9 s f S L K ! _ _ ! Q Q Q Q _ _ _ _ _ _ _ _ _ _ _ _ _ ........ . . .`  . .` ` ` ` _ _ ` _ _ _ ! ! ! ! ! _ _ _  . . . .O.......O.O.O.O.....O.O.O.O.4.<.<.<.<.<.4.4.4.4.9.4.4.<.O.` R g 3 & @ @ @ $ 2 4 5 x l b.M.U.{.MXZXAXVX'.M.l i 8 z %.@.H._.).).).).).jXlXxXxXxXxXiXK.O.` ( ) ] ) [ ' [ ] [ ' < ",
"dXdXdXdXdXdXdXdXsXaXpXpXpXpXyXaXaXwXwXwXwXqXqX0X0X0XyXyX-Xa.yXhXjXFXIXPXAXkX`.U.b.l 8 2 $ @ @ @ X X X X X # % * 9 Z F ' ,.3.e.e.6.e.t.6X6X*X3X3X3X3X3X3Xt.:.M ; 9 ' 4.8.8.8.8.F.H.F.K.K.).).).(.).).uXuX).).P.K.K.D.D.A.D.D.D.I.uXT.kXHXHXBXT.T.T.R.c.W I.K.7.4.s.T ; + . . . + O o + o o + . .     . . . . 1 , F S E k y y k.c.h.~.h.h.v.Q.JXDXDX.XM.c.v.v.v.h.~.h.v.v.c.t 5 5 k k ~ J j , s L K Q ! _ _ _ ! ! ! _ _ _ _ _ _ _ _ _ _ _ _ _ _ _  . ... .........` ` ` ` _ _ ` ` ` _ _ _ _ ! ! ! ! _ _ _  . .....O.......O.O.O.O.........O.O.+.+.4.4.<.<.<.4.4.4.9.3.4.4.4.4.O.` R 0 3 # @ @ @ @ @ 2 4 i l x.M.U.MXVXkXM.l i l ^ H./._._.).).)./.)._.).uXiXjXxXxXzXlX/.5.` ( [ ] ' ] [ ] [ ' < ",
"dXdXdXdXdXdXdXdXsXsXpXpXpXpXyXpXwXwXwXwX0XwX0X0X0X-XyXyX-Xa.yXdXzXGXGXZX].m.z 8 3 2 $ @ @ @ @ @ X X X X % : 9 S ( ' <.6.9.e.e.e.6.6.t.p.*X*X3X3X3X3X3Xt.t.:.M ; 9 ( 6.8.8.D.8.F.H.H.K.K.).).).).).).).).).K.K.D.D.D.A.D.D.D.K.K.P.P.kXZXGXBXBXT.T.T.c.W I.H.+.+.X., + . . . o O * 1 O o o . . . . . . .     O , F D E k l k.c.v.h.h.h.v.!.JXHXHXHXDX.Xv.h.h.h.~.h.v.v.v.g.5 5 z ^ ~ d j a s S K _ ! ! ! Q _ _ _ _ _ _ _ _ _ _ _ _ _ _ _ _ _ _ _ `  . . ........._ _ _ _  . . . .` _ _ _ _ _ _ _ ! _ _  . . .....O.......O.O.O... . .......O.+.+.O.O.<...<.4.4.4.4.<.....4.<.O.O.O.) D 9 = & @ @ @ @ $ 2 4 e l W U.T.M.l i l c.J._./././././.G.G.G.G.G././.).uXiXlXlXjXK.O.Q Q ) ' ] [ ] ' ' < ",
"dXdXdXdXdXdXdXdXsXsXpXpXpXpXpXqXwXwXwXwXqXqX0X0X-X*X-XyX5Xa.yXdXzXxX).^ g 8 3 $ @ @ @ @ X X X X X # % : 9 S ( ..<.4.9.a.a.9.9.8.8.6.6.e.t.3X3X3X3X3X3X:.0.:.b ; 9 ( 6.5.8.D.D.F.H.D.K.K.).).).).).).).).P.K.D.D.A.D.D.D.D.K.K.P.P.].kXBXZXGXBXT.R.T.c.W A.J.@...L ; .   . o O * * * % o . . . X % * O + .   . : H D k W c.c.c.v.E.h.h.v.Q.DXHXHXHXHXJXv.h.h.~.h.v.v.v.g.e i z ^ ~ g 7 6 f L U K K K K K Q _ _ _ _ _ _ _ _ _ _ _ _ _ _ _ ` ` ` ` ` ` ...... .`  .` ` ` `  . .` ` ` _ _ _ _ _ _ _ _ _  . . ....................... ...........+.+.....O.+.O.+.+.4.5.4.4.4.4.4.O.O.O.` ` Q g 7 = & & @ @ @ & 3 4 4 k x.l i l ^ m.H.G./.H.H.H.H.H.H.H.S.S.S.F.F././._.jXlXjXF.` Q ( [ ] [ ] ( ' < ",
"dXdXdXdXdXdXdXdXsXsXpXpXpXpXpXqXwXwXwXwXwXqX0X0X-X*X-XyX5Xa.5X(.5.` a = & & $ $ @ @ X X   X X O % : 9 G [ ..<.4.4.4.8.8.8.8.8.a.4.O.<.2.e.e.3X3X3X3X:.:.0.;.b ; , U 4.4.D.D.D.F.D.G.K.K.).).).).).).).P.K.D.A.A.A.D.D.D.K.K.K.P.].uXjXkXZXHXCXT.R.T.c.l m.J.@.X., O   . o O * * - * * # O * - > h L f , : o . % A E W x.c.v.v.h.h.h.v.Q.JXHXHXCXHXJXQ.v.h.E.E.h.v.c.g.e i l ^ g 7 j a f L K U K L K K K K ! _ _ _ _ _ _ _ _ _ _ _ _ _ ` `  .` ` ` ` .... . .` ` `  . . .` ` ` ` ` _ _ _ _ _ _ _ _  . . . . .................o.........................O.O.+.+.+.5.5.5.5.5.5.O.O.O.O.O.` ` R g q 7 & @ @ @ & $ $ 2 4 8 k x.J.A.A.F.F.H.S.S.S.@.@.#.@.A.S.7.S.F.H.H.).lXlX).7.) Q ( ' [ ] Y ' < ",
"dXdXdXdXdXdXdXsXsXsXpXpXpXpXpXqXwXeXwXwXqXqX0X:X-X-X*Xa.L.5Xa.6.s > * # # $ $ @ @ X X   X % < , 9 D ] 4.6.5.5.5.4.8.L.L.L.D.F.F.5...] ,.2.0.0.w.3X3X:.:.0.;.M ; , U 4.4.D.D.D.F.G.G.K.K.).(.).).).).P.K.K.D.5.5.5.A.D.K.K.K.K.K.].P.P.kXGXHXAXT.M.T.c.y ^ A.o.S * +   . O * * * - * * - j J o.$.7.F...K U < o % 0 E W c.c.v.v.h.h.v.E.OXDXHXAXNXJXQ.E.v.v.E.E.v.c.B e e l ^ k 7 7 j h L L L L K K K K Q _ _ _ _ _ _ _ _ _ _ _ _ _ ` ` `  . . .` `  ..... .` ` ` ....` ` ` ` _ _ ` _ _ _ _ _ _ _  . . . . . .............o.o.o.....X.X.X......... . ...O.O.+.+.+.5.5.A.5.5.O.O.O.5.@.O.#.O.o.` ) g 7 = $ & 3 3 3 3 8 k ^ N.J.N.A.S.S.S.S.@.@.@.#.#.#.@.@.#.#.@.N.S.H.).jXjX).5.( ( [ ( [ Y ( < ",
"dXdXdXdXsXsXsXsXsXsXpXyXyXpXpX0XwXwXwXqXqXqX:X:X-X-Xa.a.p.L.e.( ! a = # # @ @ @ X X X X % < Z U ` O.5.8.8.5.8.D.8.D.L.K.L.D.8.8.8.O.` <.2.:.:.:.3X3X:.:.0.;.M ; < U 6.4.D.D.D.F.G.K.K.P.).).).).P.P.P.K.D.A.5.5.5.D.D.K.K.K.K.K.uXP.P.kXHXPXHXT.R.T.M.y W m.Q 7 o . . + O * * = - * * > h /._.|._./. .! ..f # % 7 E c.c.v.v.h.h.E.!.Q.Q.MXCXDXHXOXE.v.v.~.h.h.v.u e 8 W ^ k 7 3 a f J L L L L K K K ! _ _ _ ! ! _ _ _ _ _ _ _ _ ` ` ` `  . . ...` ` .... .` ` ` ......` _ _ _ _ ` _ _ _ _ _ _ _  . .............O.o.O.o.O.o.O.O.............X.X...X...O.O.+.+.+.O.O.5.5.5.5.5.5.O.O.O.#.O.o.` ! ` Q g q 8 q g k k ^ #.m.N.#.%.@.@.#.@.@.@.#.#.#.{ #.#.#.{ { o.#.S.@.5./.jXjXK...Q ( ( [ U ( < ",
"sXsXsXsXsXsXyXyXyXyXyXyXyXyXyX0X0X0X0X:XqX:X-X-X-Xa.p.L.a.e.a.yXK.Q : # X X X X X o % : 9 L ' X.8.8.8.D.D.D.D.F.F.D.F.L.L.D.D.5.4.<.] ;.0.:.:.:.:.:.w.:.:.:.I ; < G <.6.D.D.D.D.K.K.P./.).).P.P.K.K.K.K.D.D.A.5.A.D.K.K.K.K.K.K.].P.P.MXHXHXHXT.R.9XT.y E 6.D %   . + % ; ; ; = - - 6 ~ /.jXSXzXxXxX_.$.| J > # 3 W c.c.v.z.E.!.Q.JXJX.XY.Q.Q.Q.R.v.v.v.v.v.v.g.8 d R R q 7 7 a K K K K ! ! ! ! K K Q Q Q Q Q Q _ _ _ _ _ _ _ _  . .` ` ` ` ........ . .............` ` ` ` ` ` _ _ _ _ `  .........O.O.O.O.O.O.O.O.O.O.{ { { { ................O.O.O.O.O.O.+.+.O.O.O.O.4.4.4.4.4.4.4.O.O.O.O.O.O.` K G Q ` #.O.@.@.@.#.+.#.#.#.O.#.O.O.O.#.#.o.{ o.O.O.o.o.o.#.#.5.S.S._.jX/...Q _ ( ( G U : ",
"sXsXsXsXsXsXyXyXyXyXyXyXyXyXyXyX7X:X:X:X:X-X-X-X*Xa.p.L.L.L.yXiXuXO.7 X X X * : > 6 9 S K ..4.7.8.D.D.D.D.L.K.K.K.L.F.L.L.D.D.8.4.<.=.;.:.:.:.:.3X:.:.:.:.:.I ; < H <.6.D.D.D.F.K.K.P.).).).P.P.K.K.K.D.D.A.5.5.A.D.K.K.K.K.K.P.].J.U.kXHXHXBXR.R.9XR.r y R w o . + O % ; : : = - - j N.xXLXLXKXzXKXzX|.H.~ 7 # & y x.c.v.h.E.!.JXJXJXJXJXQ.R.v.v.v.z.v.v.v.g.e q K K 9 = > S K K K K K ! ! _ _ Q Q Q Q Q Q Q ! _ _ _ _ _ _ _ _  . . .` ` ` ...... . . .............` ` ` ` ` ` _ _ _ _ `  .........O.O.O.O.O.O.O.O.O.O.{ { { { O...................O.O.O.O.O.O...O.O.O.+.+.O.4.4.4.4.O.O.O.+.+...` _ _ ..O.+.+.+.+.+.O. . .o.o.o.o.O.O.O.O.O.O.O.O.O.O.#.#.#.#.#.@.#.#.H.)._.@.! ! K ( K U : ",
"sXsXsXsXsXsXyXyXyXyXyXyXyX5XyX7X7X7X:X:X:X-X-X-X*Xa.a.L.L.yXdXlXuX6.9 # X = d Q _ _ _ ..+.5.8.F.F.F.L.L.K.K.K.K.K.K.K.L.L.F.D.8.4.<.=.;.:.:.:.:.3X:.:.:.:.:.I ; : H <.6.D.D.D.G.K.K.P.).).P.P.K.K.K.K.D.D.A.5.5.D.D.K.K.P.K.K.P.P.U.U.MXHXHXT.c.T.T.c.e q 9 %     o % ; : : : > 6 7 h |.zXLXLXKXKXLXKXxX).#.7 # # 8 x.c.v.h.E.!.JXJXJXHXJXQ.v.v.v.~.~.v.z.g.e e D S 9 : : 9 K ` Q Q Q Q ! ! _ _ ! ! ! _ _ _ _ _ _ _ _ _ _ _ _ _  . .` ` ` ` ........ . ............. . . . .` ` _ ` _ ` ` ........O.O.O.O.O.O.O.O.O.O.O.O.O.{ { ......................................O.O.O.O.O.O.O.O.+.4.4.4.4.` _ ` ..+.4.O...O..... . . . . .` ` { o.o.o.o.o.o.#.#.#.#.#.#.#.#.#.#.o.$._.)./.O.Q D ( U U : ",
"yXyXsXyXyXyXyXyXyXyXyXyX5X5X:X:X:X:X:X:X:X-X-X-Xa.a.a.a.L.yXiXlXK.O.9 % = D 5.8.4.4.4.4.9.8.F.L.L.K.K.K.K.K.K.K.K.K.K.K.K.F.H.D.6.<.=.;.:.:.:.:.:.:.:.:.:.:.I < : F <.6.D.F.D.K.K.K.P.).P.P.K.K.K.K.D.D.A.A.5.5.D.K.K.P.K.K.K.P.].T.T.BXHXBXR.R.T.c.r w w = o     o ; < : : > 7 6 6 | _.|.xXzXKXLXKXxXjX|.N.7 X @ 3 u c.v.h.~.E.Q.JXHXJXE.E.E.E.~.E.v.z.g.e y E D : * 9 L D L _ Q Q Q Q ! ! _ _ _ _ _ _ _ _ _ _ _ _ _ _ _ _ _ _ `  .` ` ` ` ........................ . . . . .` _ _ _ `  .........O.O.O.O.O.O.O.O.O.O.O.O.{ { { ........ ...........................O.O.O.O.O.O.O.O.+.+.+.O.O.O.! _ _ ..O.O...` .. ._ ! ! ! ! ` _ _ ` o.o.o.o.o.o.o.O.o.o.o.#.#.@.7.#.#.@.G.).).7.! S ( U U ; ",
"yXyXyXyXyXyXyXyXyX5X7X5X5X:X:X:X:X:X:X:X-X-X*Xa.i.a.e.a.(.dXlXlXK...7 = a 5.)./.L.L.F.F.F.L.L.K.L.K.K.K.K.K.K.K./.K.K.K.K.L.D.8.6.-.=.=.;.:.:.:.:.:.:.:.:.:.I < : H <.5.F.K.K.K./././.).P.P.K.K.K.D.D.A.A.A.A.A.D.K.K.P.P.P.K.P.{.T.T.BXHXT.c.T.R.B e w 3 #       O : , > > > 6 - - h _.|.|.xXzXbXxX|.|.|.#.= X @ 2 u v.v.E.~.~.Q.JXJX!.h.v.E.E.E.E.v.g.e y k D 6 = : S ` Q D K Q Q Q Q Q Q ( ( _ _ _ _ _ _ ` _ _ _ ` ` ` ` ` ` ` ` ` `  .` ............................ .` ` ` ` ` ` ` ` ........O.O.O.O.O.O.O.O.O.O.O.O.{ { O....... .`  ...........................O.O.O.+.4.+.+.4.+.O.......! _ _ `  . .` _ ` _ ! K K ! ! ~ _ _ ` o.o.#.#.#.o.o.o.o.o.o.#.#.S.S.$.#.#.$./.).F...D Q U U ; ",
"yXyXyXyXyXyXyXyX6X5X5X5X:X:X-X-X:X:X:X-X-X*X*Xa.i.a.i.L.uXlXxXlX)...7 : J K.uX).(.(.(.L.L.L.L.L.L.K.K.K.K.K.K.K.K.K.K.K.K.L.D.5.<.' ' ;.;.:.:.:.:.:.:.:.:.0.&.< ; A <.5.F.K.K./././.)./.P.K.K.K.D.D.D.A.A.A.D.D.D.K.P.P.P.P.K.P.{.T.T.BXBXR.v.T.R.u w w # X   .   % < 9 9 > 7 6 > - h _.jXjX|._._._._._.H.h - # & 2 u v.E.E.~.~.E.!.!.E.~.E.E.E.E.v.g.t y k a : * 7 S D D Q ! K Q K Q Q Q Q _ _ _ _ _ _ _ _ ` _ _ _ ` ` ` ` ` ` ` ` ` `  . ............................. .` ` ` ` ` ` `  .........O.O.O.O.O.O.O.O.O.O.{ { { { ] ] .. .` ` `  . . . . .....................O.+.O.O.O.+.O.....` _ _ _ ` ` ` ` _ ! ! ! Q K K K ! ~ _ ` ` o.#.#.#.+.#.#.#.#.o.#.#.#.$.$.@.#.o.o.S._./.5.Q Q G U ; ",
"yXyXyXyXyXyXyXyX5X5X5X5X5X-X-X-X:X:X-X-X*X*X&Xi.i.a.a.L.dXlXlXiXP.` 7 7 ..).uX).)./.K.L.F.D.F.D.L.K.K.K.K.K.K.K.K.K.K.K.K.F.D.5.<.' ( =.;.;.:.:.:.:.:.:.:.e.=., ; A <.5.F.K.K.)./././.P.P.K.K.D.D.D.I.A.A.A.D.K.K.P.).).).P.P.P.T.Q.Q.Q.Q.R.R.R.c.r w = X     . O ; 9 s 9 6 6 9 j > j %._._._.$.| +.#.o.~ 7 = 7 3 4 u v.v.E.W.~.E.~.~.E.E.E.E.v.v.g.t u k q = % : d Q S S K _ Q K K K K Q Q ( _ Q Q _ _ _ _ _ _ _ _ ` ` ` ` ` `  .` ` `  . .............................` ` ` `  .` ` `  ...............O.O.O...` ` ` ` ` ` ` ` ` ` _ _ ` `  ...` ` `  . . ............................... ._ _ ` `  .` _ _ ! ! Q Q K K J ! ! ~ ~ ` ` o.o.#.#.#.#.#.#.o.o.o.#.#.$.@.@.#.` ~ #.G.).D.` Q F U : ",
"yXyXyXyXyXyXyXyX6X5X5X5X-X-X-X-X-X-X-X-X*X*Xi.p.a.a.a.(.dXlXlXuXD.Q 9 D 5.uXuX)././.L.L.F.F.L.L.L.K.K.K.K.K.K.K.K.K.K./.K.L.5.5.] [ Y =.;.;.:.:.:.:.:.:.:.t.;., ; A <.6.F.K.K.)./././.P.P.K.K.D.D.D.A.A.A.D.D.K.P.).).uX).).).P.T.Q.9XQ.R.R.R.R.u e w %     X . * : s d s 9 9 j j > 7 j ~ $._./.$.$.| h j - - 8 q 8 u c.z.~.E.~.W.~.~.E.E.v.v.v.g.e e W g % o ; S f S L K K K K K K K K Q Q ( ! Q Q Q _ _ ( _ _ _ _ ` ` ` ` ` `  .` ` `  . .............................` ` ` `  .` ` `  ...............O.O.O...` ` ` ` ` ` ` ` ` ` _ _ _ `  . .` ` ` `  . . . .` ` ............` ........ .` _ _ ` ` ` _ ! Q K K K K Q ! ! ! ~ ~ ~ ` o.o.#.#.#.o.o.o.o.o.o.#.#.S.@.#.#.~ ~ #.G.).K.O.Q S U : ",
"6X6X6XyX6X6XyX6X5X5X5X-X-X*X*X*X-X*X*X*X*X*Xa.p.a.e.a.dXlXlXlXP.5.R d ` K.uX).).)./.K.K.F.F.F.F.D.K.K.K.K.K.K.K.K.K.).).(.L.5.` ` ( ( ;.;.:.:.:.:.:.:.:.0.t.;.v ; 0 ] 5.D.K.(.).).)./.K.K.K.K.D.D.D.A.5.5.D.D.K.).).).).).uX).P.Q.9XQ.Q.Q.Q.R.z.u w & X     X O > 6 9 s s 9 a j a j 6 6 j f h | ~ f j 7 = 7 7 7 8 e u c.v.E.~.~.~.W.W.~.v.v.v.c.5 y k w # # > s S D L L K K K Q _ ! ! ! ! ! ! ! Q Q Q _ ( ( ` ` ` ` ) ) ) ` ` ` _ _ ` `  . . . .................` ` ` ` ` ` ` `  . .............................` ` ` ` ` ` ` ` ` ` ` ` _ _ _ _ ` ` ` ` ` ` _ _ _ ` `  . .......`  ... .` _ _ _ ` _ _ ! ! Q K K J J J J J ! ! ` ` ` %.o.#.#.#.o.o.` ` o.` ~ { #.S.@.#.~ ~ ~ | @._.).D.` F ( < ",
"6X6X6X6X6X6X6X6X5X5X5X-X-X*X*X*X*X*X*X*X*Xp.p.a.a.e.L.iXlXlXiXL.5.G d ` K.uX)./././.K.F.F.F.F.F.F.K.K.K.K.K.K.K.K.(.).).).K.6.` ` ( ( [ ;.:.:.:.:.:.:.:.0.t.:.n ; 0 ] 8.D.K.(.).).).P.K.K.K.K.D.D.D.A.5.5.D.K.K.).).).).uX).P.P.T.Q.Q.Q.Q.Q.R.g.r 3 @       o % 9 9 d d d s s d f a j 6 6 6 6 j 6 7 7 7 7 6 q g q q u c.v.E.E.W.W.W.~.E.E.v.k.i k q 7 * # = 9 K G D L L K K K Q _ _ ! ! ! ! ! ! Q Q ( _ ( ` ` ` ` ) ) ) ` ` ` ` `  .............................` ` ` `  . . . . . .............................` ` ` ` ` ` ` ) ` ` ` _ _ _ _ _ ` _ _ _ _ _ _ _ _ _ `  . .......` ` ` _ _ _ _ _ ` _ _ ! ! ! K K J J J J J ! ! ` ` ` { o.#.#.o.o.` ` ~ ` ~ ~ ` o.@.@.o.~ h h ~ | G._.D...S U : ",
"6X6X6X6X6X6X6X5X5X5X5X-X*X*X*X*X*X*X*X*Xp.p.a.a.a.e.(.iXlXlXiXK.O.D d { P.uX)././.K.K.F.F.D.F.F.L.K.K.K.K.L.K.K.K.(.).).(.L.5.) _ K G [ ;.:.:.:.:.:.:.t.t.L.0.H ; s ] D.K.K.(./.)./.P.K.K.K.K.D.D.D.5.5.A.D.K.P.).).).uXuX).P.I.T.Q.Q.Q.Q.R.z.t e &     . . % < s d f g g g f f f f f a a j 6 7 6 6 6 6 j a a a g q y c.v.v.E.E.W.~.~.E.R.c.y 8 g 7 % % : 9 H [ G L L K K K K K ! ! ! ! ! ! ! _ Q Q ( _ _ _ ` ` ` ` ` ` ` ` ` ` ................................................` ..............................` ` ` ` ` ) ) ) ` ` ` _ _ _ _ _ _ _ _ _ _ _ _ _ _ _ _ ` ` ` ` ` ` _ _ _ _ _ _ _ _ _ _ ! ! ! Q K J J J J J ! ! ` | { %.o.#.#.o.o.o.~ ~ ~ ~ ~ ~ o.#.#.o.~ g a g h $.G.H.O.D K ; ",
"6X6X6X6X6X6X6X5X5X5X6X-X*X*X*X*X*X*X*Xp.i.i.i.a.a.a.yXlXlXlXuXD.` g g O.P.).).K.K.K.G.F.D.D.D.F.K.K.K.K.L.F.L.K.K.).).).).D.O.` Q G I [ ;.:.:.:.:.:.t.t.t.6Xt.F ; 0 ] L.P.(.).).)./.K.K.K.K.D.D.D.A.A.A.D.D.P.P.).).uXuXuX).P.I.T.Q.Q.Q.Q.v.g.r 3 @   . . . ; 0 f g g g g f f h g f h h h f f f S S D g d a j 6 a q i k.c.v.E.E.~.W.E.v.z.i 8 g 7 * % : s H G ( K K K K K K K K ! ! ! ! ! ! ! ( ( ( ( _ _ _ ` ` ` ` ` ` ` ` ` ` ................................................................................` ` ` ` ) ) ) ` ` _ _ _ _ _ _ _ _ _ _ _ _ _ _ _ _ _ _ _ _ _ _ ` _ _ Q K ! _ _ _ _ _ ! ! ! ! Q K J J J J J ! ! ` | %.o.o.#.#.#.o.o.` ` ~ ~ ~ ~ %.#.@.#.~ j j j g o.H.H.4.L G ; ",
"6X5X5X5X5X5X5X5X5X5X5X6X*X*X*X*Xp.p.p.p.i.i.i.a.i.a.uXlXlXjX(.5.) g g o.K.).K.G.G.G.F.H.D.D.H.F.K.K.K.L.D.D.D.K.K.).uX).K.D.O.! G D H [ ;.:.:.:.3X3X*X*Xt.6Xt.I ; 9 [ D.P.(.(.)././.K.K.K.D.D.A.A.A.A.A.D.K.P.).).).uXuXuX).P.P.T.Q.Q.Q.R.z.t p & X   . . X : H D f f f f h h h h h h h f f d s f f d d d a a j a j y l c.v.E.E.E.E.E.g.e 8 8 7 # % : s U G I U K K K K K Q Q Q Q Q ! ! ! ! _ ( Q ) ) ) ` ` ` ` ` ` ` ` ` ` ` ` .............................................................................. .` ` ` ` ) ` ` ` ` _ _ _ _ _ _ _ _ _ _ _ _ _ _ _ _ _ _ _ _ _ _ _ _ Q K K Q _ _ _ ! ! ! ! ! ! K J J J J J J ~ ~ ~  .o.o.#.#.#.#.#.o.%.` ~ ~ ~ E ~ #.N.@.h j 7 j g ` 7.H.5.K S * ",
"5X5X5X5X5X5X5X5X5X5X6X*X*X*X*X*Xp.p.i.i.i.r.i.e.a.a.dXlXlXuXK.5.Q g g o.G.K.G.H.G.H.H.H.D.F.F.G.K.K.K.D.D.D.F.K./.).uX).K.5...Q D A H [ ;.:.:.t.3X*X*X*Xt.6Xt./ % > G 8.P.K.K.)./.K.K.G.D.D.D.A.A.A.A.D.D.K.).).).uXuXuXuX(.P.P.T.T.T.R.c.g.p 3 @   . . . o < G J J h h J J J J h h f f g g g g f d d f f f f f f g k l c.v.v.E.E.E.v.g.e 8 3 # # = 9 D U I U ' U K K Q Q Q Q Q ( ( ! ! ! ! _ ( ( ) ) ) ` ` ` ` ` ` ` ` ` ` ` ` ............................................................................ .` ` ` ` ` ` ` ` ` ` _ _ _ _ _ _ _ _ _ _ _ _ _ _ _ _ _ _ _ _ _ _ _ ! K L K Q _ _ ! Q Q Q Q K K J J h h J J J ~ ~ ~ o.o.#.#.@.@.@.@.#.o.%.` ~ h h h o.N.N.~ j 7 j a h +.S.5.Q D * ",
"5X5X5X5X5X5X5X5X5X5X*X*X*X*X*Xp.p.p.i.i.i.r.r.e.p.L.dXxXlXuXK.O.Q g g { H.G.S.S.H.H.H.H.F.G.K./.K.K.L.D.D.D.D.K.).uXuX).D.4.` Q A d H [ :.:.:.t.3X3X*X*XL.6XL.[ 1 > G 8.K.K.K.)./.K.G.D.D.D.D.A.A.A.A.D.K.P.).uXuXuXuXuX).P.K.P.T.T.T.c.g.t p 2 X   . . + ; b R Q J J J Q ! K J h J h J J J K Q K L L L J h h h h h h k l c.v.v.R.v.k.i 4 3 & @ = 6 D G K U Y Y U Q Q Q ! Q ! Q ( _ _ _ Q Q Q ( ( ` ) ` ` ` ` ` ` ` ` ` ` ` ` ] ............................................................O.........X... .` _ _ _ ` ` ` ` ` _ ` _ _ _ _ _ _ _ _ _ _ _ _ _ _ _ _ _ _ _ _ _ _ _ K L D K Q _ _ Q K K K K K J J h h h J J J ~ ~ ~ o.o.#.@.N.S.S.S.#.#.o.o.~ h h h ~ N.N.| j j j j a ` +.5.Q D * ",
"5X5X5X5X5X5X5X5X5X5X*X*X*X*X*Xp.r.r.i.i.i.r.e.9.a.L.iXlXjXuXD.O.R g g { H.H.S.S.H.H.H.H.F.K././.K.K.F.D.8.D.D.K.).uXuX/.D.O._ G d d A / :.:.:.t.:.t.*X*XL.6XL.-.; w R 8.P.K.K.)./.K.G.D.D.D.A.A.A.A.A.D.K.P.).uXuXuXuXuXP.K.K.P.J.T.T.c.t r p & X X     + , G [ Q J J K Q ! J J ! ! ! K J J K J L L L L L L L L h ! ~ k u x.c.v.R.c.l i 3 $ $ = 7 g G L U Y Y U K Q Q Q ! Q ! Q _ ! _ ! Q Q Q ( _ ` ` ) ) ` ` ` ` ` ` { { ` { ] ............................................................O.O........... .` _ _ _ ` ` ` ` _ _ _ _ _ _ _ _ _ _ _ _ _ _ _ _ _ _ _ _ ! ! ! ! ! ! K D D K ! _ ! K J K J J J J h h J J J J J ! ! | o.o.#.@.S.H.H.S.N.@.@.@.o.~ h h ~ @.H.o.f j j j 6 J ..O.Q D ; ",
"5X5X5X5X5X5X5X5X5X*X*Xp.p.p.p.p.i.i.i.i.i.e.9.9.8.uXlXlXuX(.8.O.~ q g #.S.S.S.S.S.S.S.S.D.F.G.K.G.H.H.D.7.5.D.K.uXuXuX/.8.O._ D d 0 A G -.:.:.:.t.t.6X6X6X6X6X6.9 w ( L.L.K.).K.K.G.H.S.S.S.A.A.5.5.D.K.P.).uXuXuXjXjXuX).K.D.I.I.J.m.k w 3 3 & # X     O 9 K ( K K K K K K K K K K K K ! ! ! ! K K K K L L L L ! ! ~ E k W x.c.c.^ y 3 # # = 6 S S S S F L L K K Q Q Q ! ! ! ! ! ! ! ! _ ! _ _ ` ` ` ` ) ` ` ` O.O.] ] ] ] ] ] .. .................................................O.O.O.O.O....... .` ` ` _ ` _ _ _ _ _ _ _ _ _ _ _ _ _ _ ! ! _ _ _ ! ! Q Q Q ! ! ! ! Q Q K K S D L J K K K K K K J J J J J D J J K J Q ! ~ ~ | o.#.S.H.H.H.H.H.H.H.H.S.#.~ f %.#.H.N.h j 6 6 6 g _ +.K S ; ",
"5X5X5X5X5X5X5X5X5X*X*Xp.p.p.p.p.i.i.i.i.i.e.9.4.8.(.lXiXuX(.9...Q q g o.S.S.S.7.S.S.S.S.D.F.G.K.G.H.S.S.5.5.D.K.).uXuXK.5...K S A 0 A G -.2.0.0.t.t.6X6X6X6X6X6.b 9 R L.L.K.).K.K.D.D.S.S.S.A.A.5.A.D.K.).uXuXuXuXjXjXuXP.D.D.I.A.m.^ 8 3 3 = = % % o o ; S ' X.! ! ! ! ! ! ! ! ! ! ! ! ! ! ! ! _ X.X.X.X.X.X.X.X.X.` ~ E k k k k q 7 = % = 6 s S S S L L L K K ! Q Q ! ! ! ! ! ! ! ! ! ! ! ! _ ` ` ` ` ) ` ` ` O.O.] ] ] ] ....`  .................O.O...O.........................O.O.O.O.O.O....... .` _ _ _ _ _ _ _ _ _ _ _ _ _ _ _ _ _ ! ! _ _ _ _ Q Q Q K Q ! ! Q K K J J J J J J J J J J J J J J J J J D J J J K K ! ~ ~ ` o.#.S.H.G.G.G.G.G.G.G.H.S.#.~ o.@.G.H.~ g j 6 6 d ! O.K S ; ",
"5X5X5X5X5X5X5X5X*X*Xp.p.p.p.p.p.r.r.r.r.e.6.4.4.8.(.iXiX).K.5. .Q 9 d o.7.7.7.7.S.S.S.S.H.F.G.G.H.S.5.@.+.@.H./.).uX).F.4._ D s s 9 b I -.0.t.t.*X*X6X6X6X6X6Xt.n 9 G D.F.K.).K.G.H.S.S.S.S.S.A.A.D.F.K.).uXiXjXiXjXiXuXK.D.A.A.{ E q = & & = = : * % * 9 U X..._ ` | ! ! ! ! ! ! ! ! `  . . . .X.X.X.X.X.+.X.+.X. . .~ k q 3 = & & # % = > s L S L L L L K K Q ! ! ! ! ! ! ! _ ! _ _ _ _ _ _ _ ` ` ` ` ) ` ` ` O.O.O...O.O.O...`  .................O.O.O.O.O......................................... .` _ _ _ _ _ _ _ _ _ _ _ _ _ _ _ _ ! ! Q _ _ _ Q Q Q K K J K K K J J J f J J J J J D f f J J J J J J J J J J J K K ! ! ~ ` o.#.S.H.G././.G.G./._.)./.H.N.#.N._._.%.h g j 7 d ~ O.K S ; ",
"5X5X5X5X5X5X5X5X*X*Xp.p.p.r.r.r.r.r.e.e.e.6.4.4.8.(.iXiX(.L.4.` Q 6 d o.5.5.7.5.7.S.S.H.H.F.G.G.H.5.@.#.#.5.F.).uXuX).D...Q S s s 9 b I ;.0.t.*X*X*X6X6X6X6X6XL.G w A A.L.K.).K.G.H.S.S.S.D.S.A.D.D.K.).uXuXjXjXjXjXuX).K.A.5.5.~ E 7 = = = : : w : : w S ` ..` .. . . . . .! !  . . ..... . .........+.+.4.+.+.+.+.o. .~ q = # # # # * > s S L L L L L K ( ( _ _ ! ! ! _ _ _ ! _ _ _ _ _ _ _ _ ` ` ` ` ` ` ` ` O.O.....O.O.O...`  ...............O.O.O.O.O.O....................................... .` _ _ _ _ _ _ _ _ _ _ _ _ _ _ _ _ _ ! Q Q Q Q Q K Q K K K J J J J J D f f K J J J J f f f J J J J J J J J J J J J K K ! ~ ~ ` #.S.H._._.)./././.).).)._.G.S.G.).|.N.%.h a 6 d ~ O.K S ; ",
"5X5X5X5X5X*X*X*Xp.p.p.p.r.r.r.r.e.e.e.e.e.e.3.4.a.hXiXuX(.F.4.` J 7 a  .5.5.5.5.7.S.D.H.F.F.F.H.H.5.#.#.O.5.K.uXuXuX).8...K S s 0 9 b I ;.0.t.*X*X*X6X7X6X6X7XL.I < 0 5.P.K.).K.G.H.S.S.S.D.D.S.D.D.K.).uXuXiXjXjXuXuXP.D.5.O.O.{ Q g 7 7 7 7 7 9 w 7 d _ O.<... . . . . . . . . . . . . . .+.O.+.+.+.4.+.4.4.4.7.7.@.#.` h 7 3 = = : 7 d D K L L L K K ( _ _ [ _ _ _ _ _ _ _ _ _ _ _ _ _ _ _ _ ` ` ` ` ` ` ............o.o....... .........O.......O.O.O.O....................................... . .` _ _ _ _ _ _ _ _ _ _ _ _ _ _ _ ! ! ! ! Q Q Q Q K K K K K J J J J J D f f J J J J J J J J J J J J J J J J J J J J J K L ! ~ ` #.S.H./.).)._././.).).).)._._.).jXjX_.N.o.h j g ~ O.L S ; ",
"5X5X5X5X*X*X*Xp.p.p.p.r.r.r.r.r.e.e.e.e.e.6.4.4.a.hXiXuX(.D.4.` J 6 a ` 5.5.5.@.7.S.D.F.G.F.H.H.S.@.#.#.O.5.K.uXiXuX(.5.` K S s 0 0 n I ;.0.t.*X*X*X6X7X7X6X7X6X/ : 9 6.P.K.).P.G.H.S.S.S.D.D.S.D.K.P.).uXuXiXjXiXuX).K.D.5.O.O._ R g a d d d s 9 9 9 G ..O....... . . . . . . . . . .o.+.+.+.+.4.4.4.4.7.7.7.7.7.7.+.+. .~ h d a a a f D L L L K K U ( _ ) ) ) ` _ _ _ _ _ _ _ _ _ _ _ _ _ ` ` ` ` ` ` ` ` ..........o.o.o....... .........O.O.....O............................................. .` _ _ _ _ _ _ _ ! ! _ _ _ _ _ _ ! ! ! ! K K K K K K K K K J J J J J J D f f J J J J J J J J h h J J J J J J J J J J J K K Q ~ ~ #.S.H.G./.).)._./.).).|.).).).).jXjX|.G.#.~ g h ~ ..D S ; ",
"5X5X5X*X*X*Xp.p.p.p.r.r.r.e.e.r.e.e.e.0.e.3.3.4.a.(.iXuXL.8.O._ J 7 a ` @.@.@.@.5.S.D.G.G.F.H.D.5.@.o.o.O.@.K.).uXuX/.5._ D d s b 0 n I ;.0.t.*X6X*X7X7X6X6X7X6X-.: w 6.P.K.P.K.G.H.S.S.D.D.D.D.K.K.).uXuXjXjXiXuXuX).K.D.5.O.` Q L f f f f S S 9 9 s K ......O.O.+.+.+.O.O.+.+.+.+.+.+.+.+.+.+.7.5.7.7.7.7.7.7.+.$.+. .! Q J J L J J L L K L L _ _ ( _ _ ) ` ` ` _ _ [ _ _ _ [ _ _ [ [ _ ` _ _ ` ` ` ` ` ....O.o................. ............................................................... .` _ _ _ _ _ _ _ ! ! ! _ _ _ _ _ ! ! ! ! Q K K K K K K K K L L J J J D f f f J J J h f D J J f D h J J J J J J J J J J J K ~ ~ ~ #.N.H.G././.)./.G._.).|.jX|.|.).jXjX|._.S.| J J ~ ..S S * ",
"5X5X5X*X*Xp.p.p.p.p.r.r.e.e.e.e.e.q.q.0.0.3.3.<.a.(.uX(.L.9..._ J 7 q ` @.@.@.@.5.S.H.G.G.G.H.S.@.#.o.o...O.D.).uXuXK.4.! D d 9 n 0 n I ;.0.t.*X6X6X7X7X7X7X7X6X-.: w 6.P.K.K.K.G.H.S.S.D.D.D.D.K.).).uXjXjXjXjXuXuX).K.D.5.O.` ` ! L L S S S D d d D ` O.O.O.5.+.+.+.+.+.+.+.+.+.+.+.+.+.+.+.5.5.5.5.7.7.7.7.7.7.7.4.+.| ! J ! ! ! ! K ! ! ! ! _ ( _ [ ) ` ` ` ` ` _ _ _ _ _ [ [ [ [ [ _ _ _ _ ` ` ` ` ` ....O...o............... ........................................................... . . .` _ _ _ _ _ _ _ ! ! ! _ _ _ _ ! ! ! Q K Q Q K K K K K K L L J J J J D f g f J J J f f f f f f f h h J J J J J J J J J J J J ~ ~ o.@.H.G.G.G.G.G.H.G.).).jX|.jX|.jXxXjX|._.$.~ Q ~ ..S A * ",
"5X5X*X*Xp.p.p.p.r.r.r.r.e.e.e.e.r.e.e.e.0.<.<.4.K.uXuXK.9.4.+.` g 6 q Q +.@.+.5.@.S.G.G.K.K.H.5.@.` ` o.` 5.).iXjX).8.O._ S d s A b n I ;.0.t.*X6X6X7X7X7XsX7X6X-.< w { K.K.P.K.H.S.H.H.D.5.S.D.K.).uXuXuXjXjXuXuX).K.K.A.O.{ ` _ K L L L K K K L Q ` ..O.+.4.4.4.+.+.+.+.+.+.+.+.+.7.7.7.7.7.7.S.S.S.S.S.7.7.4.+.+.+... . . . .! K K K _ _ _ _ ` ` ) ` ] ] { ] `  .` ` _ _ _ _ _ _ _ _ ` _ _ _ ` ` ` ..o.o.o.O.` ` ..o.o.o.o.O... . .................................+.+.......+.+.+.+..... . . .` ` ` _ _ _ _ ! ! ! _ _ _ _ _ ! ! ! ! ! Q Q Q K K K K J J L L f J J J f s f f J D f f f f J J J J J J J J J J f f D J J J J J ~ ~ ` #.S.H.G.G.H.G.G.G./.).).).|.jXxXxXxXxX|._.@.` ` O.s 9 * ",
"5X*X*X*Xp.p.p.p.r.r.e.e.e.e.e.e.e.e.e.e.0.<.3.9.(.uXuXL.9.4.+.` g 7 9 Q +.@.+.5.@.S.G.K.K.K.S.@.#._ _ o...5.).iXiX(.5..._ D f A A Z A I =.:.t.*X6X6X6X7X7XsXsX6X-.w w ] F.K.P.K.H.H.H.H.D.A.D.D.K.(.uXjXjXjXjXiXiX).K.D.A.O.{ .. ._ K K K _ _ _ K _  .O.O.4.5.5.+.+.+.+.+.+.+.+.7.7.7.7.7.7.7.7.H.H.H.H.D.7.7.5.+.+.+...X. . . .K K K K _ _ _ ` ) ` ` ` ] ] ] ] `  .` ` _ _ _ _ _ _ _ _ _ _ _ _ ` ` ` ` ..o.o.o.` ` ....o.o.o.........................................+.+.+.....+...+.+..... . .` ` ` ` _ _ _ _ ! ! ! ! _ _ _ _ ! ! ! ! ! Q Q Q K K K J J J J L D J J J f s f D J D f f f f f g J J J J J J J J f f f D D J J J J ~ ` #.@.H.H.G.G.G.H.G.G.).).).|.jXjXxXxXxXjX).7.o.O.4.S d ; ",
"*X*X*Xp.p.p.r.r.e.e.e.e.e.e.e.e.q.q.q.e.0.3.3.8.uXuX(.8.4.4.O._ g 7 7 J #.+.+.@.@.S.G.K.K.F.7.#.o.~ _ ` o.7.).iXuXK.4.` Q D S S S Z A I =.;.e.*X6X6X6X6X7XsXsXdX6.9 < ( D.K.K.K.H.H.S.D.D.A.D.K.K.).uXjXjXlXjXjXiX).K.D.5.O.O.O.....' ' _ _ _ _ _  ...+.+.5.5.7.7.7.7.7.7.7.7.7.7.7.7.8.F.F.F.F.F.H.H.S.S.7.5.@.#.+..... .X._ _ K K K K  ._ ` ` ` ` ] ] ] ] ] `  . .` ` _ _ _ _ _ _ ` _ ` ` _ _ ` ` ` ` ` ` ....` ` ` ......o.......................................+.+.+.+...X...........X.X.X.` ` ` _ _ _ _ _ ! ! ! ! ! ! ! ! ! ! ! ! ! Q Q Q K K K J J J L L D J f g d d f J J D f f s s s s f f f f f f f f g g f f f f f h h ~ ~ o.@.S.H.G.G.H.S.H.G._.).).|.|.|.jXxXxXxXjXG.7.7.D._ D ; ",
"*X*Xp.p.p.r.r.r.e.e.e.e.e.e.e.0.q.0.0.q.e.6.8.L.uX(.L.7.4.4..._ h 7 7 D o.+.+.@.@.H.K./.K.D.@...` ~ ~ ` o.D.).iX).F.O.` K D S S S A F U =.<.e.*X6X6X6X6X7XsXdXdXt.n < G A.K.K.K.H.H.S.S.D.D.D.K.P.uXiXjXjXlXlXiXuX).D.A.5.O.O.O...........` _ _ ..O.4.4.5.5.7.D.F.F.F.F.F.F.F.F.F.F.F.F.F.F.F.F.F.7.7.7.@.@.+.#.O.O..... .X._ _ K K ! ! _ _ ` ` ` ` ] ` ` ` ] .. . .`  .` ! _ ! _ ! ` ! ` ` _ _ ` ` ` ` ` `  ...o.o.o...............................................+.+.+...X.X.........X. .X.X. .` ` _ _ _ _ ! ! ! ! ! ! ! ! ! ! ! ! ! ! Q Q Q K K K J J L L L D J f s a f f J J J f f f d s s f f f f f d f f f f f f f f f g h h ~ ` #.S.H.H.H.S.@.@.H.G./._.).|.|.|.jXxXzXxX)._./.(.4.( ; ",
"p.p.p.p.r.r.r.e.e.e.e.e.e.0.0.0.q.2.2.0.0.e.a.(.hX(.8.4.4.5..._ D 6 7 g ..#.#.@.5.H./.K.H.7.#._ ~ ~ ~ ` o.D.uXuX).D.O.! K S S S S S F U -.<.e.*X6X6X6X6X7XdXdXdXL.H : A 5.K.D.G.G.H.S.S.D.D.D.P.).uXjXjXlXlXjXuXuXK.D.5.O.O.O.O.] ..O.<...` ` ` +.4.5.7.7.7.7.F.F.F.F.F.F.F.F.F.F.F.F.F.F.F.F.F.7.7.7.$.#.#.#.#.o.....` _ _ _ U ! ! ! ! _ ` ` ` ` ` ] ] ] ` ....` |  .|  .` ` ` ` ` ` ` | | | | ` ` ` ` `  . . . . .o.o..... ...`  ...................O...........+.+.+.+.....X.....X.X.X. .X. .` ` _ _ _ _ _ ! ! ! ! ! ! ! ! ! ! ! ! ! ! ! Q Q Q Q K K J J J D J J f a a f J J J J J f f f g f f f f f f f f f d d d s s s s d g h ~ ~ #.@.H.H.G.S.#.#.N.H.G.G.).).).).|.xXzXzXjXjXiXiXL...; ",
"p.p.p.p.r.e.e.e.e.e.e.e.0.0.0.0.q.2.2.0.0.6.L.hXuX(.8.7.9.7..._ D 7 > g ` #.#.@.7.G./.K.S.@.o.~ ~ R ~ _ o.F.uXuX(.8...Q L S f S S S L ( -.<.e.*X6X6X6X6XyXdXdXdXL.R : 9 6.K.D.G.G.H.S.D.D.D.K.).uXuXjXjXlXlXjXuX).D.5.O.O.{ { O.] ..<.<.O.......4.5.7.D.8.D.F.F.F.F.F.F.H.H.F.F.F.F.F.F.F.F.F.7.9.7.$.+.+.#.#.#.` ` ` ` _ _ _ _ _ ! ! ! ` ` ` ` ` ` ] ] ......X. .| | | | | | | | | | | | | | | ` ` ` ` ` ` ` ` o.o.o.o...` `  .`  . . .........O.O.O.O.....O.+.+.+.+.+.+...X.X.X.X.X.X.X.X. ._ X._ _ _ _ _ _ ! ! ! ! ! ! ! _ ! ! ! ! ! ! ! Q Q Q Q K J J J D f f J f 9 9 g J J J J J D D f f f f f g f f f f f a a a a a a a a g g ~ ~ o.@.H.H.G.H.N.@.S.H.G./._.)._._.).jXxXzXzXzXxXxXuX8.; ",
"p.p.p.r.r.e.e.e.e.e.e.e.0.0.0.0.q.2.2.0.0.6.L.hX(.F.8.8.8.9..._ D 7 > d ` #.#.+.S.K./.G.S.+.` ~ ~ D Q _ o.K.uX).K.5.` K D S S S D L K ' ] ;.e.r.5X6X6X6XsXsXdXuXuX[ : 7 6.K.A.D.G.H.S.S.D.H.K.).uXjXjXjXlXlXuX).K.D.5.O.O.` ` { ) ] { { ] ] ` ..+.5.7.D.F.F.F.F.F.F.F.F.F.F.F.F.F.F.F.F.8.7.7.7.7.$.+.+.o.o.o.o.` ` ` ` _ _ _ _ _ ! ! ! ` ` ` ` ` ` ` ] ..X.X.X. .| | | | | | |  . . . .|  .|  .` ` ` ` ` ` ` ` o.o.o.o.o.` ` ` ..............................X.+.+.+.+.X.X.X.X.X.X.X.X.X.X. ._ _ _ _ _ _ _ _ _ ! ! ! ! _ _ _ ! ! ! ! ! ! ! Q Q ! K K J J J f f f f f 6 6 f J D S h S f f f g f f f d s s s s a 6 9 a a a a a a g g ~ ~ o.@.H.H.G.H.H.S.N.H.G._._.).)._._.|.xXzXzXFXzXbXlXL.< ",
"p.p.r.r.e.e.e.e.e.q.e.q.0.0.0.2.q.0.2.0.0.e.L.uX(.L.8.F.L.9...` D 7 > d ` O.#.+.D.K./.G.5.o.` ~ R h R _ o.K.uX).D.4._ K D S S L K K ( ] ] ] <.e.L.5X6X7XsXdXdXuXuX) : w 6.F.A.D.G.H.S.D.H.H.K.).uXjXjXjXjXjXuX).K.D.O.O...` ` ` ( ) ` ` ) _ ) ` O.5.D.F.F.F.F.F.F.F.F.F.F.F.F.F.H.F.F.7.S.7.7.7.+.+... . .| ` ` _ _ ` ` _ _ _ _ _ ! _ _ ` ` ` ` ` ` ` ....X.X.+.| | | | | | | | | | | %.%.%.%.%.^ ` ` ~ ~ ~ ~ ^ o.{ { { { { { { o.o.O.O.O.#.#.#.{ o.o.o..... .......+.O.#.o.o... .X.X.X.X.X._ _ _ _ _ _ _ _ _ _ _ _ ! ! ! _ _ _ ! ! ! ! ! ! ! ! ! K K J J h f f f f d 6 6 f J f f f f f f f d s a a a a 6 6 6 6 6 6 6 6 a a a a g g h ~ o.@.H.H.H.H.H.S.N.N.H.G._.).)._._.).jXxXzXFXzXbXzX(.> ",
"i.i.i.i.r.r.e.e.q.q.w.w.1.1.0.w.w.w.w.1.1.e.a.(.F.8.8.F.F.7.+...D 6 = 7 ! o.O.7.G.K./.G.5.{ ~ ~ D D ~ { 5.).iX).D.O.[ K D S S L L K ' 6.6.....F.(.L.dXcXgXgXlXiXlX6.w : ) D.A.D.D.D.D.H.H.G.).).jXjXjXjXlXjX).K.D.4.O...` _ Q _ Q _ _ _ Q ! ` O.4.5.7.D.L.L.L.F.F.H.H.F.G.F.F.H.H.D.D.S.7.5.@.+. . . .| ! ! ` ` ` ` _ ! ! ! ! ! ! _ _ _ ` ` ....` `  . .X.X.X.X. .o.%.N.B.B.N._._._.`.B.b.b.b.b.b.b.%.^ ^ ^ ^ ^ ^ x.x.c.x.c.m.m.{ { ^ x.c.c.c.c.m.^ { o.o.#.+.`  .#.@.m.m.x.x.#.o.~ |  .U ' ` ) ` _ _ _ _ ! ! Q _ _ _ _ _ _ _ _ Q ! ! ! ! ! ! ! K K J J J J f f g a 9 d g h h h g g g d d a a a 6 6 6 6 6 6 6 6 6 6 6 a a s s s g g ~ ~ ` #.S.H.H.H.N.@.#.#.N.S.G.).).)._._.|.jXZXZXFXbXzXjXd ",
"i.r.r.e.e.q.q.q.q.w.w.w.0.0.0.w.w.w.w.1.1.e.^.(.F.8.8.F.F.7.+...f 6 - 6 ~ o.+.S.K.K.K.H.@.` ~ ~ D D Q { 5.).iX(.8.O._ Q G G G K +.8.L.6XuXK.F.).iXhXcXvXdXgXlXlXlX6.w : R 5.5.D.I.I.H.H.H.K.).).jXjXjXjXjXjX).K.8.4.....` _ ! _ Q _ _ ! Q _ ..+.4.7.8.F.L.L.F.F.G.F.H.F.F.G.H.H.S.S.S.5.@.#.o...` ` ! ! ! ! ! ` ` ` ! ! ! ! ! ! _ _ _ _ `  ..... . .X.X.X.X.X.X.$._.H.N.`.XXoXoX}.oXoX X`.V.V.C.`.].].].].].`.U.n.n.M.Z.M.c.M.I.A.N.M.M.R.R.R.c.c.x.m.m.o.#.o.{ o.#.m.n.c.c.c.x.^ ~ ! | _ ( ] ] ) _ _ _ _ _ ! ! _ _ _ _ _ _ _ ! Q ! ! ! ! ! ! ! K K J J J J f f g a 9 d h h f h g g d d s a 9 9 6 6 6 6 6 6 6 6 6 6 j a a s s s g h ~ ~ ` #.N.H.G.H.S.@.#.#.@.S.G._.).).)._.|.|.zXzXFXFXzXjXf ",
"r.r.q.q.q.q.w.w.w.w.w.w.1.0.1.0.1.w.0.,.1.u.(.(.8.8.8.F.F.7.+...f 6 = 6 Q o.+.D././.G.7.#._ R J D D ~ { 5.).iX).5..._ Q K L K _ 9.hXdXyXyXL.7.9.9.u.&X3X3X>XyXuXL.) : % A 6.5.A.D.D.H.D.H.K.).).jXiXjXjXjXuX).F.5.O...` ` _ Q _ ! ! ! Q Q _ ..4.4.8.F.L.F.D.F.F.G.H.H.H.H.H.D.S.7.5.@.+.o.` _ ~ Q K K J J Q ! ! ` ` ! ! ! ! ! ! Q _ _ _ `  . ...........X.X.X. .H.|.].B.'.AXPXAXDXKXDXSX'.V.Z.'.CXCXSXSXSXSXCXoXZ.Z.Z.Z.T.Z.M.U.U.U.T.R.R.R.R.R.v.M.U.U.N.m.N.m.I.I.M.M.R.R.R.c.n.m.#.o.` ` ) ) ) _ _ _ _ _ ! ! _ _ ! ! Q Q Q Q ! ! ! ! ! ! Q Q Q K J D h f f f f a 6 s f J f g d d s a a a 9 6 6 6 6 6 6 6 6 6 6 j a a a s s s g h ~ ~ ~ #.@.H.G.G.H.N.#.#.#.$.H.G.).).)._._.).jXxXFXFXFXxXJ ",
"q.q.q.q.q.w.w.w.w.w.w.1.1.1.1.1.1.1.1.,.0.a.(.(.8.9.8.F.F.7.+. .f 6 = > Q +.5.F.)./.H.@.` ~ R D D D ~ o.8.uXjX).4...( Q K L K U s.hXsX-Xp.a.9.9.a.y.;X,X3X7XyXt.0 < % % 9 ] 5.A.A.D.H.D.G.K.).).iXiXjXjXiX).K.D.5.O.` ` _ ! Q _ ! Q Q K K _ ..4.4.8.L.L.F.D.F.L.F.H.S.S.S.S.5.5.5.@.+.o.` ~ Q J h J J h h J ! ~ ` _ ! ! ! ! _ _ ! _ _ _ ` ........+.+...X.X.X.+.).kX{.B.'.DXDXSXDXDXDXDX'.l.Z.OXCXSXAXAXKXAXDX+XY.Z.Z.Z.Y.Z.Z.Y..X.XY.R.R.R.E.R.R.T.MXMX'.U.].].T.T.R.R.R.R.R.v.T.U.J.G.A.O.) R ` _ _ _ _ _ _ _ _ ! ! ! Q Q Q Q ! ! ! ! ! K K K ! K J f f f f f d a 6 d J J f f d s s a a a 6 6 a a a a a a a a a a a s s s a d f h ~ ~ ~ o.@.H.G.H.S.N.#.o.o.#.S.H._.).).)._._.|.jXzXFXFXxXJ ",
"q.q.q.q.w.w.w.w.1.1.1.1.1.1.1.>.1.1.1.,.s.a.(.(.9.9.F.F.F.7.+. .g 6 = > J +.S.G.)./.S.O._ R D h D D ~ O.D.uXiXK.4.` Q K L G L U s.aXfX0XsXcXbXbXbXnXvXvXvXvXpXY X @ # % w ) A.5.A.D.H.D.G.P.).|.uXuXjXjXuX).K.D.4...` ` _ Q Q _ Q K K L K _ ..4.4.8.F.L.F.F.L.K.K.F.D.S.7.7.5.+.+.+.o.` ~ Q J D h h h h h J K ! _ _ ! ! _ _ _ _ _ _ _ _  .......O.+.+.+. . .+.$.|.MX[.C..XDXDXDXDXDXDXDXOXl.Z.OXDXDXDXDXDXDXDXDXOXZ.l.Z.Q.Y.Q.oXNXOXQ.!.E.E.E.E.E.Q.JXJXoX.XXXXX.XQ.R.v.E.E.E.v.Q.MXkX].].I.^ E ` _ ! _ _ _ ! ! Q Q ! ! ! ! ! ! ! ! ! ! K K K K Q K J f f f g f a 6 a f J D g f s d s s a a a a s s s s s s s s a s s s s a f f h h D R ~ o.@.H.G.H.H.N.#.o.o.o.@.H.G.).).)._._._.|.xXFXFXxXJ ",
"w.w.w.w.w.w.w.1.1.1.1.>.>.>.>.>.1.1.&.,.s.a.(.(.8.F./.F.F.7.+.! g 6 = : J @.H._.).K.5.o.~ R D h D D ) O.F.uXuXK.O.` Q K L G L U s.rXaX;XfXbXUXIXUXnXtX2XtXvX%X,   # : < w R 5.5.A.D.H.G.K./.).uX).uXjXjXuX/.D.7.O.` _ _ _ K K Q K K L K Q _ ..+.4.8.F.L.F.F.L.L.K.G.D.S.7.7.+.+... .` Q J D h g f h h h h J ! ! _ _ ! ! _ _ _ _ _ _ _  ...........+.+.o.o.+.S.G.{.XX[.Y.OXDXDXDXDX@XDXDXOXZ.Z.OX+X+XDX@XDXDXDXDXOXZ.l.!.OXOXOXOXJXJXQ.!.E.E.!.!.E.!.JXJXoX.X.X.XOXQ.E.v.E.E.E.E.Q.NXBX{.].J.^ ~ ` ! ! _ _ _ _ _ Q Q ! ! ! ! ! ! ! ! ! ! K K K K K J f f f f f f 6 6 s f J f f f f f f d s s a a a a s s s s s s s s s s f f f f f h h ~ ~ ` #.S.H.H.H.N.#.o.%.%.#.N.G.).).)._._._.).jXzXFXxX! ",
"w.w.w.w.1.1.1.1.1.1.1.>.>.>.>.>.1.=.&.,.e.(.(.F.8.(././.F.7.+.` f 9 = : J 7.G.).).G.@.` ~ R D g g h _ @.K.iXuXD...! K K K L K U s.rXqX%XwXnXbXUXbXeX4X4X1XvX%X; o : A 0 : A 5.5.A.A.D.K.K.).).).).uXjXjX).K.D.5.O.` ! Q _ K K Q K K K K _  .O.4.8.D.F.L.L.L.F.D.F.D.7.@.+.O...` ~ Q J h g d d d f f h h J K !  ._ _ _ ! _ _ _ ` ` `  .......+.+.+.+.+.#.#.@._.].}.VXXXC.'.+XDXDXDX+X@XDXOXZ.l.'.+X+X+X@X+X+XDXDX+X!.l.!.OXOXOXQ.OXOX!.!.W.W.W.W.E.!.OXJXOXOX.XQ.Q.!.E.E.E.E.E.E.!.JXNX{.{.J.^ ^ _ ! _ _ _ _ _ _ ! ! ! ! ! ! ! ! ! ! ! ! K K J J J J f f f g f s > 6 f J h f f f f f f f f s s s f f f f f f f f s s s s f f f f f g h h Q ` #.@.G.G.H.S.@.o.o.%.o.@.G._.)._._._._._.).xXzXzX~ ",
"w.w.1.1.1.1.1.1.1.>.>.>.>.>.>.>.1.&.&.,.e.(.(.F.F./.).(./.F.@.` f a = : J 7./.).).G.@.` ~ R h g g h ~ A./.iXuX5.` Q K K K K _ X.u.rX;X%XeXnXbXUXnXqX*.4XtXvX%X1 ; 0 ) A : 0 6.5.A.D.D.K.K.).).).).uXjXuX).K.S.5...` Q Q Q K K ! Q K K ! ` ..+.4.F.F.L.L.L.F.8.7.7.5.+.o. .` ~ Q D h g d a a a a d f f h J ! `  ._ _ _ ! _ _ _ ` `  .......+.+.+.+.+.+.#.#.N._.|.XXDX+X'.'.+XDXDXDX@X+X@X+XZ.Z.Z.+X+XDX@X@X@XDXDX+X!.l.E.OXOX!.E.Q.OX!.!.W.W.W.W.W.!.OXJXOXOX.XY.Q.!.E.E.W.W.W.E.!.JXNX'.].B.^ ^ ~ ! _ _ _ ! _ _ _ _ _ _ _ _ _ ! ! ! ! ! K K J J J D f f f f d s > 6 f L f s s f f f f f f f f f a f a s s f s s s s s f f f f f g g g h ~ ~ #.@.G.G.G.S.@.#.%.o.o.@.H._.)._.).)._.H._.jXzXzX~ ",
"w.w.w.w.w.1.1.>.>.>.>.>.>.>.>.&.&.Y Y ,.a.yX(.8././././.G.S.+.! h 6 = * d 7._./.K.5. .~ R g g g g ~ ` 5.).iX/.5.` _ Q Q K ! _ X.qXrX%Xw.wXcXnXbXnX%X*.4X2XvX;X1 < 6.8.0 : 0 ` 5.A.A.D.D.G./.).).uXuXjX).).F.5.O.` ` _ ! ! Q Q ! ! _ _ _  .4.8.7.F.F.L.L.F.D.7.5.4.+. . .! K J K f f d s a s s f a g J K ! !  . ._ ! ! _ _ ` ` `  .....4.4.4.4.4.7.+.#.#.N.J.].|.SXAXoX'.Z.OX+XDX@X@X@X@X+X'.l.Z.+XDXDXDXDXDXDXDX+X!.l.E.!.!.!.!.OXOX!.!.W.W.W.W.W.!.!.OX+XOX.XOXOX!.!.E.W.W.W.E.!.JXJX'.U.`.m.h R Q ! ! ! ! ! ! ! ! ! ! ! ! ! ! ! ! ! K K J J J J h g f f d a 6 > a f J J J h f f f f f f f f f f f f f f f s s f f f f s s s f g g h h ~ ~ %.#.S.H.H.N.#.%.%.| o.#.S.G._.).|.|._._._._.jXzX| ",
"w.w.w.w.1.>.>.>.>.>.>.>.>.>.>.&.&.Y Y ,.a.yX(.8././././.H.7.o.! h 6 - * a 5././.G.5.` ~ R g g g h ~ ` 5._.uX/.5.` ! Q Q K ! ..9.rXrXu.&.&XgXgXhX^.>.C *.2XnXeX< A A.L.G w 9 Q 5.A.A.D.D.K.).).).).uXuX)./.H.@.O.` _ Q Q Q Q ! ! _ ! _ ` ..4.8.8.F.L.L.L.F.8.5.+.O. .! ~ K f f f f f d s s s s f d h K ! !  . . ._ ! ! _ _ ` ` `  .....4.4.4.4.4.+.o.#.@.N.`.|.kXVXoXXX'.Z.OX@X@X@X@X@X@X+X'.l.Z.+XDXDXDXDXDXDXDX+X!.v.E.!.!.!.!.Q.OX!.!.W.W.W.W.W.W.!.+X+XOX.X+XOXOX!.E.W.W.W.W.!.+XJX.X`.].N.h Q Q ! ! ! ! ! ! ! ! ! ! ! ! ! ! ! ! ! Q K J J J J h g f d s 6 6 > s h J J J J f f f J J J J J J f f f f f f f f f f f f s s s f g g g h ~ ~ %.#.S.H.H.N.#.o.%.%.o.#.S.G._.).|.|._._.G._.jXxX~ ",
">.>.>.>.>.>.>.>.>.>.>.>.>.>.&.&.&.Y Y 3.a.(.K.8.(.)./.G.S.@.| Q g 6 - * a 5./.K.H.@._ R h g g g g ~ { S.).).K.@...! Q Q ! _ 4.(.nXnXwX=XdXnXgXuXhXaXtXtXvXUXfXZ ( L.K.) w : A 5.5.A.H.G.K.).).).).).).).K.S.O..._ ! Q Q K Q Q Q _ Q _ ..4.4.7.L.L.L.L.F.8.5.+.O. .! J K J f s f f f s s s s s f f J ! !  .+.+. ._ _ ! ! _ `  . .......+.4.4.4.7.+.#.#.N._.|.VXSXoX'.'.'.Z.OX@X@X@X@X@XDX+X'.Z.Z.+XDXDXDXDXDXDXDXDXOXE.E.!.!.!.E.Q.OX!.!.W.W.W.W.W.W.!.+XJXOX'.NXJXOX!.W.W.W.W.W.E.+XJXoX{.|.H.h Q Q Q Q ! ! ! ! ! ! ! ! ! ! ! ! ~ ~ ! Q K J J J J f f d s a 6 > 6 s J J J J J h f f f J J J J J J J f f f f f f f s f f s s f f g g g g h ~ ` #.N.H.H.S.@.#.o.o.` o.@.H._._.|.|.)._._.G.).jXh ",
">.>.>.>.>.>.>.>.>.>.>.>.>.&.&.&.&.Y Y s.a.(.K.F.).)./.F.7.+.` ~ d 6 = * 9 5./.K.S.O.~ D g g d g g ~ o.G.).).G.+.O.! Q ` _ _ 8.uXUXbXbXbXbXbXxXxXnXcXvXvXvXvXy.Z <.L.L.-.0 = 9 O.5.A.D.K.K.).).|.iXuX).).K.7.O.` ! Q Q Q K K Q K _ K ! +.5.+.5.L.L.L.F.8.5.+...` _ ! K J h s s a s s a a s s f f J Q ~ `  .+.+. ._ _ ! ! _ `  .......+.4.4.4.4.7.+.@.N.B.].}.VXSX XC.'.OXZ.'.+X@X@X@X@XDX@XOXZ.Z.OX+XDXDXDXDXDXDXDXOXE.E.!.!.!.E.Q.OXOX!.W.W.W.W.W.W.!.+XJXQ.Y.CXNX+X!.!.W.W.W.W.W.OXJXNX}.|.J.~ Q Q Q Q Q ! ! ! ! ! ! ! ! ! ! ! ~ ! ! Q K J J J J f f s a 6 > > j s J J J J J h f f J J J J J J J J J f f f f f s s f f f f f f g g g g h Q ` o.N.H.G.S.@.o.o.| ` o.#.N.G._.).|.|.)._./._.).g ",
">.>.>.>.>.>.>.>.>.>.>.>.*.*.*.&.&.Y =.e.L.(.K.L.)._./.H.$.#.` ~ g a - * 9 5._.K.5. .R g g g d g g ~ #.).iX).S.o.` ~ !  .` _ 5.(.hXfXgXsXuXiX).7.! F P M c c c F 8.L.K.6.A * : ` 5.A.H.K.K.).).|.jXiX).).F.5.O.` Q Q Q Q Q Q Q Q _ K _ 4.5.O.4.L.F.D.8.5.+. ._ Q ! J J f f s a s a a a a s f h J ! `  . .+.$.+..._ ! ! ! _ `  .......4.4.4.4.4.7.+.$.N._.}.oXCX+X`.C.OX+XZ.'.+X@X+X@X@X@X@XOXZ.Z.OX+X+XDXDXDXDXDXDXOX!.E.!.!.!.E.Q.OX+X!.W.W.W.W.W.W.!.+XJX.X'.CXCX+XOX!.W.W.W.W.!.!.JXCX}.|._.~ Q Q Q Q ! ! ! ! ! ! ! ! ~ ~ ! ! ! ! ! K K J J J D f s s 9 > > > a f J f f f J f J J J J J J J J J f f f f f f f s s s s f f f f d g g g g ~ ~ o.N.H.G.S.@.o.| ~ ` ` o.@.S._.).|.|.|.)._.G._.a ",
">.>.>.>.>.>.>.>.>.>.>.*.*.*.*.&.&.Y ,.a.(.(.K.(./._./.H.7.+.` ~ g s > * 6 @./.G.+._ D g g g g g g E @.).jX).5.` ~ ~ ! ` _ ` +.8.s.s.X.Z G K.@.= # % ; < c < 9 <.P.P.P.L.R = : Q 5.A.H.K.P.).).iXjXuX)./.H.5.O.` Q Q Q Q Q Q ! ! ! !  .4.4.+.4.D.8.7.4.O.` ! K D S f f f s j 6 a a a a s f J J !  .+.+.+.@.$.+. ._ ! ! ! _ ` ....O.O.4.4.4.4.4.4.+.N._.|.XXVX+XoXC.'.DXDX'.'.+X+X+X+X+X+X@X+XZ.l.Y.OX+XDXDXDXDXDXDX+X!.E.E.!.!.E.!.OXJX!.W.W.W.W.W.W.!.OXJX.X.XCXCXJXOX!.W.W.W.W.!.!.JXJX}.{.`.^ Q K ! ! ! ! ! ! ! ! ! ! ! ! ! ! ! ! K K J h h f S s s a 6 > = > s f J f f f f f J J J J J J f f f f f f f f f f s s f s f f f f d g g g g h ~ ` @.H.G.H.@.o.| ~ ` ` { o.@.G._.|.|.|.|._.H.F.7 ",
">.>.>.>.>.>.>.>.>.>.>.>.*.*.*.&.Y Y 1.L.yX(.K.(.)._./.H.$.#.~ h g s > * 7 +./.H.o.~ g g g g g g h ~ S.).iX/.@. .Q ` ` ! _ ..4.4.9.s.X.Q { ).N.3 $ d ;.:.r.e.6.L.P.5XP.L.) : : R 5.A.D.K.).).).iXjXuX).K.S.+...` ! Q Q Q Q _ _ _ Q ` O.4.4.4.7.8.4.4.O.` ! L S f f s a s a 6 6 a a a s f J !  . .+.7.7.7.@.+.+. ._ ! ! ! _ ` ....o.+.5.9.9.4.4.4.$._.|.}.VXCXoX'.'.+XDXDXOX'.+X+X+X@X+X+X+X+XZ.l.Y.OX+X+XDXDX@XDXDX+X!.E.E.!.!.E.!.OX+X!.W.W.W.W.W.W.!.OXJXOX.XCXNX+XOX!.W.W.W.W.W.!.JXDXXX}.`.^ ~ K ! ! ! ! ! ! ! ! ! ! ! ! ! ! K K K J J h f f f s a a 6 - - > s f L f f f f f J J S S f f f f f f f f f f f f f f f f s f s f d g g g g h ~ ~ @.S.G.H.N.#.o.~ { ~ ` %.#.H._.|.|.|.jX_.F.H.7 ",
">.>.>.>.>.>.>.>.>.>.>.*.*.*.*.&.Y Y <.L.uX(.(.).).)._.G.N.#.~ h d d > % 7 +.G.S.o.Q g g g g g g ~ ~ S.).uXK.@...! ..O._  .5.8.4.9.| ..D.K.P.m.j 7 O.5X6X7XdXL.L.P.L.L.L.] w > R 5.A.D.K.).).).iXjX).).G.A.#.` _ _ ! Q Q Q _ _ _ Q ..4.4.4.5.8.8.4.O..._ K S d s s s a s a 6 6 j s a f f J | +.+.+.7.F.7.+.o. .! _ ! ! ! _ ` ..O.o.+.7.8.7.4.4.+.H._.|.kXVXCX.XC.OXDXDX+XOXOX+XDX+X+X+X+X+X+XZ.l.'.+X+XDXDXDX@XDXDX+XOXE.E.!.!.E.!.OX+X!.W.W.W.W.W.W.!.!.+XOX'..X.XOXOX!.W.W.W.W.W.!.+XDXmX}.].%.~ R ~ ~ ~ ~ ! K Q Q Q Q Q Q Q Q K K J J h f f g g a a a 6 - - > s J L J f f J S J J J f f f f s f f f f f f f f f f f f s s s s d g d d g h ~ ~ +.S.H.H.N.@.o.%.` ` ~ ^ #.S._.|.|.jXjX)./.H.7 ",
"w.w.>.>.>.>.>.>.*.*.*.*.*.*.&.&.Y Y e.(.yX(.(.).)._.G.H.$.o.~ J g 6 > * 7 o.K.S._ D d a d g g g G ` D.).).D.+.O..... ...+.4.8.8./. .7.)./.+.~ 6 7 _ L.yX5XyXuXuX5XuXL.D.5.0 ; 9 ] D.K.K.).uXuXiXiXuX).K.5.O.` Q Q Q ! ! Q Q ! _ Q 4.8.4...4.4....... ._ K f s f a 6 6 a a 6 6 a s f J !  .+.$.7.7.7.S.7.+. .! ! ! ! ! _  .....O.+.+.+.+.4.+.7.7.).).}.SXVX X'.'.+XDXDXDXOX'.OX+X+XDXDXDXDX+X'.l.Z.'.+XDXDXDXDX+X+XDXOXl.W.!.W.W.!.!.!.!.!.W.W.W.W.W.W.!.JX+XOX.X.XNXOX!.!.W.W.W.W.W.OXDX+X[.`.N.~ ~ ~ _ ~ Q Q ~ Q Q ! Q Q Q Q Q J J J J J h g d f a 6 > - * - j f f f h f f f J J J f f f f f f f f f f f f f s s s s s s s s s a a a d g g J ~ #.S./.G.H.$.@.#.o.~ ~ ~ ~ #.H._.|.jXjXjX)./.7 ",
"w.w.4X4X4X>.>.>.*.*.*.*.*.*.&.&.Y Y e.(.yX(.(.).)._.G.H.$.o.! h g q 7 = 7 o.G.A.~ h d d g g g g Q O.K.uX).D.O.O. .`  ...4.9.9.7.$...F.iX). .a > f  .D.(.yXuX5XL.t.6XL.L.t.A * > ) A.K.K.P.uXuXuXiXuX).D.5.O.` ) Q ) ! ! Q Q _ ` _ 4.8.4.+.4.4.....X.! K L f s j a j 6 j j j j a f h ! | o.+.$.7.7.7.7.7.+. .! ! ! ! _ `  ...O.O.+.$.7.+.+.4.7.F.).|.kXVX}.`.'.OXDXDXDX+XOX'.OXDXDXDX@XDXDX+XZ.l.k.`.+XDXDXDXDXDX+XDXOXE.~.~.W.W.E.!.!.!.!.W.W.W.W.W.W.!.JXJXOXOXOXOXQ.!.!.W.W.W.W.W.!.JXNX}. X_.~ ~ ~ ~ ~ Q Q ~ Q Q Q Q Q Q R ~ J L J J J D g d f 6 6 > = * > s f f f f f f f f J J f f f f f f f f f f s a s s a s a a s s s s s 9 a s d g h ~ o.S.G.G.H.S.@.#.o.~ ~ ~ ~ o.N.G.).jXlXjX)./.6 ",
"w.w.4X>.>.>.*.*.*.*.*.*.*.*.&.&.Y ,.a.(.yX(.(.).)./.G.S.@.| ! h g d 7 = 7 ` H.@.~ h g d g d g g Q O.).iX).8.O.O. . ...+.7.8.8.7.F./.jXzXxX$.j 6 ! +.D.L.uXuXL.-.[ t.L.L.L.H ; : ( 5.D.D.P.).uXuXiXuXP.D.5.{ _ Q ) ) ! Q Q _ ` .. .4.8.4...4.4... .! L L S s 9 6 a 6 6 j j a f h h ! | o.$.$.$.7.7.7.7.$.+. .! ! _ _ _ ` ....O.+.+.$.7.4.+.4.F./.jXxXSXVX X`.[.+XDXDXDXDX+X'.OXCXDXDXDXDXDXOXZ.l.V.'.CXDXDXDXDXDXDXDXOXE.h.h.~.E.E.!.!.!.!.W.W.W.W.W.W.!.JXJXQ.Z.Y.Q.Q.!.!.W.W.W.W.W.OXDXDXVX|._.~ ~ Q ~ _ ~ Q Q Q Q Q Q Q Q R R J J J J J D f d a 6 7 > = * > f f f f f f f f f f f f f f f f f a a s s s s s s a a a a j j j j 9 9 a s d d h Q  .7.G./.H.S.@.#.o.~ ~ ~ ~ ~ #.N.).|.lXjX)._.6 ",
"w.>.>.>.>.*.*.*.*.*.*.*.*.*.*.&.Y ,.a.(.yX(.(.).)._.G.S.#.| ! h g a 7 - > ` H.@.R g g g g d d g Q 5.uXjX).7.O.O.....4.7.8.F.(.(.iXxXbXLXLX_.h a X.4.F.(.uXuXt.U U 6.L.5XL.( < : G 5.D.D.P.).uXiXiXuXP.D.O.{ ) Q ` ` ! Q ! ` ..O...4.5.O...+.+. ._ K S S f s 9 j 6 6 a a j a f J ! | +.$.$.$.$.7.7.7.7.+. .| ` ` ` ` `  ...O.+.+.@.7.7.4.+.+.7.F._.jXzXkX X X+XDXDXDXDXDX+X.X.X+XAXAXDX+X`.x.l.Y.OX+XDXDXDXDXDXDXDXOXE.h.h.h.W.E.E.!.Q.!.!.E.E.W.W.W.W.!.!.!.v.g.Z.Q.Q.!.!.E.W.W.W.W.!.JXDXmX|._.{ ~ R Q ~ ~ ~ Q Q Q Q Q Q R R R J J J J J f f s 9 7 > - * * 7 f f f f f f f f f f f f f f f f f s s s s s a a a j j j j j j j j 9 6 6 a a d g J ` @.G./.G.H.@.#. .~ ~ ~ E ~ %.m._.).jXjXiX).a ",
">.>.>.*.*.*.*.*.*.*.*.*.*.*.*.&.Y 3.a.(.(.(.).).)._.G.S.+.| J h d q 7 * = ~ S.+.D g d d d d d g Q 7.uXiX/.7.+.+. .+.7.7.7./.uXxXbXbXbXLXLXjX .h ! +.D.L.uXyXt.] -.t.L.L.L.) 9 ; A { A.D.P.).uXjXuX).P.I.O.` ) Q ` ` ` _ _ ` O.4.4.4.4........._ K L J f a 6 s f J !  .! h f f J |  .+.$.7.$.$.$.7.$.$.+. .|  . . . . .....+.4.4.7.$.$.+.+... . .| #.N.N.`.}.SXPXAXAXAXAXCX.X[.oXAXSX Xk.x l Y.CXSXDXAXDXDXDXCXoXZ.l.h.h.h.~.W.W.E.Q.OXQ.!.E.E.W.W.W.E.E.E.v.h.g.R.Q.JXOX!.E.E.W.W.E.!.JXDXVX|.|.#.^ E R ~ Q ~ ~ K K Q Q Q R R ~ J J J J J h f s a 7 > = * * 6 f f f f f f f f f f f f f f s s s s s s s s a a a j j j j j j j j 9 6 6 a a a g J ~ +.H.G.G.H.$.#.o._ ~ ~ E ~ %.@.G._.jXjXjX).s ",
">.>.*.*.*.*.*.*.*.*.*.*.*.*.*.Y Y 3.a.(.(.(.).).)._.H.7.+.~ J f a 6 > * = Q 5.o.g d a a a a d g ` D.uXuXK.7.+.+...+.7.7.F.).xXFXLXLXFXbXFXzXF.h h  .8.L.yXuXL.t.t.L.L.L.D.-.0 % 7 ( 5.D.P.uXuXjXuX).K.A.O.` ` Q Q ` _ ` ` ..+.4.5.4.O... ..._ K K K J f s f ! +.iXjXjXuX/.$. .!  .+.$.$.$.$.+.+.+.+.+.+. . . . .........O.4.4.4.7.$.+.+.+..._ K f j j k b.'.SXPXPXAXAXSXoX[.{.}.}.B.z 4 z '.DXHXHXAXAXAXAXVX'.n.k.l.v.v.v.E.E.E.!.JXJXJXQ.E.E.!.E.E.h.h.h.h.h.v.Q.OXOXOXOX!.E.E.E.!.Q.JXHXkXA.N.{ ~ R R R R Q ! K K Q Q R R ~ J J J J J J f f s a 6 = * % = 6 f f f f f f f f f f f f a s s s s s s s a a a a a j j j j j j j j 9 6 6 a a a g h ~ #.S.G.G.H.N.#.o._ ~ ~ E ~ %.#.N.G.).jXjXiXf ",
">.*.*.*.*.*.*.*.*.*.*.*.*.*.*.P Y 3.a.(.(.(.).).)./.H.@. .~ h f a 6 7 * = J +.` g d q q q a g J O.F.uX).F.4.+...+.+.7.F.(.xXFXIXIXLXLXbXbXFX).f f _ 5.D.L.uXuXL.L.L.L.L.8.6.G : : D 5.D.P.).).uX).P.D.A.O.` ` Q Q Q ` ` ....4.5.8.4..... . .! K K J J J ! +./.jXLXLXLXLXbXxX/.$.o.+.+.+.+. . .+.+.+.+.+. . . . .......O.+.4.5.5.7.7.7.7.4.+. . .Q g j x z b.B.{.kXVXVX}.`.N.b.^ k 7 - 8 b.}.SXSXSXSXVX}.`.b.i 4 u Z.Q.E.E.E.E.E.Q.JXJXJXQ.Q.v.v.z.h.h.h.h.h.v.!.OXOXOXOXOX!.E.E.E.!.Q.oXBXM.q q E k k Q Q J J K J K K K Q R J J J J J J J f f s 6 > = # # - a f f f f f f f f f f f f a s s s s a a a j j j j 6 6 6 6 6 9 9 9 9 a 9 6 a a s g J ~ o.S.H.G.H.S.#.o.` ~ ~ h h ~ %.@.H.).jXjXjXf ",
"4X4X*.*.*.*.*.*.*.*.*.*.*.*.*.P Y 3.^.(.(.(.).)._.G.S.+.` Q g s a q 7 % - h o._ g a 6 9 q a g J +.K.uX).D.4... .4.4.7./.iXbXIXIXIXLXLXbXbXLXiXa L  .5.8.L.yXyXL.L.L.t.t.D.D.) < * A O.I.P.).).uX).P.D.5.O.` ` ! Q ! ` ....O.4.5.F.7.........! K J f f ! $.).bXLXLXLXLXLXLXLXjXF. .+.+.+. . . . . .+.+.+. . ... . . ...O.+.4.5.7.7.7.8.7.7.4.4.7.@.%.z g 8 4 8 z N._.].J.#.k 3 $ # # # 3 g ^ m.].`.]._.m.k 3 $ @ 5 n.R.v.R.!.E.!.Q.BXBXBXQ.R.c.g.h.h.h.z.v.v.E.Q.Q..XNXOXQ.Q.E.!.Q.R.k.k.l 8 = 9 q g g Q Q J J J J K J J Q J J J J J J J h f f s 6 > * # % > s J f f f f f f f f s s f a s s s s j j j 6 6 6 6 6 6 6 6 6 6 6 6 6 a 9 j a s s g J ~ o.7.H.G.H.S.@.#.` ~ h k k h ~ #.N.).jXjXjXf ",
"4X4X*.*.*.*.*.*.*.*.*.*.*.*.*.P &.a.yX(.(.uXiX).)./.S.+.` Q L g a 6 > % * g  .Q g a 9 a a 9 g ! @.).uX/.7.+.+.+.4.$.9.iXbXLXIXIXLXIXLXbXFXLXiXf ! X.4.4.8.L.P.L.L.L.L.L.6.8.] 9 % d { 5.K.uX).).).P.D.5.O.` ` ` ` ` `  ...4.7.8.F.4.....+.X.! ! J J f ! iXLXLXLXLXLXLXLXLXLXbX|.! ! ! |  .! |  . . .+.+. . . . .....+.+.4.5.5.7.7.7.9.9.7.7.7.7.@.+.o.o.z 8 3 3 ~ N.).H.g # @ # * * = = & $ 3 8 N.H.#.7 # X @ @ & 3 p e t c.v.R.T.T.BXT.c.r e p g.v.v.v.v.Q.Q.Q.T.MXBXQ.Q.Q.Q.v.c.t 2 2 2 & 3 q g g D ~ R Q J K J J J J J J R J D J J f f f f a 6 > % X # 6 f f s s s f f f f s f s f s s a a a a a j j j 6 9 9 6 6 6 6 6 6 6 6 9 9 a a a d g g ~  .$.H.G.G.H.N.#.` ~ ~ E h h ~ ^ o.G.).xXxXK ",
"4X4X*.*.*.*.4X*.*.*.*.*.*.*.*.&.1.a.hX(.(.).uX).).G.7.o.` Q S f 9 6 > % - g  .Q g a 6 a a a g ~ 7.).uX/.F.7.+.7.9.8./.xXLXLXIXIXIXLXxXzXFXFX).K !  .+.4.8.L.L.L.L.L.L.L.8.D.<.A * 9 ] A.K.).uX).).K.D.5...` ` ` ` `  ...+.5.9.8.8.4. . ... .! L J f h $.xXLXLXLXLXLXLXIXLXLXLXjX! h h K ! ! !  . .+.+.+. . . . .O.O.+.4.5.7.7.7.7.7.9.9.7.7.5.4.7.#.` ~ ~ ~ ~ #./.iXlX).{ 7 * = s 9 9 6 7 3 q ^ uXiX/.S * # * = & & 3 2 2 p t k.C.kXT.W 2 $ $ 2 e t g.z.v.R.Q.Q.T.BXBXY.T.T.c.t p 2 $ & & 3 7 d D D ~ R Q K K J J J J J J J J J J J J f f f f a 6 > # X * 6 f f s s s f f f f f f s a s s a a a 6 6 6 6 6 6 6 6 6 6 6 6 6 6 6 6 9 9 a a a a d g J ` @.H.G.G.H.S.#.` ~ ~ E k h z ~ %.S.).jXlXJ ",
"4X*.4X*.4X*.*.*.*.*.*.*.*.*.*.*.1.a.hX(.(.).uX)._.G.5.o.~ J S d 6 6 > * = h o.Q d q 9 a a a h ` F.uXiX/.F.7.$.7.7.9.).xXLXIXIXIXIXxXiXbXFXjX+.J  .+.+.+.8.L.L.L.t.-.<.6.t.D.6.R : w Q D.K.P.uXP.P.K.D.O...` ` ` ....O.4.4.9.8.F.8.4._ _  ._ ! L J f h _.LXLXLXLXLXLXLXLXLXLXLXjXf a a f L L ! ! +.+.+.+. . . .+.+.+.4.5.7.8.8.8.8.9.9.7.7.5.4.+.5.o.` o.5.G.).jXzXbXzXxXP.` d 9 S S S K ` #.P.lXbXbXxXa.L , 6 s G D q 3 & & 2 r T.ZXlXE & @ & 2 2 2 p p t k.c.c.M.].{.c.l l e 2 $ $ & 3 w 0 D R R R R ~ Q Q ! J J J J J J J J J D J J f f f f a 6 - # X * a g s s s s f f f f f s s s s a a a a 6 6 6 6 6 6 6 6 6 6 6 6 6 6 6 6 9 9 a a a a d g J ` @.H.G._.H.S.#. .~ ~ E k h ~ ~ ~ @._.iXjXh ",
"4X*.*.*.*.*.*.*.*.*.*.*.*.*.*.*.q.^.(.(.(.).uX)._.H.@. .Q D d s 9 7 > * = D  .J a 6 6 a a d J  ./.iXiX/.F.F.7.7.9./.).xXLXLXLXLXxXiXxXFXbXF.J ! +.$.+...5.L.L.L.6.U G <.8.8.6.] 0 : H D.D.K.uXP.K.D.5.O...` ....O.+.4.7.8.F.L.L.8..._ _ _ _ ! J ! f h _.LXLXFXKXLXbXLXLXzXLXFX/.f f f J ! _  .X.+.+.+.+. . .+.+.+.+.4.5.7.8.8.8.8.8.9.7.5.4.+.+.O.+.7.K.iXxXzXbXbXbXbXzXlX).4.' S S ' 8.uXlXFXGXFXLXLXbX(.X.L S K K G E E E I.8XZXGXGXuXQ 0 q w 3 2 2 2 2 2 3 4 x.I.A.k 3 & & & 3 w q g D R K J R R R Q Q Q J K L L K J J J J J D J D g f g s 9 7 = o o = s g a s s s f f f f f s s s s a a a a a a a j 6 6 6 6 6 6 6 6 6 6 6 6 9 9 a a a a d g h ~ @.S.G._.G.H.@. .~ ~ E k h h h ~ o.S.).).f ",
"*.*.*.*.4X*.4X*.4X*.*.*.*.*.*.*.u.^.(.(.(.).).)._.H.@.` J g d s 9 6 > - - J  .f a 6 6 s s f ! +.).iXiX/.F.F.7.F./.(.iXbXbXbXbXxX(.iXzXbX(.L J +.7.7.5.+.4.L.L.L.6.( ( 6.8.8.6.<.A : 0 5.D.K.uXP.K.D.5.O.....O.O.4.4.9.8.F.L.F.F.8.<.( _ _ _ ! J J h h $.xXLXzXxXxXxXzXbXxXzXxX+.J | +.+.7.7.8.8.7.@.+.o. .+.+.+.+.+.4.5.7.7.7.7.8.8.9.7.5.4.+.O.O.D.uXlXbXFXFXbXFXbXbXbXbXzXuX8.F d.9.iXbXFXLXIXIXIXIXIXbXhXs.L F U 6.P.uXzXGXIXGXIXGXbXlX8.) m E q w 3 2 2 w q I.I.I.{ w # & 3 q 0 R R J L L S R R Q Q Q K K L K L L J J J J J h J h f f f s 6 6 * X o - s f a a s f f f f f f s s s s s s a a s a a a a a a a 6 6 6 6 6 6 6 6 6 9 a a a a a f h ~ +.S.G._.G.H.@.o.~ ~ E k h h h ~ { @.G.).f ",
"*.*.*.*.4X4X4XV 4X*.*.*.*.*.*.>.a.^.(.(.(.).).)./.H.+._ J g s s 6 6 > - - J ` f a 6 9 s s f ! 7.).iX)./.F.F.F././.(.jXbXLXbXxXjXiXxXxX(.J 6 h +.F.F.7.O.+.8.L.L.L.2.<.t.D.D.8.6.G : 7 { D.K.).).K.D.5.+.O.O.+.4.4.7.8.F.F.L.F.8.9..._ _ _ ! ! J h J f ~ _.xXxXjX|.|.xXxXxXjX/.|  .7.F./.L.L.K./.7.$.+. . .+.+.+.+.+.4.5.7.7.7.7.9.9.9.5.4.4.+.O.S.).xXbXFXLXLXFXLXLXFXFXFXbXlXyXX.9.hXbXLXIXIXIXIXIXIXIXLXbXhXs.X.L.lXbXFXGXGXGXIXbXbXFXFXzXuXI.{ E y N E E { L.jXjXjXuX5.d 9 0 9 d D G L L L ! Q ~ ~ Q Q K J L K L L L J J J J f J f f f d a 6 > * X # > d f s a s f f f f f f s a a a s s s s s s s s s s s s a a a j j 6 6 6 9 9 a a 9 a a d h ~ #.S.H._.G.H.@.o._ ~ E k k h h h ~ o.H._.a ",
"4X4X4X4X4X4X#X4X4X*.*.*.*.*.*.w.qX(.(.(.(.).).)./.H.#.~ D d s 9 > > - * > K  .g a 6 a s s f  .F.).jX).F././././.9.(.jXbXLXLXbXbXbXxX8.s = 6 ! +.7.F.8.....4.L.L.L.t.t.L.8.8.8.<.G w w R D.P.).).K.L.8.5.O.+.4.5.7.8.F.F.F.F.8.8.4.` U _ _ ! K J h h a a o._.|.|._.|.|._.|./.o.o.$.F././.L.K.L.F.7.$.+. . .+.+.+.4.4.5.7.8.8.8.8.7.9.5.4.4.4.O.O.(.jXbXzXbXFXLXFXFXFXbXbXbXbXzXiXa.(.nXbXLXIXIXLXIXIXIXFXFXbXnXyX,.yXbXbXFXIXIXFXIXbXbXbXIXIXFXzXA.} E { D.P.iXzXzXbXzXzXlX(.4.K F S S K K L K  .~ ~ ~ ! ! J K L L L L L J J J J f D f f d s a 6 - # X # > s f s a f f f f f f f f f f f f f s f a a a s s s s s s a a a a j 6 6 9 9 a a 9 a a d g ~ #.S.H._./.H.7.#.~ ~ E k k h h h ~ ~ @.G.a ",
"4X4X4X4X4X4X#X#X*.V *.*.*.*.*.w.yX(.(.(.(.).).).K.S.o.Q S s 9 9 > : = * : K ..f s a a a s f  ./.iXjX).F./././././.).jXbXLXLXLXLXbX(.s o * J 7.F.8.F.8..._ O.8.L.L.t.t.t.6.5.8.-.G 9 : d D.).P.).K.K.D.5.5.4.5.7.9.8.F.L.L.F.8.9.+._ K Q _ ! J h h h a j h +./._._.|./.$.$.| ~ 7.F././.F.L.(.K.F.S.$.o. . .+.+.+.5.5.7.7.8.8.8.8.5.5.5.4.4.4.+.O.(.xXbXzXxXbXbXbXbXbXbXzXbXbXbXxXiXnXbXbXLXLXLXFXFXIXIXbXbXLXbXhX3.dXbXbXnXbXGXFXIXIXIXbXFXIXGXFXP.O.) L.lXxXbXbXbXbXbXzXbXbXiX<.' L L _ _ L L _ ~ ~ ~ ~ ! ! J J K L L L J J J J f D f f s s 9 6 = # X # > s f s s f f g f f f f f f f f f f f f a a s s s s s s s s s a a a 9 9 9 a a a a a a d g Q o.7.H././.G.7.#.` ~ ~ h h h h h h ~ #.H.a ",
"#X4X#X#X4X4X*.V V *.*.*.*.P *.w.qX^.(.yXhXuXuX).K.5.` D d 7 7 7 : = : % > ! K S s s s s d ! 7._.iX).)./././.).).iX).).xXLXLXbXxX7.s % : S  .8.(.K.L.8.8.4.X.4.8.L.t.t.t.t.6.t.t.{ H = : { K.K.P.K.K.D.8.5.8.D.K./.K.K./.F.+...+. .K K _ ! ! ! J J J J J h J J J +. .! Q ! +.F./.F.F.L././.F.D.7.+.+.+. . . .+.+.+.4.5.7.8.8.8.8.9.5.4.4.O.+.+.4.iXxXbXbXbXzXxXlXxXxXxXxXbXxXxXbXxXbXbXxXxXzXzXbXbXbXnXnXbXbXnXhXs.gXbXbXnXbXbXUXIXIXFXbXbXbXbXbXD.] L.bXzXbXLXbXbXbXbXbXbXbXbXgX9.X.L _ _ K U K ! ! ! ! ! ! ! ! J J J K K J J J f f f s s s 9 > * o o = 6 s f s d d f g g h h h g g g g g g g g f f f s s s s s s s s a s s s 9 s s j j j j s s f J  .$.G././.G.S.@.| ~ ~ h h f h h h ~  .7.s ",
"#X#X#X#X#X4X#XV *.*.*.*.*.P *.w.qX^.^.yXhXuX).(.K.5._ D d 9 7 7 : = ; % > ! K S s s a a f  .F.uXiXuX).).).).uXiX)././.).iX).F.| 6 = > L 7.F.F.L.K.L.8.8.<.X.4.8.t.t.t.t.D.t.t.8.6.R : : Q D.K.P.K.K.D.D.D.D.K.K./.K.K.K.7.! !  . .L K ! K K ! K J J K J L L J ! f J K  .+.7././.F././.K.F.F.7.7.+.+.+. . . .+.+.+.4.5.7.8.8.8.8.8.5.4.+.+.+.+.4.iXxXFXbXbXxXxXxXbXbXzXbXbXxXxXxXxXFXbXbXbXxXxXxXnXbXbXbXbXbXnXnXnXbXbXbXbXbXbXbXIXFXbXbXxXzXbXbX5Xa.iXbXbXbXLXbXUXUXbXbXbXbXbXbXiX4.K K L K _ _ ! ! ! ! ! ! ! ! J J J K J J J f f f f s s s 9 > * X o = 6 s f s d d g g g g g g g g g g g g g g S f f s s s s s s s s s s s s s j s j j j j s a f J | +.F././.G.7.+.| ~ ~ h h f h h h !  .$.s ",
"4X#X#X#X#X4X4X4X4X*.*.*.*.P *.y.yX^.(.(.(.).).(.D.#.Q g 9 7 > > : * = % > ! K f s 9 9 d ! 7.).jX).).)./.).).).).).)./.F.F.+.J a 9 s L 4.L.(.K.K.K.L.8.9.4.X.<.6.t.t.t.t.t.t.6.6.6.) w * d 5.K.K.K.D.D.D.D.D.K.K.K.F.F.7. .f f ! ! J K ! K K ! K J ! ! ! ! !  . .! ! +.7.H./././././.G.F.D.7.+.+.+.+.o. . . .+.+.+.+.5.7.8.8.8.8.7.5.4.4.+.+.+.+.iXbXLXLXbXbXbXbXbXFXLXLXLXbXjXiXxXFXLXbXbXbXxXxXbXbXbXbXbXbXbXLXbXbXLXIXIXLXbXbXbXbXbXbXbXFXFXbXiXuXzXbXnXnXbXbXbXbXbXbXbXbXbXbXxX9.K L L K `  .! ! ! ! ! ! ! ! J J K K L J J f f f f s s s 6 > % X o ; 7 s s a a a d g g g g g g g g g g g g g f f f f f s s s s s s s s 9 s s 6 a j j 6 j a a f h ! +.F.F.G.F.7.$.| ~ ~ h h h f h h ! ! +.9 ",
"#X#X#X#X#X#X4X4X4XV *.*.*.P >.=XyX(.(.(.(.).)./.S.o.R g 9 7 : : : * * % > ! K d s 9 9 g  .F.).jXiX).).).).).).)./././.F.7.+. .! +.7.F.F.F.L.K.(.K.L.8.9.4.X.<.4.6.t.t.2.-.-.6.6.5.] 9 % 7 O.K.K.K.D.D.D.D.K.K.K.7.7.5.O.J a f ! | K ! ! L J ! ! ! |  . . . .+.+.D.F.F.F.F.G././././.F.S.7.5.+.+.+.+.+. . . .+.+.+.+.5.7.8.8.8.8.7.5.4.4.+.O.+.+.iXxXbXFXbXxXxXxXxXbXbXLXLXxX(.F.xXLXLXLXbXzXxXbXFXbXbXLXLXbXbXbXbXLXIXIXIXUXbXbXnXnXbXFXIXIXIXFXxXlXzXbXiXiXnXnXnXnXnXnXxXbXbXbXxX9.K ! _ _ ` _ ! ! ! ! ! ! L K J J K K J J f f f f f s s s 6 : % X # : > 9 s s a a a d g g g g g g g g g g g g f f f f d s s s s s s s s 9 9 9 6 6 6 6 6 j a a f f !  .$.F.G.F.F.$.| ~ ~ h h h f h f J !  .7 ",
"#X#X#X#X#X#X#X4X#XV V *.*.*.>.qXyX(.(.(.hXuX).(.7. .D d 6 > : : = * * # > _ K d a a s J +.F.).iX).)././././././.F.F.F.S.7.7.F.F.8./././.L.(.(.L.L.8.7.4...` _ X.6.t.t.] G G -.6.5.{ A = : ) K.K.D.D.D.D.F.D.D.D.+.O. .Q a > a ! ! K ! ! ! ! | ! ! !  . . . .+.$.7.S.D.D.H.G.K./.G.F.D.7.7.@.@.+.+.+. . . . .+.+.+.4.5.7.8.8.8.8.5.5.4.4.+.O.....F.(.iXxXxXxXxXjXjXjXiXiXuX7.L s iXFXLXLXbXxXxXxXbXbXbXLXLXlX9.3.bXIXIXIXIXIXIXIXIXbXbXFXIXIXIXbXiXlXbXbXzXnXnXnXjXxXnXxXbXbXbXbXlX4.K _ ..` ` _ _ ! ! ! ! ! L K J J J K L J f f f f f a s a > = % X # > > 9 s 9 9 q d d g g g g g g g g g g g h f f f f s s s s s s s s s 9 j j 6 6 6 6 6 6 a s a f J | +.F.F.G.F.$.o.| ~ h h h f h f J K ` > ",
"#X#X#X#X#X#X#X#X#XV V *.*.*.w.qXyX(.(.(.uXuX).K.@._ g 9 > = * * % # # # > _ K f 9 s D  .7./.).uX/././././././././././.F.F.F./.)./.(././.L.(.(.(.8.5.4.4...[ _ ( <.t.6.[ H G ] 6.6.6.Q w = D A.I.K.D.D.D.D.8.5.O...! J d > - 6 J ! J L ! L ! |  . . .X. .+.+.7.7.7.7.D.F.G.G.G.F.H.D.S.7.7.5.@.@.+.o. . . . .+.+.4.5.7.7.8.8.7.5.5.5.4.+.O..... ._ _ ..(.jXbXbXbXxXiX/.X.L > * * 8.iXxXxXxXxXxXxXxXiXiXiXhXX., ; X.gXbXbXIXIXIXIXIXIXIXIXIXIXbX(.<.uXzXbXLXUXbXxXnXnXbXbXbXbXbXbXiX+.S ! _ _ _ ` ! |  . .| ! J K J J J K J h f f s a a a a 9 : * o X # > > 6 9 9 9 q d d g g g g g g g g g g g f f f f f f s s s s s s s s 9 j 9 6 6 6 6 6 6 j a f f h ! +.7.G./.F.7.o.| ~ ~ h h a f f h J ~ : ",
"#X#X#X#X#X#X#X#X#XV V *.P &.w.yX^.a.a.(.iXuX).F.#.Q a 7 : * # # o X o o > _ K d 9 f ! 7./.).uXuXuX).).).).)./././././.F.G./././.)././.F.F.F./.(.F.8.4.4.O._ _ ( ] 6.t.-.( ] 6.6.6.4.{ 0 = 9 O.A.K.D.D.8.7.5...Q J g s 7 = = j ! J J ! | ! ! X. . .+.+.+.$.7.7.F.H.F.G.K.K.F.H.D.F.D.S.7.7.5.@.@.+. . . . .o.+.+.4.5.7.8.8.8.5.4.4.4.+.O... .X._ L s f ' 8.(.iXiX(.8.K 6 : % o * s _ +.F.jXzXzXzXxXhXX.L f > * * ; S 3.hXbXIXIXIXIXLXFXbXlXlXL.S > 6.lXbXLXLXbXbXnXxXbXUXLXbXbXbX(.K s K _ K _ ` ! ! |  . .! ! K J J K K J h f f a a a a 9 6 : % o X % > > > 6 6 9 q d d d g h g g g g g g g g h f f f f f s s s s s s s s j j j 6 a 6 6 6 6 6 j f f h ! +.7.G./.F.7.o.| ~ ~ h h g h f h f ! : ",
"#X#X#X#X#X#X#X#X#XV V *.*.&.w.yXa.a.a.(.uXuX_.H.o.J 9 > * # o o X X X X : ! K s 9 S ..F.).iXiXuX).).)././.F.7.$.+.+.+.$.7.S.7.$.7.7.F./.(.F.8.F.(.F.8.9.4..._ ' ] 6.t.4.6.6.8.6.6.6.5.D : 7 ` 5.K.D.8.5.5.O._ G s 6 > = * - a | ! J !  .! ! +.+. .+.+.+.+.7.7.F.K.G.F.H.D.H.H.F.D.D.S.S.7.5.@.+.+. . . . .o.+.+.5.7.7.8.8.7.4.4.4.4.+.O... ._ _ ! s > , s s 6 6 > > * o % % = 9 : 6 s _ ).zXxXlXiXL.L > : * * ; ; ; < U hXbXbXIXIXbXuX<.A A 9 % % ( iXzXbXbXbXbXnXxXxXbXbXbXxXxX4.s 6 L _ K K ! ! ! |  . .! ! K J J J K J f f f j a a j 9 6 = # X X % > > > 6 6 9 a d g g g h D g g g g g g g h g f f f f s s s s s s s s j a j 9 a 6 6 > > 6 j f f h ! +.7.G./.F.7.+.| ~ ~ h h f h f h f Q : ",
"#X#X#X#X#X#X#X#X#X#X*.C P >.=XyX9.9.F.).iXuX/.S. .J 6 - * o X X o     X : _ K d s ! 7.L.F.F.7.7.+.$.7.7.7.7.7.$.7.7.7.7.7.7.7.7.F.7.7.$.+.....X.....+.4.4.+..._ ] 8.6.] 6.6.<.6.{ 5.6.G w w D 6.K.D.8.5.5.` J d 9 > > = % - f !  . . . . . .+.+.+.+.+.7.7.7.7.7.H.H.H.H.H.S.7.7.7.7.5.@.@.+.#.O. . . . .o.+.+.+.7.7.7.8.8.9.4.4.+.O.+.O.O.......K S s , : : : > : : : > 9 s L K s 6 > > s S f s s > % o % : s S s , > 9 K 4.L.(.L.' , % % % * * ; s <.hXjXxXxXxXxXxXnXiX(.(.F.4.6 > > s D K K ! ! !  . . . . .J L L J f f f a a a j 6 j s 6 * o   o * : 7 9 9 9 a a d d g g h h g g h g g g g g f f f f f s a a s s s s a a a a 6 a 6 6 6 6 j a a f h !  .$.H././.F.#.| ~ h h h f f f J J Q : ",
"#X#X#X#X#X#X#X#X#X#XV C P >.y.yX9.9.F.).iXuX/.S. .h 6 : * % o o X       = K D s 9 J 4.F.F.F.F.F.).).).).).).).).).).).).).).).)./././.F.F.7.7.7.+... ._ ! ! K L G O.6.<.8.8.4.8.A.5.{ R 7 % w ] 8.5.6.4..._ S 9 6 > : = * > J  . . .......+.+.+.7.7.7.7.8.F.F.F.F.H.H.H.D.S.7.7.5.5.@.@.+.O.O.o. . . .+.+.+.+.+.5.7.7.7.8.5.4.4.O.O.O.O.4.4.4.4.8.7.+.X._ K L L L L L L L L K ! ! S 9 > = * o X * * * = > 6 s s A 9 : * * ; ; * % O o o * : 6 9 6 s S U +.(.iXxXbXbXxXiX(.7.L : % % * > 9 s S K L L ! ! !  . .J K J f f f a s a j 6 7 6 9 > * o   o % : > 6 9 9 9 q d d g g h g h D D h g g g g f f f f f s a a s s s s a a a a 6 a 9 6 6 6 j a s f h !  .$.H././.F.#.| ~ h h h f h f J J K : ",
"#X#X#X#X#X#X#X#X#X#XV C *.>.y.^.9.9.F.(.iXuX/.7.` h 6 > ; * % % o       * L S s d ` D.(./.).).uXjXjXjXjXjXjXiXiX).).uXuXuXuX).).).).)./././././.7.7.+... .! L S d _ <.6.8.4.O.D.O.5.D.K.5.7 * A O.5.5..._ K d 6 > : = * * 6 ! .. ...+.+.+.+.$.7.7.7.8.F.F.F.F.F.F.H.H.D.S.7.5.5.5.@.@.+.#.O.o... . . .+.+.+.+.+.4.5.7.7.5.4.+.O.+.O.O...........X. . .X._ K L L L L L L L K K Q ! ! Q K D S S L s s d L K K D S Q S s > : * % o o O * > 9 s A d f s > : > f X.^.4.8.4.L 6 : ; * * ; > > > > > s f f h J J ! ! J J f s s s a a j 7 > > > > : % o   o % ; > 6 6 9 q q d g g g h g D D D D h h h h f f f f f f a a s s s a a a a a 6 a j 6 6 6 6 a s f h !  .$.F././.F.$.| | ~ h h h h h J h K = ",
"#X#X#X#X#X#X#X#X#X#XV C *.w.y.a.4.9.F.).iX)./.7.` h 6 > > : * * % o o X = D D S  .D.).iXuXuXjXjXjXjXiXiXuX).).).).).).).).).).).).)././././././.L.L.L.L.F.4. .K G ( O.5.4.) ] D.6.P.uXjXjX5.9 9 ` 4.5.` Q L d 6 > = * * * j  .....+.+.+.+.+.4.7.7.7.7.8.F.F.F.F.F.H.D.S.7.5.5.@.5.@.@.+.#.o.o.o.o. .o.+.+.+.+.@.5.5.7.7.5.4.+.O.4.+... ._ _ ! ! K !  .X.X. .X._ _ `  ...O.+.4.4.4.4.5.4.4.4.5.8.5.4.4.4.4.4.........` _ ( U K K F L L U K L L L L S s > > : > > % = * o   X = 9 S L K L S s S S f a f f f f J s f s a 6 6 6 6 7 > > = > > = # X   o # * > > 6 6 q q d g g g g g D D D D D D D D f f f f f f a a s s s a a a a j j a j 6 6 6 6 j a f f J | $.H././.F.+.| | ~ h h h h h J f J = ",
"#X#X#X#X$X$X$X$X#X#XV C *.w.u.a.4.7.F.).uX).F.@.~ g 6 7 > : : : * # # X = L K Q 4.(.iXjXuXuXiXiXjXiXuX).).)././.).).).).).).).)././././.F.F.F.F.F.F././.L.8.+. .` _ ..4.O.` 4.D.uXuX5.) K.uXD.R ) O.O._ K S s 6 > = * * = s  .X...+.+.+.+.+.4.7.7.7.7.8.F.F.F.F.H.H.S.S.5.@.@.@.5.@.@.@.#.#.o.o.o. . .+.+.+.@.7.7.7.7.7.5.4.+.O.+.O... .`  . . .4.4.8.8.L.L.8.F.D.F.L.L.L.F.D.8.F.D.8.5.4.4.O.O.5.5.+.+.5.5.5.5.O.O.4.4.<.<.<.4...X.X...` ` .... . . ._ L s > : * * % * : 9 9 9 s f S D L K Q ! J s f f s f f s a 6 6 > > > > > > - - - - * o X   o # * : > 6 6 a a d g g g g g D D D D D D D D f f f f f a a a a s s a a a a j j j j 6 6 6 6 j a a f J | +.S././.F.$.o.| ~ h h h h f J f J * ",
"#X#X#X#X$X$X$X$X#X#XV C *.u.u.s.4.7.F.).iX).H.#.! f 6 7 > : : ; ; % # X * L _ ..8.(.iXiXuXuXuXuXjXiX).)././././.).).).).).).).)./././.F.F.F.F.F.F.F.8.8.8.9.7.4.O.( ) 4.5.A.F.D.D.( : = ) lXlX8.` ` _ K S s 9 > > = * * = f X. . .+.+.+.+.+.4.7.7.7.8.8.F.F.F.F.H.H.S.5.@.@.@.@.5.@.@.@.#.#.o.o.o. . .o.+.+.7.7.7.7.7.5.4.4.+.O.........+.5.8.F.8.8.8.8.8.8.8.8.8.8.8.8.8.9.7.5.9.5.5.5.8.D.8.8.O.+.+.+.4.4.4.+.O.4.4.O.........X.X.<.4.4.4.4.4.4.4.4.4...X._ K K K L K Q Q K L s s s s s s s 6 s 6 6 s j j a 6 6 > > > > > = - - - = - = * o X X o # * = > 6 6 a a d g g g g g D D D D D D D D f f f f f a a a a a a a a a a j j s j 6 6 6 6 j a s f h ! +.S.F./.F.$.o.| ~ h h h h f h g f * ",
"#X#X#X#X$X$X$X$X$X#XV C >.u.a.s.4.7.F.).iX).H.+.Q f 7 > > : ; ; * % # X * K O.8./.).uX).).uXiXiXiXuX)././.F.F.F././.).).).)./././././.F.F.F.F.F.F.F.8.8.8.8.9.7.O.Q _ 6.K.uXuXD.9 * : 0 ( P.lXjX..Q D L S 9 > 6 > = * * > L .. .+.+.+.+.+.$.7.7.7.7.7.8.8.8.F.F.S.S.5.@.@.@.@.@.@.@.@.#.#.o.o. .o. . . .+.+.7.7.7.7.5.4.4.+.O...` ......4.8.F.L.F.F.8.8.8.7.4.7.7.5.8.8.8.D.D.D.D.8.5.5.5.5.4.O.5.5.7.5.5.+.O.O.4.4.4.4.4.4.4.4.9.9.4.4.4.4.+...4.+.....+.+.s.4.O.4.4..._ Q ..4.......Q L L s 6 6 > > 6 6 6 6 > > > - - - - - * - * * * * % o X X o # * = > 6 9 a a d g g g h h D D D D D D g h f f f f f a a a a a a a a a a j j s j 6 6 6 6 j a a f h !  .$.S./.F.$.#.| | h h h h f h f f * ",
"#X#X#X$X$X$X$X$X#XV V C >.u.u.s.4.$.F.).iX).H.o.~ f 6 > > : = * * # # X * K 7.(.uXuX).).).uXiXjXiX).)././.F.F.F././.).).).)././.F.F.F.F.F.F.F.F.F.F.F.L.F.8.7.4.O.Q ) D.uXzXlX5.% % Q P.) ( uXbXO.K S L D 9 > 6 > = = = > L +.X.+.+.+.$.$.4.7.7.7.7.7.7.7.7.7.7.S.A.5.@.#.@.@.@.@.#.#.#.o.o.o.`  . . . .+.+.$.7.5.5.4.+.+.O........... ...+.4.9.8.8.8.8.7.4.4.4.8.8.5.5.5.5.5.5.8.8.8.8.5.4.O.4.+.+.+.+.O.O.O.4.O.O.O.4.5.5.4.4.4.4.......+.4.4.+.+.........X.X.+... ...O.O.......O.4...X.X._ K 9 > 6 a 6 6 6 > > - - = = = * * * * * * * # X . X o # * = > 6 9 a a d g g g h h D h h D D g g g f f f f f a a a a a a a a a a j s s j 6 6 6 6 j a a f f J  .@.S././.S.$.o.| ~ h h h f f f f * ",
"#X#X#X$X$X$X$X$X#XV V V %XqXy.3.4.7./.).iX).F. .J j > > = * * # # # o . % L 8.(.).)./.).).).iXjXjX)./.F.+.7.F.F.F././.).).)./.F.7.7.7.F.F.F.F.F.F.F.F.F.F.7.7.4.4.] 6.K.4.5.uXK.D 6.D.D.5.D ) lXuX_ S d s s , 9 : = * - s X.+. .+.+.+.+.5.7.7.7.7.7.7.7.7.7.7.7.7.5.5.@.@.@.@.@.@.#.#.o.o.o.o. . . . .|  .+.4.7.7.4.+....... . ._ Q K ..5.8.8.8.8.8.8.8.7.5.4.4.4.4.4.4.5.5.5.5.8.8.5.4.4.4.<...4.+.+.4.4.4.+.O...........4.4.4.+.+.4.4.4.4.4.4.+.+.+.+.....X.X...+.+.+........._  ._ _ _ X... .S 6 7 6 6 > 7 > - = = = = = * * * * * * * o . . . o % * : > , 6 a a a d g g g g g g h h h h h h f f f f f f a a s s s a a a a a s s j 6 6 6 6 j a a f f J ! #.S./././.$.o.| ~ J h h f f a f * ",
"#X#X#X$X$X$X$X$X#XV V *.%X=Xi.3.4.7./.).iX).7. .h 6 > > = * * O o O X . % S 8.(.).(./.).).).jXjX)./.F.7.+.7.F.F.F.F./._.)./.F.7.7.7.7.F.F.F.F.F.F.F.F.F.F.7.7.5.8.P.K.6.0 9 6.D.4.K.K.L.5.9 9 5.iX+.9 6 s 6 > > : = * > f X.+. .+.+.+.+.7.7.7.7.7.7.7.7.7.7.7.7.5.5.@.@.@.#.@.#.#.#.O.o.o.o.o. . . . . . .+.4.7.7.4.+....... ._ _ Q Q ..5.8.8.8.9.9.7.5.5.4.4.4.<.<.<.<.<.<.<.<.<.O.<.<.O.......O........... ._ ` _ _ _  ...O.....+.+.+.+.+.4.4.+.+.+........................... . .X._ X..... .g 7 > 6 7 > > > = = = = = = * * * * * * % o . . X o % * : > , 6 a a a a g g g g g g h h h h g g f f f f f a a s a a s a a a a a s s j 6 6 6 6 j a a f f J ! #.7./././.$.+.| | J h h f f a f * ",
"#X#X$X$X$X$X$X$X#XV V *.%X=Xu.3.4.7./.).iX).7. .f 7 = - * % % o o o X . % L F.).(././.).).uXjXjX).F.7.7.+.$.F.7.+.$.F././.G.S.$.7.7.7.7.F.F.F.F.F.F.F.F.7.7.7.7.P.uX] 9 9 d O.6.5.K.D.A.{ 0 w G lX(.> : s > 6 : : = = > f X.+. .+.+.+.+.5.7.7.7.7.7.7.7.7.7.7.5.5.@.@.@.#.#.#.#.#.#.o.o.o.o.o. . . . . . .+.4.7.7.4.+..... ._ _ _ Q Q ..4.9.8.8.5.4.4.4.4.4.+.O.................` ................ . . .` _ ! K Q K K ! _ `  . ...............................................X. ... . . ..... .d > > 6 > > > > = = - = = * * * * * * * % o . . X o % = > > 6 9 9 a a a d g g g g g h h h h h g g f f f f f a s a a s a s a a a s s j j 6 6 6 6 a a s f h ! o.$.F././.7.$.o.| J h h f f a f * ",
"#X#X$X$X$X$X$X$X#XV V >.%X=Xu.3.4.8./.).iX/.$.| f > - = % # # o o +   . = ! L.)./.(./.).).iXiXiX).F.7.$.+.+.7.@.!  .F././.F.F.7.+.7.7.7.F.F.F.F.F.F.F.D.7.7.7.7.).(.A w ) F.L.5.{ 6.{ { ` d 9 D lXiX6 * 9 : 6 : : = = 6 J  .+. .+.+.+.+.+.7.7.7.+.+.+.+.+.+.+.@.@.@.#.#.#.#.#.#.#.O.o...{ ` ` `  . . . .+.+.7.7.7.+... . ._ _ _ _ Q ! ..4.5.5.9.4.4.4.4.4.O.O.O...............................`  .` ` ` ` _ Q K K L L Q _ `  ... . . . . . . . . . . .......X.X.............X. . ..... ....... .s : = 7 > > > > = = - = = * * * * * * * % o . . . o % ; > > 6 9 9 j j a a g g g g g g h h h h g g f f f f f f a a a s s s s a a s s j j 6 6 6 6 j j a f h J | $.H././.F.$.o.| J J h f h a f * ",
"$X$X$X$X$X$X$X$XV V V 4X%Xy.s.3.4.8./.).)./.+.| a > - * # o # o o X   o 6 +.(.(.(.(./.).uXiXiX)._.F.$.+.+.@.7.+.K  .F././.F.7.7.+.7.7.7.F.F.F.F.F.F.F.D.7.7.7.7.P.lX8.) P.uXK.5.] ) Q G D d 9 d (.iXs = : * > = : = : 9 L  . . .+.+.+.+.+.+.+.+.+.+.+.+.+.+.+.+.+.#.#.o.o.o.o.o.o... .` ` ` ` ` |  . . .+.+.7.7.4.+. . ._ _ _ _ _ Q _ ..4.4.4.5.4.4.4.4.4.O.O.............................` ` _ _ _ _ _ _ _ Q K S S S Q _ _ ` .. . . . ._ _ _ _ ! _ _ _  . . . . . . . .X.X. . . . . . . ... ._ a - = > > = > = - - = = * * * * * * * * % o . . . o % ; > , 6 9 6 6 6 a a d d f g g f h h h h g g f f f f f f a a a a s a a s a s s j j 6 6 6 6 j j a f f h ~ +.$./._./.$.o.| ~ J h f f a f % ",
"$X$X$X$X$X$X$X$XV V V %X%Xu.s.3.4.F.(.iXuX/.+.! a > = * o o o o O .   # S 8.(.(.(././.).iXjX).)./.$.+.+.+.7.F.7.! +.F.)./.F.$.$.7.7.7.7.F.F.F.F.F.F.F.F.7.7.7.7.K.zXiX(.jXuXD.O.Q D 0 9 9 9 9 9 +.uX_ > = * > = : = > s J  . . .+.+.+.+.+.+.+.+.+.+.+.+.+.+.+.+.#.O.o.o.o.o.o.o.....` ` ` ` _ ` | |  .+.+.$.7.7.+... ._ _ _ _ _ ! Q _ ..4.4.4.4.4.4.4.4.O.O...............` ` ` ........` _ [ _ _ ! Q ! _ Q K L d s s L _ ! _  . . . . ._ _ ! ! ! ! ! ! ! ! ! ! _  . . . . . . . . . . . ...X.! 6 = = > - - > - - - = * * * * * * * * * % o . .   o % ; > > 6 9 6 6 6 6 a a d d g g f f h h g f f f f f f f f f a a a a a a a a s s a j 6 6 6 6 6 6 j f f h ~  .$./._./.$.o.| ~ J h f f a f % ",
"$X$X$X$X$X$X$X#XV V *.%X=Xu.3.4.4.F.).iX)./.+.! a > = * o X o o o .   * K F.(.(.(././.).iXiX).).F.+.+.+.+.7.F.$.! $./.)./.7.$.+.7.7.7.F.F.F.F.F.F.F.F.F.F.7.7.7.L.lXlXuXiXK.6.( d 9 > : ; > 9 9 K L.D.S * = > = : = > s !  . . .+.+.+.+.O.+.+.+.+.+.+.+.+.O.O.O.o.o.o... .o.o.o...` ` ` _ _ ~ ` ! |  .+.+.$.7.7.+..._ ! ! _ _ _ Q K _ ..4.+.4.4.4.4.4.O.O...............` ` _ _ ` ` ` ` ` _ _ _ _ ! Q Q Q K L S s 9 s D ! Q ! `  . . . ._ _ ! ! ! ! ! ! ! ! ! ! _ _ _  . . . . . .X. . . . . .! 6 * * - - - = = - - - * * * * * * % * * O o . . . + % ; > > 6 6 6 6 6 6 j a a a g g g g h g f f f f f f f f f f f f f f a a a a s s a j 6 6 6 6 6 6 j f f h ~ | $./._./.$.o.| ~ J J f f a f % ",
"$X$X$X$X$X$X$X#XV V *.%X=Xu.3.4.4.F.).iX)./. .J a > = * o X o o o . X ; K K.(.(./.(./.).iXiX)._./.$.+.+.+.$.7.+.! +./.)./.7.$.$.7.7.D.F.F.F.F.F.F.F.F.F.F.7.7.4.8.lXlXiXL.) [ ( 9 w : * % * > : 9 +.(.S * = : * : = > f !  . ...+.+.+.+. . .o.o.+.+.+.O.O. . . .o.o....... .o.o.` ` ` _ _ _ ~ ~ ~ |  .+.+.$.7.7.O..._ ! ! _ _ _ Q K _ ..+.O.+.4.+.+.+.O................. .` ` ` ` ` ` ` ` ` ` _ ` _ _ _ ! K D S s 9 9 L _ Q !  .X. . . . ._ ! ! ! ! ! ! ! ! ! ! _ _ _  . . . . . . .X. . . . .! 7 * * - = - - = - - - * * * * * * % * * O o . .   + % ; > > 6 6 6 7 6 6 j a a a g g g g g g f f f f f f f f f f f f f f f a a a s s s a j 6 6 7 6 6 j f f f ~ | $./._./.$.o.| ~ J J f f a f % ",
"$X$X$X$X$X$X$X#XV V >.;XqXs.X.X.4./.).iX).F. .h j - * * o o o X o . X > ..(.(.F.(.(./.).iXiX)./.F.$.+. .| $.7. .! $./._.F.$.+.+.7.7.D.F.F.F.F.F.F.F.D.7.7.7.7.5.4.L.uX(.] G A 9 : % % % % % ; > ; S ..S : * * * - = > f !  . . .+.+.+.+.+.o.o.O. . . . . . . . . .` ` ` ` `  . .` ` ` ` ~ ~ ~ !  . .o.+.@.7.7.5.O...` ! _ _ _ ! _ L _ 4.4...O.O................. . . .` _ _ _ _ _ _ ` ` ` ` _ _ Q Q Q ! _ ! D s 9 = 6 K ! ! .._ _ ! ! ! ! ! ! J ! ! ! ! ! ! ! J ! ! ! ! ! ! ! ! ! |  .X.|  . .L > * * - * * - * - - - * * * % % % % % O O o .   . . O * > > , > 6 7 6 6 6 6 j a f f f f f f f f f f f f f f f f a a a a a a a a s s j 6 6 6 7 > > 6 6 j a f ~ ! #.F._./.F.$.o.| J J h h a f % ",
"$X$X$X$X$X$X$X#XV V >.%X^.s.X.X.4.L.).iX).F. .h j - * * o o o X .   # s 4.(.(.(./.(./.).iXiX).G.o.~ ~  .$._._.7. .$././.F.$.$.$.7.7.F.F.F.F.F.K.F.F.F.F.F.7.7.5.` 6.P.D.K 9 : % % # O o X X % ; 9 D Q 9 % # * : - = > f !  . . .o. . . . . . . . . . . . . . . .` ` ` ` ` `  . .! ` ` ! ~ ~ ! `  . .o.+.@.7.7.@...` _ ! ! _ ! Q _ D ! 4.+....................... . . .` _ _ _ _ _ _ _ ` ` _ _ _ ! ! K D S S f f 7 : 6 f f ! O. .! ! ! ! ! ! ! J ! ! ! ! ! ! J J ! ! ! ! ! ! | | !  . .X.|  .X.J - * * = * * - * * - * * * * * % % % % O O o . . . . o * > , 6 > 6 7 6 6 6 6 a a s f f f f f f f f f f f f f f f f f a a a a a a s s j 6 6 6 7 > > 6 6 j a f ~ ! +.F._._.F.$.o.| J J h h a f % ",
"$X$X$X$X$X$X#X#XV V >.%Xu.s.X.+.4.L.).iX).F. .h a > = * # o o o   + : _ F.(.K.(.L././.uXiXiX)./.$.| #.).xXFXFXxXS.F.F.F.7.$.$.$.7.7.F.K././.K./.F.F.F.F.F.F.7.7.] <.6.] 9 : % X X X X X X o ; 9 ( .._ 9 # X o * = * > f !  . . . . . . ..... . . . . . . .! ! ! ` ` ` ` ` ` ` ` ~ ! ! ! ~ ! `  .|  .o.#.@.@.+.O.` _ ! ! ! ! Q Q L S Q O.....O................... . .` ` _ _ _ _ ! _ _ _ _ _ _ ! ! Q J f f K  .+. .....K a f ! J ! ! ! ! ! ! ! ! ! ! ! ! ! J ! ! ! ! ! ! ! | | | | |  . .|  . .h * # * * * * * * * * * * * * * % % % % O o o . . . X o * > , , > 6 6 6 6 j j a a s f f f f f f f f f f f f f f f f f f f f a a a s s j 6 6 6 > > 7 6 j j a f h ~ o.H._._./.$.o.| ! J h h f f * ",
"$X$X$X$X$X#X#XV V *.w.%Xu.s.X.+.4./.uXiX).7. .J a > - = % # # o X O 9 4.(.L.F.L.L.(.).uXiX).).F.$.| F.xXLXLXLXLX)._./.S.$.#.#.+.7.8.F./././.K./.F.F.F.F.F.D.7.5.6.( Z w ; ; % X X X X X # : A [ <.4. .s % X X o * * : s ! !  . ... . . . . . . . . . .! ! ! ~ ! ! ! ! ! ` ` ` ` ~ ! ! ! ~ ~ `  .|  .#.@.@.+.O..._ ! ~ ! ! ! Q Q S d K ......O............... . . .` ` _ _ _ _ ! ! _ _ _ _ _ ! ! J f h ! +.F.|.xXzXxXjXF.~ h h h ! ! ! ! ! ! J J ! ! ! ! ! ! ! ! ! ! ! ! ! ! | | | |  . .|  .| f * # # * % * * * * * * * * % % % % % % O o o . . . X O * > > , > > 6 6 6 j j a s a f f f f f f f f f f f f f f f f f f f a a a a s s j 6 6 6 > > 7 6 j j a f h ! o.7._.)./.F.+.| ! ! J J f f * ",
"$X$X$X$X$X#X#XV V *.%XqXu.3.X.X.7./.iXiX).7. .J a > - = % o o o o % s 9.(.K.F.L.L.(.).uXiX)./.F. .o._.bXLXLXLXLXxX|./.$.#.| | #.7.F.F././.K.F.F.F.F.F.F.F.7.7.4.4.b % O O % % X X X o % : 9 U ' S S s > % X o % * * > s J ! |  ... . . . . . . . . .` ! ! ! ! ! ! ! ~ ! ! ! ! ! ! ! ! ! ! ! ! `  .o.#.@.#.#...` ! ! Q ! _ Q Q K s s K .................. .` ` ` ` ` ` _ ! ! ! ! ! ! ! ! ! ! ! ! h f ~ $.|.xXFXLXLXLXFXzX).o.h J ! ! ! ! ! J J J J J J J J J ! ! J ! ! ! ! ! ! !  .|  . .|  .| f * # # * % * * * % % % % % % % O O O O o o + . . . + O * > > > > > 7 6 6 j j a a a a f f f f f f f f h f f f f f f f f f a s a a s s j 6 6 > > > 7 6 j j j f h J | $._.)._.F.$.| ! ! J J f f * ",
"$X$X$X$X$X#X#X#XV *.%XqXu.3.X.X.7./.iXiX/.7.| h j = * * # o o X o ; S 9.(.(.(.(./.(.).uXuX).F.$.o.S.xXLXLXLXLXLXxX).H.$.o.| | $.F.F.K././.F.F.F.F.F.F.F.F.7.7.4..., +   o % % X o % ; < 9 A Z 9 : * % # o   X # * * > f J ! !  . . . . . . .| | ! ! ! ! ~ ! ! ! ! ! ! ~ ! ! ! ~ ! ! ! ! ! ! ! ! o.#.#.#.#. .` _ ! Q Q Q Q Q G S 9 s Q .. .....`  .......` ` _ _ ` ` _ _ ! ! ! ! ! ! ! ! ! ! ! ! J h o._.bXLXLXLXLXLXLXLXLX/.h f ! ! ! ! ! J J J J J J J J J ! ! J J ! ! ! ! ! !  .|  . .|  .! a * # % * % % * % % % O % % O O O o o o o o . . . . + O * > > > > > > 7 6 6 6 a a a s f f f f f f f h h h f f f f f f f f f a a a s s j 6 6 > > > > 6 6 6 j a f h | $./._._./.$.o.| ! J J f h * ",
"$X$X$X$X$X#X#XV V 4X;XqXs.X.X.X.7.(.iXuX/.$.! h 6 - * * o o o X O , X.L.(.(.(.(.(.).uXiX)./.S.#.| F.xXLXLXFXLXbXjX_.$.o.| | o.7.F././././.F.F.K.F.F.F.F.F.D.7.4.( : X   X % ; % % : 9 9 9 9 ; % # o o # o X X o * * > f J J ! ! ` ` ! ! ! ! ! ! ! ! ! ! ! ! ! ! K ! ! ! ! ! ! ! ~ ! ! ! ! ! !  .o.#.#.+.o.` _ _ Q ~ ~ ~ Q G d s 9 s ! ..` ...._  . . . .` ` _ _ ` ` _ _ ! ! ! ! ! ! ! Q ! ! ! ! J ~ N.xXLXLXLXLXLXLXLXLXLXjX| a J J J J ! J J J J J J J J J ! ! ! ! ! ! ! ! ! !  .|  . .|  .! a * # # * # # % O % % O O O O O O o o o o . . . .   + O * > > > > > > > 7 6 6 j a a s f f f f f f f h h h f f f f f f f f f a s a s s j 6 6 > > > > 7 6 6 6 j g h | +./._._./.7.+.| | K K f h * ",
"$X$X$X$X$X#X#XV V 4X;X=Xs.X.X.+.7./.iX)./.+.J f 6 - * % o X X . % S 9.(.(.(.(.L.).uXiXiX)./.7.o.| _.xXFXzXzXzXxX).S.o.| | | +.F./././././.F././.F.F.F.F.F.D.7.4.G ;       % ; : : 9 9 9 : % o   X X o = : % o o % * > f L J K ! ! ! ! ! ! ! ! ! K K K K K K K K K ! ! ! ! ! ! ! ! ! ! ! ! !  . .+.+.+.#. .` ! ! Q Q Q Q J g a 7 9 s _ ..` ...._ ` `  .` ` ` _ _ `  ._ ! ! ! ! ! ! ! Q ! ! ! ! ! f ~ /.xXLXLXLXLXLXLXLXLXLXbX$.h J J J J J J J J J J J J J J ! ! ! ! ! ! ! ! ! !  .|  . .|  .! j * O % * # O % O % % O O O O O O o o o . . . . .   + O * > > > > > > > 7 7 6 j a a s f f f f f f h h h h f f f f f f f f f a s s s a j 6 6 > > > > > 6 6 6 j f h ~ +.F./._./.S.$.| | J J f h * ",
"$X$X$X$XV V V V V %XqXu.3.X.X.7.F.).jX).F.#.~ f > - * % o X   . ; K a.L.K.(.L.L.(.uXiX)./.F.7.+.| _.xXxXxX|.|._.S.+.|  .X...7.(.(.(.(.(.(.L.F.F./.F.8.7.8.F.4...9 O     X % ; : : < , : %       X o * > > * # # % * 6 S J L ! ! ! ! Q Q Q J J J J J J J R Q Q Q K K Q ! ! ! K K ! ! ! ! ~ `  . .+.+.+. . .! ! ! J J J f f f s a 6 f _ .... . ..._ _ _ _ ' ' _ _  .| | ! ! ! ! ! J J K J J J ! ! j h /.xXbXFXzXzXzXbXKXLXLXxXH.~ ! J L J J J L J J J J J L J J J ! ! ~ J J L | | | | .. . ...| j * * * % O O O O O % O O o o o o o o o + . .     . o * : > : : : - = > > > 6 j a a s f f f g g g f f f f f f f f f f f f a a s s s a j j 6 6 7 > 7 7 6 6 6 j a f !  .S._.)./.F.7.| ! J J h J * ",
"$XV V V V V V V *.%XqXu.3.X...7.F.).jX).F.#.~ f 7 - * % o X   X , <.(.uXuX(.(.(.K.).uX).K.F.F.7.%._._._._.$.$./.+.| J !  .4.L.(.(.(.(.(.(.(.(./.F.F.F.8.7.4..._ ; +   . . O * * % ; ; % o       X X % : > : % # # % > S J L L K K Q Q J J J J D J J J J J J J R K K Q ! ! ! K K ! K Q ! ! !  . .+. . . .| ! J J J h f f f a a j 9 f _ +.+. ._ ! _ _ _ _ _ _ [ _ ! ! ! ! J J J J ! ! ! ! ! J h h a h $.|.xXxXxXxXxXxXxXzXzX|.$.h J f f h h f f f f f h J J J L ! L ! |  .| | | ! | |  .| |  .! 6 * * % O O O O O O O O O O o o o o o + + . .     + O * : : : - = - - > > > 6 j a a s d f f f g g f f f f f f f f f f f f a a s s s a j j 6 6 > > > > 7 7 6 6 a f J | 7._.)._.H.$.| ! J ! J J * ",
"V V V V V V V V *.=XqXu.s.+.+.7./.).jX).F.+.~ f 7 - * # o X X X s <.(.(.(.(.K.(.(.).uX(.K.F.7.$.$._._.$.| | | o.| | |  .4.(.uXuXuXuXuX).(.L.F.8.7.7.7.4.4...F 9 O .   . . o O o O o o       X X X X # : 7 w ; * o # > f S L K L J J J J J J J J J J J J J J J J J K Q ! ! ! Q K Q K ! ! ! !  ... . . .| ! J J h f f f f a s a 6 6 s ! ..4.+. ._ ! ! _ _ ( ( _ _ ! ! ! ! ! ! ! ! ! ! ! L L K K L h h o._.|._.N._.jX|.|.jX|./.| j J J f J J f s s f f J J L L J J h J | |  . . . .o. . . . ...! 6 % % O O % O O O O O O O o o o o o + + . . .     + O * : : - = = - - > > > 6 j a a a s f f f g f f f f f f f f f f f f f f f s s a a j 6 6 6 > > > > > 7 6 6 a a h ~ $./.).).F.$.o.| K ! J J * ",
"V V V V V V V C >.=XqXs.4.+.+.F./.iXjX).S.o.~ f 7 - * o o X + o Z 4.K.L.K.K.K.(.).).uX(.K.F.D.7.%._._./.%.| | ~ |  .+.+.8.L.L.9.L.L.L.(.(.(.F.8.7.4.......( 6 % .   . + . + o . o X       X o o X X X % 7 9 > = o # : s f J K L J J J J J J J J h h h h h D D D J K K ! ! ! Q K K K K ! ! !  . . . .| ! J J h f f a s s a a 6 6 6 9 f ! ..+. .! L L K K _ _ ( ! L L L L L L L L ! L L J J L K ! h a J $./.$.%.$.| %.$././.$.~ a h f f J J f s s f f h J J J J J L J L ~ ! |  .+.+. . . . ...J > # O O O O O O O o o O O o o o o + . . . . .     + O ; ; ; = = = - - > > > 6 j a a a s f f f g f f f f f f f f f f f f f f f a a a a j 6 6 6 > > > > > > 7 6 j a f ~ #.G.).)./.$.o.| J ! J J * ",
"V V V V V V V C >.=Xu.3.+.+.+.F./.iXjX).7.o.J f 7 - % o o o o o Z <.L.(.(.K.L.K.8.9.4.+.+.7.F./.%.$._./.$.| | | +.$.+.! L S s > 9 s F ( 4.8.K.(.L.D.7...K 9 %   .   . X . + o . X         X X X X X X # > 9 7 : # # : d S L K L J J J D f D D J f f f f f f f h J J K ! ! ! ! ! K K ! ! ! !  . . . .! ! J h f f s s a a a j 6 6 6 6 6 s L K K L L K K ( _ _ _ _ _ _ _ _ _ _ _ _ X. ._ K L L S S f a a h | $.$.$.| +.$.$.+.! J h f s s f S f s s f f f f S L L L | | L L L L |  .X. .X...X. .f = O o O O % O O O o o o o o o o o . . . . . . . . + O ; * * = = = - - > > > 6 6 a a a a d f f f f f f f f f f f f f f f a f f a a s a j 6 6 6 > > > > > > > 6 6 j g Q o.S._.)._.7.#.| ! ! L L * ",
"V V V V V V V C >.^.u.<.X.+.@.H.).iXjX).$.| h a > - % o o o + X * s U X...U L L d 6 ; = > s ` 7.$._._.$.%.o.+.$.F.$.L > % o X     X o % : s K ..4.D.8._ , O         . . . o O +               X X X X # : 9 7 : * % > s f J K J J J f f f f f f g f f f f h D J J J K ! ! ! ! ! K Q ! ! ! |  . . .| ! J h f f a a a j j j j 6 6 > : : > s L K K K K K U ( K K K K K K K K K _ K L K _ ...._ U L J f j 6 a | $.+.$.$.$.| J f f J K L L L K L L L L L S S S S L L L L L L K K  . .X. .X.+. .L s - O o O O O O O o o o o o o o o o . . . . .   . . + % ; * * = : = - - > > > 6 6 a j a a s a f f f f f f f f f f f f f f a f f a a a a j 6 6 6 7 > > > > > 7 6 6 j g J ` @./.).).S.#. .! ! K L * ",
"V V V V V V V *.u.qXu.X...+.$.F.).iXjX/.$.| h j > * O o o o . .   O * * * * * > > * X   X # > a $.$./.$.$.$.7.F.+.J = o                 . X % = s S S > O       . . . . . O O +       X       X X o o # % > w > = * > a d S L S h f f f f f f f f f f f f J J J J J K ! ! ! ! ! K ! ! !  . . . . .! ! J f a s a j j 6 6 j 6 6 6 > = * : 6 s S S s s s 9 9 6 > < * * * * * * * * * : 9 S K ' ' X.! J f a f h h h j a a f f h K ! X.K K L K K K _ L L L L L L L S f f S S L L K  .X.| X. .L s , * o o O O O O O o o o o o o o + . . . . .     . . + % ; * * = : = - - > > > 6 6 j j a a a a f d d f f f f f f f f f f f a f f a a f a a j j 6 7 > > > 7 7 7 6 6 j g J ~ +./.|.).F.+.o.! ! K K * ",
"V V V V V C *.>.u.qXa.X...$.7.F.).iXjX/.#.~ h j > * O o o o . . . . .     X * 9 Z > * # o o # * h | S././.F.7.7.f = X             o o o     . X o o o X       . . . . . + O % + X X o X X   X X o # # # % : > > : = : 9 s f J f f f f f f f s s f f f f S J J J J J K ! ! ! ! ! ! ! ~ !  . . . .! ! K f f s a j j 6 6 6 j 6 6 6 > : * * = : : : * * % # o X X                       o % : s L U K L !  .| h a f h h J | ! _ ! L K S S f S s S S s f S K U _ ' _ K L f s 6 s S L L S L f , : * o o o O O O O O o o o o o o o o . . . . .   . . . + % * * * = : = - = > > > 7 6 j j j a a a a d d f f f f f f f f f f f a f f a a f s a j j j 6 7 > > 7 7 7 6 6 j g J ~ o./.jX).G.$.o.! ! K K * ",
"V V V V V C C >.^.^.9.X...+.$.F.iXjXiX/.+.J f j > * % o o X . . . + . . X o * s S > % O o # # X - h /./././.$.J * o .     . X X O O % O o o o o . . . . . . . . . . X o O * % o o o X o X     X # # o # # * : w > = = 7 d g f g f f f f s s s a s s f f f f f h f J Q ! ! Q K K ! ! ! ! !  . . .! K S f s 9 9 9 6 6 6 6 6 6 6 6 6 > = * % o o o X X     .           . . .           X     o * , _ X.X.K L L ! ! | |  . .X.U L L : * O o o o o o O O * * > s S L U _ '  .U L S s s f S a : O o o o O % % O o o o o o + o o o + + . . . . . . . . O % * * * * = = = - = > > > 6 6 6 j a a s s d d s a a f f f f f f f f a a a a a a a a j 6 > > > > > > > > 6 6 j a h ~ o.S._.)./.$.+.! | ! K * ",
"V V V V V C T >.^.^.s.X...+.$./.iXjXiX/...J f j > * O o o X . . . . . . . X * s S > * O o % * o # j .././.+.f > X           o O * ; ; = * * * * % % o o o . . . . . . o O * % o o o X o X o o o # # # # # % : 7 w : : 7 s f f g f f f f s s s s s s s f f f f f f J Q ! ! Q K K ! ! ! ! !  . .! ! J f s s 6 6 9 6 6 6 6 6 6 6 6 > - * * % # o o X X X X     X X   . . . .         . X       o % 9 S ' X. .! K L L !  .X.L 9 * o o X . .   . . .         . + O O > , s s S F F L s s , * o . X o o O O % O o o o o o o o + + + . . . . . . . . . o % * * * * = = = - = > > > 6 j 6 j a a s s d d s a a f f f f f f f f a a a a a a a a j 6 > > > > > > > > 7 6 6 a h ~ | $._.)._.7.#.| | ! L * ",
"V V V V C C T s.^.^.s.X. .+.7._.iXiX).F.| h a j > * O o o . . . . . . . . . % 9 F > * # o * : * o * a $.$.f * o             O ; ; > , , > , , > > > : ; * % O o o o o o * * * o o o X o o O o X # # % % # % = > 7 > : 7 9 d d f a s a s s s s s s s s s s f f f f J Q ! ! Q K K ! ! ~ !  .` ! ! L f s s 9 6 6 6 6 6 6 6 6 6 6 6 > - = = * * % * # # o o o o o o O O O O # O o o o o o X .       o ; S U X.X.X.X.X.K S 6 : O .   .               . .         . . . . . o O * * * ; * O X . . o O o O O O O o o O o o + + + + + . . . . .   . . . o O * * % * = = * - = > > > 6 6 j j j a s s d d s a a f a f f f f f f f a a s a a a a j 6 7 > > > = > > > 7 6 6 a f ~ ~ @./.)._.F.$. . .! ! = ",
"V V V V C C T s.^.^.+.| X.+.7.).iXiX).7.| h a j > * O o o . . . . + . . . . O , F > * # # : 6 > * % > J L > % o X . . .   X % : > , s a s s s a a a a 6 , > : : : : * * * * % o o o X o # % % o # % * % # # * : 9 7 : > 6 a d f s s s a a a a a s a s s s s f f f J Q ! ! Q K K ! ! !  . .` ! K f s s j 6 > > 6 6 6 6 6 6 6 6 6 6 > > > > : : : : : : ; ; ; ; ; : : : : : : ; ; * * # o o X .     o ; 9 S L U _ L s = o . . . . . . . . . . . . . . . .                   . . . . . . . . + O O o O O O O o o o o o o + + . . . . . . .   . . . o O % % % * * * = - = > > > 6 6 j j j a s s d d s a a f a f f f f f f f a a a a a a a j 6 > > > = = = > > > 7 6 j g J ~ o.G.).)./.$. . .! ! = ",
"V V V C C T d.u.^.9.X.| X.+.7.).iXiX(.7.| h a j > * O o o + . + . + . . . . O , S , * O # > s 9 > = : j s 6 ; * # o X X o O * : > 6 s s s s a j j j a s j a 6 , 9 , < : ; = % X o o X X % * * # # % * % # # % : q 7 > : 7 9 d d s s s a a j j j a a s s a s s f f J K ! ! K K K ! ! !  . .! ! J f s 9 9 6 > > 6 6 6 6 6 9 9 9 9 9 6 > 6 9 6 7 6 7 7 9 > > > > > > > > > > : : : > : * # o X . .   . o % ; , , > * O X .     . . . . . + + + + .   . . .         . . . . . . . . . . . . + + + + o O O O O o o O o o o o + + . . . . . . . . . . o O % % % * * * = - = > > > 6 6 j j a a a s d s s a a a a a f f f f f f a a a a a a j j 6 7 > > > > > > > > 7 7 6 g h Q  .H.).)./.7. . .! ! ; "
};
